assets/luts/cinematic_teal_orange.cube
TITLE "Cinematic Teal-Orange"
LUT_3D_SIZE 5
DOMAIN_MIN 0.0 0.0 0.0
DOMAIN_MAX 1.0 1.0 1.0
0.000000 0.000000 0.000000
0.231541 0.000000 0.002242
0.468688 0.000000 0.004485
0.711441 0.000000 0.006727
0.959800 0.000000 0.008970
0.007338 0.216169 0.004402
0.244381 0.218037 0.006645
0.487031 0.219906 0.008887
0.735287 0.221775 0.011130
0.989150 0.223644 0.013372
0.014675 0.439675 0.008805
0.257222 0.443412 0.011047
0.505375 0.447150 0.013290
0.759134 0.450887 0.015532
1.000000 0.454625 0.017775
0.022013 0.670519 0.013207
0.270063 0.676125 0.015450
0.523719 0.681731 0.017692
0.782981 0.687337 0.019935
1.000000 0.692944 0.022177
0.029350 0.908700 0.017610
0.282903 0.916175 0.019852
0.542063 0.923650 0.022095
0.806828 0.931125 0.024338
1.000000 0.938600 0.026580
0.001425 0.000000 0.249786
0.234034 0.000000 0.249226
0.472250 0.000000 0.248665
0.716072 0.000000 0.248104
0.965500 0.000000 0.247544
0.008762 0.216881 0.248686
0.246875 0.218750 0.248125
0.490594 0.220619 0.247564
0.739919 0.222488 0.247004
0.994850 0.224356 0.246443
0.016100 0.441100 0.247585
0.259716 0.444837 0.247024
0.508938 0.448575 0.246464
0.763766 0.452313 0.245903
1.000000 0.456050 0.245343
0.023438 0.672656 0.246484
0.272556 0.678262 0.245924
0.527281 0.683869 0.245363
0.787613 0.689475 0.244803
1.000000 0.695081 0.244242
0.030775 0.911550 0.245384
0.285397 0.919025 0.244823
0.545625 0.926500 0.244262
0.811459 0.933975 0.243702
1.000000 0.941450 0.243141
0.002850 0.000000 0.497435
0.236528 0.000000 0.494071
0.475812 0.000000 0.490708
0.720703 0.000000 0.487344
0.971200 0.000000 0.483980
0.010188 0.217594 0.490831
0.249369 0.219463 0.487467
0.494156 0.221331 0.484104
0.744550 0.223200 0.480740
1.000000 0.225069 0.477376
0.017525 0.442525 0.484227
0.262209 0.446263 0.480864
0.512500 0.450000 0.477500
0.768397 0.453738 0.474136
1.000000 0.457475 0.470773
0.024862 0.674794 0.477624
0.275050 0.680400 0.474260
0.530844 0.686006 0.470896
0.792244 0.691612 0.467533
1.000000 0.697219 0.464169
0.032200 0.914400 0.471020
0.287891 0.921875 0.467656
0.549188 0.929350 0.464293
0.816091 0.936825 0.460929
1.000000 0.944300 0.457565
0.004275 0.000000 0.742946
0.239022 0.000000 0.736779
0.479375 0.000000 0.730612
0.725334 0.000000 0.724446
0.976900 0.000000 0.718279
0.011613 0.218306 0.730839
0.251862 0.220175 0.724673
0.497719 0.222044 0.718506
0.749181 0.223912 0.712339
1.000000 0.225781 0.706172
0.018950 0.443950 0.718732
0.264703 0.447688 0.712566
0.516062 0.451425 0.706399
0.773028 0.455162 0.700232
1.000000 0.458900 0.694065
0.026287 0.676931 0.706626
0.277544 0.682538 0.700459
0.534406 0.688144 0.694292
0.796875 0.693750 0.688125
1.000000 0.699356 0.681958
0.033625 0.917250 0.694519
0.290384 0.924725 0.688352
0.552750 0.932200 0.682185
0.820722 0.939675 0.676018
1.000000 0.947150 0.669851
0.005700 0.000000 0.986320
0.241516 0.000000 0.977350
0.482938 0.000000 0.968380
0.729966 0.000000 0.959410
0.982600 0.000000 0.950440
0.013038 0.219019 0.968710
0.254356 0.220887 0.959740
0.501281 0.222756 0.950770
0.753812 0.224625 0.941800
1.000000 0.226494 0.932830
0.020375 0.445375 0.951100
0.267197 0.449112 0.942130
0.519625 0.452850 0.933160
0.777659 0.456587 0.924190
1.000000 0.460325 0.915220
0.027713 0.679069 0.933490
0.280037 0.684675 0.924520
0.537969 0.690281 0.915550
0.801506 0.695887 0.906580
1.000000 0.701494 0.897610
0.035050 0.920100 0.915880
0.292878 0.927575 0.906910
0.556313 0.935050 0.897940
0.825353 0.942525 0.888970
1.000000 0.950000 0.880000
