assets/luts/cinematic_teal_orange.cube
TITLE "Cinematic Teal-Orange"
LUT_3D_SIZE 17
DOMAIN_MIN 0.0 0.0 0.0
DOMAIN_MAX 1.0 1.0 1.0
0.000000 0.000000 0.000000
0.057360 0.000000 0.000561
0.115070 0.000000 0.001121
0.173130 0.000000 0.001682
0.231541 0.000000 0.002242
0.290302 0.000000 0.002803
0.349413 0.000000 0.003364
0.408875 0.000000 0.003924
0.468688 0.000000 0.004485
0.528850 0.000000 0.005046
0.589363 0.000000 0.005606
0.650227 0.000000 0.006167
0.711441 0.000000 0.006727
0.773005 0.000000 0.007288
0.834920 0.000000 0.007849
0.897185 0.000000 0.008409
0.959800 0.000000 0.008970
0.001834 0.053354 0.001101
0.059538 0.053471 0.001661
0.117592 0.053588 0.002222
0.175996 0.053705 0.002782
0.234751 0.053821 0.003343
0.293856 0.053938 0.003904
0.353311 0.054055 0.004464
0.413117 0.054172 0.005025
0.473273 0.054289 0.005586
0.533780 0.054405 0.006146
0.594637 0.054522 0.006707
0.655845 0.054639 0.007267
0.717402 0.054756 0.007828
0.779311 0.054873 0.008389
0.841569 0.054989 0.008949
0.904178 0.055106 0.009510
0.967137 0.055223 0.010071
0.003669 0.107167 0.002201
0.061716 0.107401 0.002762
0.120114 0.107634 0.003322
0.178862 0.107868 0.003883
0.237961 0.108102 0.004444
0.297410 0.108335 0.005004
0.357209 0.108569 0.005565
0.417359 0.108802 0.006126
0.477859 0.109036 0.006686
0.538710 0.109270 0.007247
0.599911 0.109503 0.007807
0.661462 0.109737 0.008368
0.723364 0.109970 0.008929
0.785616 0.110204 0.009489
0.848219 0.110437 0.010050
0.911172 0.110671 0.010611
0.974475 0.110905 0.011171
0.005503 0.161439 0.003302
0.063895 0.161789 0.003863
0.122636 0.162139 0.004423
0.181729 0.162490 0.004984
0.241171 0.162840 0.005544
0.300964 0.163191 0.006105
0.361107 0.163541 0.006666
0.421601 0.163891 0.007226
0.482445 0.164242 0.007787
0.543640 0.164592 0.008347
0.605185 0.164943 0.008908
0.667080 0.165293 0.009469
0.729326 0.165643 0.010029
0.791922 0.165994 0.010590
0.854868 0.166344 0.011151
0.918165 0.166695 0.011711
0.981812 0.167045 0.012272
0.007338 0.216169 0.004402
0.066073 0.216636 0.004963
0.125159 0.217103 0.005524
0.184595 0.217570 0.006084
0.244381 0.218037 0.006645
0.304518 0.218505 0.007206
0.365005 0.218972 0.007766
0.425843 0.219439 0.008327
0.487031 0.219906 0.008887
0.548570 0.220373 0.009448
0.610459 0.220841 0.010009
0.672698 0.221308 0.010569
0.735287 0.221775 0.011130
0.798228 0.222242 0.011691
0.861518 0.222709 0.012251
0.925159 0.223177 0.012812
0.989150 0.223644 0.013372
0.009172 0.271357 0.005503
0.068251 0.271941 0.006064
0.127681 0.272525 0.006624
0.187461 0.273109 0.007185
0.247591 0.273693 0.007746
0.308072 0.274277 0.008306
0.368904 0.274861 0.008867
0.430085 0.275445 0.009427
0.491617 0.276029 0.009988
0.553500 0.276613 0.010549
0.615732 0.277197 0.011109
0.678316 0.277781 0.011670
0.741249 0.278365 0.012231
0.804533 0.278949 0.012791
0.868168 0.279533 0.013352
0.932152 0.280117 0.013912
0.996487 0.280701 0.014473
0.011006 0.327005 0.006604
0.070429 0.327705 0.007164
0.130203 0.328406 0.007725
0.190327 0.329107 0.008286
0.250802 0.329808 0.008846
0.311626 0.330509 0.009407
0.372802 0.331209 0.009967
0.434327 0.331910 0.010528
0.496203 0.332611 0.011089
0.558429 0.333312 0.011649
0.621006 0.334012 0.012210
0.683933 0.334713 0.012771
0.747211 0.335414 0.013331
0.810839 0.336115 0.013892
0.874817 0.336816 0.014453
0.939146 0.337516 0.015013
1.000000 0.338217 0.015574
0.012841 0.383111 0.007704
0.072608 0.383928 0.008265
0.132725 0.384746 0.008826
0.193193 0.385563 0.009386
0.254012 0.386381 0.009947
0.315180 0.387198 0.010507
0.376700 0.388016 0.011068
0.438569 0.388834 0.011629
0.500789 0.389651 0.012189
0.563359 0.390469 0.012750
0.626280 0.391286 0.013311
0.689551 0.392104 0.013871
0.753173 0.392921 0.014432
0.817145 0.393739 0.014993
0.881467 0.394557 0.015553
0.946139 0.395374 0.016114
1.000000 0.396192 0.016674
0.014675 0.439675 0.008805
0.074786 0.440609 0.009366
0.135248 0.441544 0.009926
0.196060 0.442478 0.010487
0.257222 0.443412 0.011047
0.318735 0.444347 0.011608
0.380598 0.445281 0.012169
0.442811 0.446216 0.012729
0.505375 0.447150 0.013290
0.568289 0.448084 0.013851
0.631554 0.449019 0.014411
0.695169 0.449953 0.014972
0.759134 0.450887 0.015532
0.823450 0.451822 0.016093
0.888116 0.452756 0.016654
0.953133 0.453691 0.017214
1.000000 0.454625 0.017775
0.016509 0.496698 0.009906
0.076964 0.497749 0.010466
0.137770 0.498800 0.011027
0.198926 0.499852 0.011587
0.260432 0.500903 0.012148
0.322289 0.501954 0.012709
0.384496 0.503005 0.013269
0.447053 0.504056 0.013830
0.509961 0.505107 0.014391
0.573219 0.506159 0.014951
0.636828 0.507210 0.015512
0.700787 0.508261 0.016072
0.765096 0.509312 0.016633
0.829756 0.510363 0.017194
0.894766 0.511414 0.017754
0.960127 0.512466 0.018315
1.000000 0.513517 0.018876
0.018344 0.554180 0.011006
0.079143 0.555348 0.011567
0.140292 0.556516 0.012127
0.201792 0.557684 0.012688
0.263642 0.558852 0.013249
0.325843 0.560020 0.013809
0.388394 0.561187 0.014370
0.451295 0.562355 0.014931
0.514547 0.563523 0.015491
0.578149 0.564691 0.016052
0.642102 0.565859 0.016612
0.706404 0.567027 0.017173
0.771058 0.568195 0.017734
0.836062 0.569363 0.018294
0.901416 0.570531 0.018855
0.967120 0.571699 0.019416
1.000000 0.572867 0.019976
0.020178 0.612120 0.012107
0.081321 0.613405 0.012667
0.142814 0.614689 0.013228
0.204658 0.615974 0.013789
0.266852 0.617259 0.014349
0.329397 0.618544 0.014910
0.392292 0.619829 0.015471
0.455537 0.621113 0.016031
0.519133 0.622398 0.016592
0.583079 0.623683 0.017152
0.647375 0.624968 0.017713
0.712022 0.626252 0.018274
0.777020 0.627537 0.018834
0.842367 0.628822 0.019395
0.908065 0.630107 0.019956
0.974114 0.631391 0.020516
1.000000 0.632676 0.021077
0.022013 0.670519 0.013207
0.083499 0.671920 0.013768
0.145337 0.673322 0.014329
0.207524 0.674723 0.014889
0.270063 0.676125 0.015450
0.332951 0.677527 0.016011
0.396190 0.678928 0.016571
0.459779 0.680330 0.017132
0.523719 0.681731 0.017692
0.588009 0.683133 0.018253
0.652649 0.684534 0.018814
0.717640 0.685936 0.019374
0.782981 0.687337 0.019935
0.848673 0.688739 0.020496
0.914715 0.690141 0.021056
0.981107 0.691542 0.021617
1.000000 0.692944 0.022177
0.023847 0.729376 0.014308
0.085678 0.730895 0.014869
0.147859 0.732413 0.015429
0.210391 0.733931 0.015990
0.273273 0.735450 0.016551
0.336505 0.736968 0.017111
0.400088 0.738486 0.017672
0.464021 0.740005 0.018232
0.528305 0.741523 0.018793
0.592939 0.743041 0.019354
0.657923 0.744560 0.019914
0.723258 0.746078 0.020475
0.788943 0.747596 0.021036
0.854979 0.749115 0.021596
0.921364 0.750633 0.022157
0.988101 0.752152 0.022717
1.000000 0.753670 0.023278
0.025681 0.788692 0.015409
0.087856 0.790327 0.015969
0.150381 0.791963 0.016530
0.213257 0.793598 0.017091
0.276483 0.795233 0.017651
0.340059 0.796868 0.018212
0.403986 0.798503 0.018773
0.468263 0.800138 0.019333
0.532891 0.801773 0.019894
0.597869 0.803409 0.020454
0.663197 0.805044 0.021015
0.728876 0.806679 0.021576
0.794905 0.808314 0.022136
0.861284 0.809949 0.022697
0.928014 0.811584 0.023258
0.995094 0.813220 0.023818
1.000000 0.814855 0.024379
0.027516 0.848467 0.016509
0.090034 0.850219 0.017070
0.152904 0.851971 0.017631
0.216123 0.853723 0.018191
0.279693 0.855475 0.018752
0.343613 0.857227 0.019312
0.407884 0.858979 0.019873
0.472505 0.860730 0.020434
0.537477 0.862482 0.020994
0.602798 0.864234 0.021555
0.668471 0.865986 0.022116
0.734493 0.867738 0.022676
0.800866 0.869490 0.023237
0.867590 0.871242 0.023797
0.934664 0.872994 0.024358
1.000000 0.874746 0.024919
1.000000 0.876498 0.025479
0.029350 0.908700 0.017610
0.092213 0.910569 0.018171
0.155426 0.912438 0.018731
0.218989 0.914306 0.019292
0.282903 0.916175 0.019852
0.347167 0.918044 0.020413
0.411782 0.919913 0.020974
0.476747 0.921781 0.021534
0.542063 0.923650 0.022095
0.607728 0.925519 0.022656
0.673745 0.927388 0.023216
0.740111 0.929256 0.023777
0.806828 0.931125 0.024338
0.873896 0.932994 0.024898
0.941313 0.934862 0.025459
1.000000 0.936731 0.026019
1.000000 0.938600 0.026580
0.000356 0.000000 0.062647
0.057783 0.000000 0.063032
0.115559 0.000000 0.063418
0.173687 0.000000 0.063803
0.232164 0.000000 0.064189
0.290992 0.000000 0.064574
0.350170 0.000000 0.064960
0.409699 0.000000 0.065345
0.469578 0.000000 0.065730
0.529808 0.000000 0.066116
0.590388 0.000000 0.066501
0.651318 0.000000 0.066887
0.712598 0.000000 0.067272
0.774229 0.000000 0.067658
0.836211 0.000000 0.068043
0.898543 0.000000 0.068428
0.961225 0.000000 0.068814
0.002191 0.053399 0.063404
0.059961 0.053516 0.063789
0.118082 0.053632 0.064174
0.176553 0.053749 0.064560
0.235374 0.053866 0.064945
0.294546 0.053983 0.065331
0.354068 0.054100 0.065716
0.413941 0.054216 0.066102
0.474164 0.054333 0.066487
0.534737 0.054450 0.066873
0.595661 0.054567 0.067258
0.656936 0.054684 0.067643
0.718560 0.054800 0.068029
0.780535 0.054917 0.068414
0.842861 0.055034 0.068800
0.905536 0.055151 0.069185
0.968562 0.055268 0.069571
0.004025 0.107256 0.064160
0.062139 0.107490 0.064546
0.120604 0.107723 0.064931
0.179419 0.107957 0.065317
0.238584 0.108191 0.065702
0.298100 0.108424 0.066087
0.357966 0.108658 0.066473
0.418183 0.108891 0.066858
0.478750 0.109125 0.067244
0.539667 0.109359 0.067629
0.600935 0.109592 0.068015
0.662553 0.109826 0.068400
0.724522 0.110059 0.068785
0.786841 0.110293 0.069171
0.849510 0.110527 0.069556
0.912530 0.110760 0.069942
0.975900 0.110994 0.070327
0.005859 0.161572 0.064917
0.064318 0.161923 0.065302
0.123126 0.162273 0.065688
0.182285 0.162623 0.066073
0.241795 0.162974 0.066459
0.301654 0.163324 0.066844
0.361864 0.163675 0.067230
0.422425 0.164025 0.067615
0.483336 0.164375 0.068000
0.544597 0.164726 0.068386
0.606209 0.165076 0.068771
0.668171 0.165427 0.069157
0.730484 0.165777 0.069542
0.793146 0.166127 0.069928
0.856160 0.166478 0.070313
0.919523 0.166828 0.070698
0.983237 0.167179 0.071084
0.007694 0.216347 0.065674
0.066496 0.216814 0.066059
0.125648 0.217281 0.066445
0.185151 0.217748 0.066830
0.245005 0.218216 0.067215
0.305208 0.218683 0.067601
0.365762 0.219150 0.067986
0.426667 0.219617 0.068372
0.487922 0.220084 0.068757
0.549527 0.220552 0.069143
0.611483 0.221019 0.069528
0.673789 0.221486 0.069913
0.736445 0.221953 0.070299
0.799452 0.222420 0.070684
0.862809 0.222887 0.071070
0.926517 0.223355 0.071455
0.990575 0.223822 0.071841
0.009528 0.271580 0.066430
0.068674 0.272164 0.066816
0.128171 0.272748 0.067201
0.188018 0.273332 0.067587
0.248215 0.273916 0.067972
0.308762 0.274500 0.068358
0.369661 0.275084 0.068743
0.430909 0.275668 0.069128
0.492508 0.276252 0.069514
0.554457 0.276836 0.069899
0.616757 0.277420 0.070285
0.679407 0.278004 0.070670
0.742407 0.278588 0.071056
0.805758 0.279172 0.071441
0.869459 0.279756 0.071826
0.933511 0.280340 0.072212
0.997913 0.280924 0.072597
0.011362 0.327272 0.067187
0.070853 0.327973 0.067572
0.130693 0.328673 0.067958
0.190884 0.329374 0.068343
0.251425 0.330075 0.068729
0.312317 0.330776 0.069114
0.373559 0.331477 0.069500
0.435151 0.332177 0.069885
0.497094 0.332878 0.070270
0.559387 0.333579 0.070656
0.622030 0.334280 0.071041
0.685024 0.334980 0.071427
0.748369 0.335681 0.071812
0.812063 0.336382 0.072198
0.876109 0.337083 0.072583
0.940504 0.337784 0.072968
1.000000 0.338484 0.073354
0.013197 0.383422 0.067944
0.073031 0.384240 0.068329
0.133215 0.385057 0.068715
0.193750 0.385875 0.069100
0.254635 0.386693 0.069485
0.315871 0.387510 0.069871
0.377457 0.388328 0.070256
0.439393 0.389145 0.070642
0.501680 0.389963 0.071027
0.564317 0.390780 0.071413
0.627304 0.391598 0.071798
0.690642 0.392416 0.072183
0.754330 0.393233 0.072569
0.818369 0.394051 0.072954
0.882758 0.394868 0.073340
0.947498 0.395686 0.073725
1.000000 0.396504 0.074111
0.015031 0.440031 0.068700
0.075209 0.440966 0.069086
0.135738 0.441900 0.069471
0.196616 0.442834 0.069857
0.257845 0.443769 0.070242
0.319425 0.444703 0.070628
0.381355 0.445638 0.071013
0.443635 0.446572 0.071398
0.506266 0.447506 0.071784
0.569247 0.448441 0.072169
0.632578 0.449375 0.072555
0.696260 0.450309 0.072940
0.760292 0.451244 0.073326
0.824675 0.452178 0.073711
0.889408 0.453112 0.074096
0.954491 0.454047 0.074482
1.000000 0.454981 0.074867
0.016866 0.497099 0.069457
0.077387 0.498150 0.069843
0.138260 0.499201 0.070228
0.199482 0.500252 0.070613
0.261055 0.501304 0.070999
0.322979 0.502355 0.071384
0.385253 0.503406 0.071770
0.447877 0.504457 0.072155
0.510852 0.505508 0.072541
0.574177 0.506559 0.072926
0.637852 0.507611 0.073311
0.701878 0.508662 0.073697
0.766254 0.509713 0.074082
0.830980 0.510764 0.074468
0.896057 0.511815 0.074853
0.961485 0.512866 0.075239
1.000000 0.513918 0.075624
0.018700 0.554625 0.070214
0.079566 0.555793 0.070599
0.140782 0.556961 0.070985
0.202349 0.558129 0.071370
0.264266 0.559297 0.071755
0.326533 0.560465 0.072141
0.389151 0.561633 0.072526
0.452119 0.562801 0.072912
0.515437 0.563969 0.073297
0.579106 0.565137 0.073683
0.643126 0.566305 0.074068
0.707496 0.567473 0.074453
0.772216 0.568641 0.074839
0.837286 0.569809 0.075224
0.902707 0.570977 0.075610
0.968478 0.572145 0.075995
1.000000 0.573313 0.076381
0.020534 0.612610 0.070970
0.081744 0.613895 0.071356
0.143304 0.615179 0.071741
0.205215 0.616464 0.072127
0.267476 0.617749 0.072512
0.330087 0.619034 0.072898
0.393049 0.620318 0.073283
0.456361 0.621603 0.073668
0.520023 0.622888 0.074054
0.584036 0.624173 0.074439
0.648400 0.625457 0.074825
0.713113 0.626742 0.075210
0.778177 0.628027 0.075596
0.843592 0.629312 0.075981
0.909357 0.630596 0.076366
0.975472 0.631881 0.076752
1.000000 0.633166 0.077137
0.022369 0.671053 0.071727
0.083922 0.672455 0.072113
0.145827 0.673856 0.072498
0.208081 0.675258 0.072883
0.270686 0.676659 0.073269
0.333641 0.678061 0.073654
0.396947 0.679463 0.074040
0.460603 0.680864 0.074425
0.524609 0.682266 0.074811
0.588966 0.683667 0.075196
0.653673 0.685069 0.075581
0.718731 0.686470 0.075967
0.784139 0.687872 0.076352
0.849897 0.689273 0.076738
0.916006 0.690675 0.077123
0.982465 0.692077 0.077509
1.000000 0.693478 0.077894
0.024203 0.729955 0.072484
0.086101 0.731473 0.072869
0.148349 0.732992 0.073255
0.210947 0.734510 0.073640
0.273896 0.736029 0.074026
0.337195 0.737547 0.074411
0.400845 0.739065 0.074796
0.464845 0.740584 0.075182
0.529195 0.742102 0.075567
0.593896 0.743620 0.075953
0.658947 0.745139 0.076338
0.724349 0.746657 0.076724
0.790101 0.748175 0.077109
0.856203 0.749694 0.077494
0.922656 0.751212 0.077880
0.989459 0.752730 0.078265
1.000000 0.754249 0.078651
0.026038 0.789316 0.073240
0.088279 0.790951 0.073626
0.150871 0.792586 0.074011
0.213813 0.794221 0.074397
0.277106 0.795856 0.074782
0.340749 0.797491 0.075168
0.404743 0.799127 0.075553
0.469087 0.800762 0.075938
0.533781 0.802397 0.076324
0.598826 0.804032 0.076709
0.664221 0.805667 0.077095
0.729967 0.807302 0.077480
0.796063 0.808937 0.077866
0.862509 0.810573 0.078251
0.929305 0.812208 0.078636
0.996453 0.813843 0.079022
1.000000 0.815478 0.079407
0.027872 0.849135 0.073997
0.090457 0.850887 0.074383
0.153393 0.852639 0.074768
0.216680 0.854391 0.075153
0.280316 0.856143 0.075539
0.344304 0.857895 0.075924
0.408641 0.859646 0.076310
0.473329 0.861398 0.076695
0.538367 0.863150 0.077081
0.603756 0.864902 0.077466
0.669495 0.866654 0.077851
0.735584 0.868406 0.078237
0.802024 0.870158 0.078622
0.868814 0.871910 0.079008
0.935955 0.873662 0.079393
1.000000 0.875414 0.079779
1.000000 0.877166 0.080164
0.029706 0.909412 0.074754
0.092636 0.911281 0.075139
0.155916 0.913150 0.075525
0.219546 0.915019 0.075910
0.283527 0.916887 0.076296
0.347858 0.918756 0.076681
0.412539 0.920625 0.077066
0.477571 0.922494 0.077452
0.542953 0.924362 0.077837
0.608686 0.926231 0.078223
0.674769 0.928100 0.078608
0.741202 0.929969 0.078994
0.807986 0.931837 0.079379
0.875120 0.933706 0.079764
0.942605 0.935575 0.080150
1.000000 0.937444 0.080535
1.000000 0.939312 0.080921
0.000713 0.000000 0.125160
0.058206 0.000000 0.125371
0.116049 0.000000 0.125581
0.174243 0.000000 0.125791
0.232788 0.000000 0.126001
0.291682 0.000000 0.126211
0.350927 0.000000 0.126422
0.410523 0.000000 0.126632
0.470469 0.000000 0.126842
0.530765 0.000000 0.127052
0.591412 0.000000 0.127263
0.652409 0.000000 0.127473
0.713756 0.000000 0.127683
0.775454 0.000000 0.127893
0.837502 0.000000 0.128104
0.899901 0.000000 0.128314
0.962650 0.000000 0.128524
0.002547 0.053443 0.125573
0.060384 0.053560 0.125783
0.118571 0.053677 0.125994
0.177109 0.053794 0.126204
0.235998 0.053911 0.126414
0.295236 0.054027 0.126624
0.354825 0.054144 0.126834
0.414765 0.054261 0.127045
0.475055 0.054378 0.127255
0.535695 0.054495 0.127465
0.596686 0.054611 0.127675
0.658027 0.054728 0.127886
0.719718 0.054845 0.128096
0.781760 0.054962 0.128306
0.844152 0.055079 0.128516
0.906895 0.055195 0.128727
0.969988 0.055312 0.128937
0.004381 0.107345 0.125986
0.062562 0.107579 0.126196
0.121094 0.107812 0.126406
0.179976 0.108046 0.126616
0.239208 0.108280 0.126827
0.298790 0.108513 0.127037
0.358723 0.108747 0.127247
0.419007 0.108980 0.127457
0.479641 0.109214 0.127668
0.540625 0.109448 0.127878
0.601959 0.109681 0.128088
0.663644 0.109915 0.128298
0.725680 0.110148 0.128509
0.788065 0.110382 0.128719
0.850802 0.110616 0.128929
0.913888 0.110849 0.129139
0.977325 0.111083 0.129350
0.006216 0.161706 0.126399
0.064741 0.162056 0.126609
0.123616 0.162407 0.126819
0.182842 0.162757 0.127029
0.242418 0.163107 0.127239
0.302345 0.163458 0.127450
0.362621 0.163808 0.127660
0.423249 0.164159 0.127870
0.484227 0.164509 0.128080
0.545555 0.164859 0.128291
0.607233 0.165210 0.128501
0.669262 0.165560 0.128711
0.731641 0.165911 0.128921
0.794371 0.166261 0.129132
0.857451 0.166611 0.129342
0.920882 0.166962 0.129552
0.984662 0.167312 0.129762
0.008050 0.216525 0.126811
0.066919 0.216992 0.127021
0.126138 0.217459 0.127232
0.185708 0.217927 0.127442
0.245628 0.218394 0.127652
0.305899 0.218861 0.127862
0.366520 0.219328 0.128073
0.427491 0.219795 0.128283
0.488813 0.220262 0.128493
0.550485 0.220730 0.128703
0.612507 0.221197 0.128914
0.674880 0.221664 0.129124
0.737603 0.222131 0.129334
0.800677 0.222598 0.129544
0.864101 0.223066 0.129755
0.927875 0.223533 0.129965
0.992000 0.224000 0.130175
0.009884 0.271803 0.127224
0.069097 0.272387 0.127434
0.128661 0.272971 0.127644
0.188574 0.273555 0.127855
0.248838 0.274139 0.128065
0.309453 0.274723 0.128275
0.370418 0.275307 0.128485
0.431733 0.275891 0.128696
0.493398 0.276475 0.128906
0.555414 0.277059 0.129116
0.617781 0.277643 0.129326
0.680498 0.278227 0.129537
0.743565 0.278811 0.129747
0.806982 0.279395 0.129957
0.870750 0.279979 0.130167
0.934869 0.280562 0.130378
0.999337 0.281146 0.130588
0.011719 0.327539 0.127637
0.071276 0.328240 0.127847
0.131183 0.328941 0.128057
0.191440 0.329641 0.128267
0.252048 0.330342 0.128478
0.313007 0.331043 0.128688
0.374316 0.331744 0.128898
0.435975 0.332445 0.129108
0.497984 0.333145 0.129319
0.560344 0.333846 0.129529
0.623055 0.334547 0.129739
0.686115 0.335248 0.129949
0.749527 0.335948 0.130160
0.813288 0.336649 0.130370
0.877400 0.337350 0.130580
0.941862 0.338051 0.130790
1.000000 0.338752 0.131000
0.013553 0.383734 0.128049
0.073454 0.384552 0.128260
0.133705 0.385369 0.128470
0.194307 0.386187 0.128680
0.255259 0.387004 0.128890
0.316561 0.387822 0.129101
0.378214 0.388639 0.129311
0.440217 0.389457 0.129521
0.502570 0.390275 0.129731
0.565274 0.391092 0.129942
0.628329 0.391910 0.130152
0.691733 0.392727 0.130362
0.755488 0.393545 0.130572
0.819594 0.394363 0.130782
0.884050 0.395180 0.130993
0.948856 0.395998 0.131203
1.000000 0.396815 0.131413
0.015387 0.440387 0.128462
0.075632 0.441322 0.128672
0.136227 0.442256 0.128883
0.197173 0.443191 0.129093
0.258469 0.444125 0.129303
0.320115 0.445059 0.129513
0.382112 0.445994 0.129724
0.444459 0.446928 0.129934
0.507156 0.447862 0.130144
0.570204 0.448797 0.130354
0.633602 0.449731 0.130565
0.697351 0.450666 0.130775
0.761450 0.451600 0.130985
0.825899 0.452534 0.131195
0.890699 0.453469 0.131405
0.955849 0.454403 0.131616
1.000000 0.455338 0.131826
0.017222 0.497500 0.128875
0.077811 0.498551 0.129085
0.138750 0.499602 0.129295
0.200039 0.500653 0.129506
0.261679 0.501704 0.129716
0.323669 0.502755 0.129926
0.386010 0.503807 0.130136
0.448701 0.504858 0.130347
0.511742 0.505909 0.130557
0.575134 0.506960 0.130767
0.638876 0.508011 0.130977
0.702969 0.509062 0.131187
0.767412 0.510114 0.131398
0.832205 0.511165 0.131608
0.897349 0.512216 0.131818
0.962843 0.513267 0.132028
1.000000 0.514318 0.132239
0.019056 0.555070 0.129288
0.079989 0.556238 0.129498
0.141272 0.557406 0.129708
0.202905 0.558574 0.129918
0.264889 0.559742 0.130129
0.327223 0.560910 0.130339
0.389908 0.562078 0.130549
0.452943 0.563246 0.130759
0.516328 0.564414 0.130970
0.580064 0.565582 0.131180
0.644150 0.566750 0.131390
0.708587 0.567918 0.131600
0.773373 0.569086 0.131810
0.838511 0.570254 0.132021
0.903998 0.571422 0.132231
0.969837 0.572590 0.132441
1.000000 0.573758 0.132651
0.020891 0.613100 0.129700
0.082167 0.614384 0.129911
0.143794 0.615669 0.130121
0.205771 0.616954 0.130331
0.268099 0.618239 0.130541
0.330777 0.619523 0.130752
0.393806 0.620808 0.130962
0.457185 0.622093 0.131172
0.520914 0.623378 0.131382
0.584994 0.624663 0.131593
0.649424 0.625947 0.131803
0.714204 0.627232 0.132013
0.779335 0.628517 0.132223
0.844816 0.629802 0.132433
0.910648 0.631086 0.132644
0.976830 0.632371 0.132854
1.000000 0.633656 0.133064
0.022725 0.671588 0.130113
0.084346 0.672989 0.130323
0.146316 0.674391 0.130534
0.208638 0.675792 0.130744
0.271309 0.677194 0.130954
0.334331 0.678595 0.131164
0.397704 0.679997 0.131375
0.461427 0.681398 0.131585
0.525500 0.682800 0.131795
0.589924 0.684202 0.132005
0.654698 0.685603 0.132215
0.719822 0.687005 0.132426
0.785297 0.688406 0.132636
0.851122 0.689808 0.132846
0.917298 0.691209 0.133056
0.983824 0.692611 0.133267
1.000000 0.694013 0.133477
0.024559 0.730534 0.130526
0.086524 0.732052 0.130736
0.148839 0.733571 0.130946
0.211504 0.735089 0.131157
0.274520 0.736607 0.131367
0.337886 0.738126 0.131577
0.401602 0.739644 0.131787
0.465669 0.741163 0.131998
0.530086 0.742681 0.132208
0.594854 0.744199 0.132418
0.659971 0.745718 0.132628
0.725440 0.747236 0.132838
0.791259 0.748754 0.133049
0.857428 0.750273 0.133259
0.923947 0.751791 0.133469
0.990817 0.753309 0.133679
1.000000 0.754828 0.133890
0.026394 0.789939 0.130939
0.088702 0.791574 0.131149
0.151361 0.793209 0.131359
0.214370 0.794845 0.131569
0.277730 0.796480 0.131780
0.341440 0.798115 0.131990
0.405500 0.799750 0.132200
0.469911 0.801385 0.132410
0.534672 0.803020 0.132620
0.599783 0.804655 0.132831
0.665245 0.806291 0.133041
0.731058 0.807926 0.133251
0.797220 0.809561 0.133461
0.863733 0.811196 0.133672
0.930597 0.812831 0.133882
0.997811 0.814466 0.134092
1.000000 0.816102 0.134302
0.028228 0.849803 0.131351
0.090880 0.851555 0.131562
0.153883 0.853307 0.131772
0.217236 0.855059 0.131982
0.280940 0.856811 0.132192
0.344994 0.858562 0.132403
0.409398 0.860314 0.132613
0.474153 0.862066 0.132823
0.539258 0.863818 0.133033
0.604713 0.865570 0.133243
0.670519 0.867322 0.133454
0.736675 0.869074 0.133664
0.803182 0.870826 0.133874
0.870039 0.872578 0.134084
0.937246 0.874330 0.134295
1.000000 0.876082 0.134505
1.000000 0.877834 0.134715
0.030062 0.910125 0.131764
0.093059 0.911994 0.131974
0.156405 0.913863 0.132185
0.220103 0.915731 0.132395
0.284150 0.917600 0.132605
0.348548 0.919469 0.132815
0.413296 0.921337 0.133025
0.478395 0.923206 0.133236
0.543844 0.925075 0.133446
0.609643 0.926944 0.133656
0.675793 0.928813 0.133866
0.742293 0.930681 0.134077
0.809144 0.932550 0.134287
0.876345 0.934419 0.134497
0.943896 0.936287 0.134707
1.000000 0.938156 0.134918
1.000000 0.940025 0.135128
0.001069 0.000000 0.187540
0.058629 0.000000 0.187575
0.116539 0.000000 0.187610
0.174800 0.000000 0.187645
0.233411 0.000000 0.187680
0.292372 0.000000 0.187715
0.351684 0.000000 0.187750
0.411347 0.000000 0.187785
0.471359 0.000000 0.187820
0.531722 0.000000 0.187855
0.592436 0.000000 0.187890
0.653500 0.000000 0.187926
0.714914 0.000000 0.187961
0.776679 0.000000 0.187996
0.838794 0.000000 0.188031
0.901259 0.000000 0.188066
0.964075 0.000000 0.188101
0.002903 0.053488 0.187609
