assets/luts/cinematic_teal_orange.cube
TITLE "Cinematic Teal-Orange"
LUT_3D_SIZE 9
DOMAIN_MIN 0.0 0.0 0.0
DOMAIN_MAX 1.0 1.0 1.0
0.000000 0.000000 0.000000
0.115070 0.000000 0.001121
0.231541 0.000000 0.002242
0.349413 0.000000 0.003364
0.468688 0.000000 0.004485
0.589363 0.000000 0.005606
0.711441 0.000000 0.006727
0.834920 0.000000 0.007849
0.959800 0.000000 0.008970
0.003669 0.107167 0.002201
0.120114 0.107634 0.003322
0.237961 0.108102 0.004444
0.357209 0.108569 0.005565
0.477859 0.109036 0.006686
0.599911 0.109503 0.007807
0.723364 0.109970 0.008929
0.848219 0.110437 0.010050
0.974475 0.110905 0.011171
0.007338 0.216169 0.004402
0.125159 0.217103 0.005524
0.244381 0.218037 0.006645
0.365005 0.218972 0.007766
0.487031 0.219906 0.008887
0.610459 0.220841 0.010009
0.735287 0.221775 0.011130
0.861518 0.222709 0.012251
0.989150 0.223644 0.013372
0.011006 0.327005 0.006604
0.130203 0.328406 0.007725
0.250802 0.329808 0.008846
0.372802 0.331209 0.009967
0.496203 0.332611 0.011089
0.621006 0.334012 0.012210
0.747211 0.335414 0.013331
0.874817 0.336816 0.014453
1.000000 0.338217 0.015574
0.014675 0.439675 0.008805
0.135248 0.441544 0.009926
0.257222 0.443412 0.011047
0.380598 0.445281 0.012169
0.505375 0.447150 0.013290
0.631554 0.449019 0.014411
0.759134 0.450887 0.015532
0.888116 0.452756 0.016654
1.000000 0.454625 0.017775
0.018344 0.554180 0.011006
0.140292 0.556516 0.012127
0.263642 0.558852 0.013249
0.388394 0.561187 0.014370
0.514547 0.563523 0.015491
0.642102 0.565859 0.016612
0.771058 0.568195 0.017734
0.901416 0.570531 0.018855
1.000000 0.572867 0.019976
0.022013 0.670519 0.013207
0.145337 0.673322 0.014329
0.270063 0.676125 0.015450
0.396190 0.678928 0.016571
0.523719 0.681731 0.017692
0.652649 0.684534 0.018814
0.782981 0.687337 0.019935
0.914715 0.690141 0.021056
1.000000 0.692944 0.022177
0.025681 0.788692 0.015409
0.150381 0.791963 0.016530
0.276483 0.795233 0.017651
0.403986 0.798503 0.018773
0.532891 0.801773 0.019894
0.663197 0.805044 0.021015
0.794905 0.808314 0.022136
0.928014 0.811584 0.023258
1.000000 0.814855 0.024379
0.029350 0.908700 0.017610
0.155426 0.912438 0.018731
0.282903 0.916175 0.019852
0.411782 0.919913 0.020974
0.542063 0.923650 0.022095
0.673745 0.927388 0.023216
0.806828 0.931125 0.024338
0.941313 0.934862 0.025459
1.000000 0.938600 0.026580
0.000713 0.000000 0.125160
0.116049 0.000000 0.125581
0.232788 0.000000 0.126001
0.350927 0.000000 0.126422
0.470469 0.000000 0.126842
0.591412 0.000000 0.127263
0.713756 0.000000 0.127683
0.837502 0.000000 0.128104
0.962650 0.000000 0.128524
0.004381 0.107345 0.125986
0.121094 0.107812 0.126406
0.239208 0.108280 0.126827
0.358723 0.108747 0.127247
0.479641 0.109214 0.127668
0.601959 0.109681 0.128088
0.725680 0.110148 0.128509
0.850802 0.110616 0.128929
0.977325 0.111083 0.129350
0.008050 0.216525 0.126811
0.126138 0.217459 0.127232
0.245628 0.218394 0.127652
0.366520 0.219328 0.128073
0.488813 0.220262 0.128493
0.612507 0.221197 0.128914
0.737603 0.222131 0.129334
0.864101 0.223066 0.129755
0.992000 0.224000 0.130175
0.011719 0.327539 0.127637
0.131183 0.328941 0.128057
0.252048 0.330342 0.128478
0.374316 0.331744 0.128898
0.497984 0.333145 0.129319
0.623055 0.334547 0.129739
0.749527 0.335948 0.130160
0.877400 0.337350 0.130580
1.000000 0.338752 0.131000
0.015387 0.440387 0.128462
0.136227 0.442256 0.128883
0.258469 0.444125 0.129303
0.382112 0.445994 0.129724
0.507156 0.447862 0.130144
0.633602 0.449731 0.130565
0.761450 0.451600 0.130985
0.890699 0.453469 0.131405
1.000000 0.455338 0.131826
0.019056 0.555070 0.129288
0.141272 0.557406 0.129708
0.264889 0.559742 0.130129
0.389908 0.562078 0.130549
0.516328 0.564414 0.130970
0.644150 0.566750 0.131390
0.773373 0.569086 0.131810
0.903998 0.571422 0.132231
1.000000 0.573758 0.132651
0.022725 0.671588 0.130113
0.146316 0.674391 0.130534
0.271309 0.677194 0.130954
0.397704 0.679997 0.131375
0.525500 0.682800 0.131795
0.654698 0.685603 0.132215
0.785297 0.688406 0.132636
0.917298 0.691209 0.133056
1.000000 0.694013 0.133477
0.026394 0.789939 0.130939
0.151361 0.793209 0.131359
0.277730 0.796480 0.131780
0.405500 0.799750 0.132200
0.534672 0.803020 0.132620
0.665245 0.806291 0.133041
0.797220 0.809561 0.133461
0.930597 0.812831 0.133882
1.000000 0.816102 0.134302
0.030062 0.910125 0.131764
0.156405 0.913863 0.132185
0.284150 0.917600 0.132605
0.413296 0.921337 0.133025
0.543844 0.925075 0.133446
0.675793 0.928813 0.133866
0.809144 0.932550 0.134287
0.943896 0.936287 0.134707
1.000000 0.940025 0.135128
0.001425 0.000000 0.249786
0.117029 0.000000 0.249506
0.234034 0.000000 0.249226
0.352441 0.000000 0.248945
0.472250 0.000000 0.248665
0.593460 0.000000 0.248385
0.716072 0.000000 0.248104
0.840085 0.000000 0.247824
0.965500 0.000000 0.247544
0.005094 0.107523 0.249236
0.122073 0.107991 0.248956
0.240455 0.108458 0.248675
0.360237 0.108925 0.248395
0.481422 0.109392 0.248115
0.604008 0.109859 0.247834
0.727995 0.110327 0.247554
0.853384 0.110794 0.247274
0.980175 0.111261 0.246993
0.008762 0.216881 0.248686
0.127118 0.217816 0.248405
0.246875 0.218750 0.248125
0.368034 0.219684 0.247845
0.490594 0.220619 0.247564
0.614555 0.221553 0.247284
0.739919 0.222488 0.247004
0.866684 0.223422 0.246723
0.994850 0.224356 0.246443
0.012431 0.328073 0.248135
0.132163 0.329475 0.247855
0.253295 0.330877 0.247575
0.375830 0.332278 0.247294
0.499766 0.333680 0.247014
0.625103 0.335081 0.246734
0.751842 0.336483 0.246453
0.879983 0.337884 0.246173
1.000000 0.339286 0.245893
0.016100 0.441100 0.247585
0.137207 0.442969 0.247305
0.259716 0.444837 0.247024
0.383626 0.446706 0.246744
0.508938 0.448575 0.246464
0.635651 0.450444 0.246183
0.763766 0.452313 0.245903
0.893282 0.454181 0.245623
1.000000 0.456050 0.245343
0.019769 0.555961 0.247035
0.142252 0.558297 0.246754
0.266136 0.560633 0.246474
0.391422 0.562969 0.246194
0.518109 0.565305 0.245913
0.646198 0.567641 0.245633
0.775689 0.569977 0.245353
0.906581 0.572313 0.245072
1.000000 0.574648 0.244792
0.023438 0.672656 0.246484
0.147296 0.675459 0.246204
0.272556 0.678262 0.245924
0.399218 0.681066 0.245643
0.527281 0.683869 0.245363
0.656746 0.686672 0.245083
0.787613 0.689475 0.244803
0.919880 0.692278 0.244522
1.000000 0.695081 0.244242
0.027106 0.791186 0.245934
0.152341 0.794456 0.245654
0.278977 0.797727 0.245373
0.407014 0.800997 0.245093
0.536453 0.804267 0.244813
0.667294 0.807537 0.244533
0.799536 0.810808 0.244252
0.933180 0.814078 0.243972
1.000000 0.817348 0.243692
0.030775 0.911550 0.245384
0.157385 0.915288 0.245103
0.285397 0.919025 0.244823
0.414810 0.922762 0.244543
0.545625 0.926500 0.244262
0.677841 0.930237 0.243982
0.811459 0.933975 0.243702
0.946479 0.937712 0.243422
1.000000 0.941450 0.243141
0.002138 0.000000 0.373878
0.118009 0.000000 0.372897
0.235281 0.000000 0.371916
0.353955 0.000000 0.370935
0.474031 0.000000 0.369953
0.595509 0.000000 0.368972
0.718387 0.000000 0.367991
0.842668 0.000000 0.367010
0.968350 0.000000 0.366029
0.005806 0.107702 0.371952
0.123053 0.108169 0.370971
0.241702 0.108636 0.369990
0.361752 0.109103 0.369008
0.483203 0.109570 0.368027
0.606056 0.110037 0.367046
0.730311 0.110505 0.366065
0.855967 0.110972 0.365084
0.983025 0.111439 0.364103
0.009475 0.217238 0.370026
0.128098 0.218172 0.369045
0.248122 0.219106 0.368063
0.369548 0.220041 0.367082
0.492375 0.220975 0.366101
0.616604 0.221909 0.365120
0.742234 0.222844 0.364139
0.869266 0.223778 0.363158
0.997700 0.224712 0.362177
0.013144 0.328608 0.368100
0.133142 0.330009 0.367118
0.254542 0.331411 0.366137
0.377344 0.332812 0.365156
0.501547 0.334214 0.364175
0.627152 0.335616 0.363194
0.754158 0.337017 0.362213
0.882566 0.338419 0.361232
1.000000 0.339820 0.360251
0.016813 0.441812 0.366173
0.138187 0.443681 0.365192
0.260962 0.445550 0.364211
0.385140 0.447419 0.363230
0.510719 0.449288 0.362249
0.637699 0.451156 0.361268
0.766081 0.453025 0.360287
0.895865 0.454894 0.359306
1.000000 0.456762 0.358325
0.020481 0.556852 0.364247
0.143231 0.559187 0.363266
0.267383 0.561523 0.362285
0.392936 0.563859 0.361304
0.519891 0.566195 0.360323
0.648247 0.568531 0.359342
0.778005 0.570867 0.358361
0.909164 0.573203 0.357380
1.000000 0.575539 0.356399
0.024150 0.673725 0.362321
0.148276 0.676528 0.361340
0.273803 0.679331 0.360359
0.400732 0.682134 0.359378
0.529062 0.684937 0.358397
0.658795 0.687741 0.357416
0.789928 0.690544 0.356435
0.922463 0.693347 0.355454
1.000000 0.696150 0.354473
0.027819 0.792433 0.360395
0.153320 0.795703 0.359414
0.280223 0.798973 0.358433
0.408528 0.802244 0.357452
0.538234 0.805514 0.356471
0.669342 0.808784 0.355490
0.801852 0.812055 0.354509
0.935762 0.815325 0.353527
1.000000 0.818595 0.352546
0.031487 0.912975 0.358469
0.158365 0.916712 0.357488
0.286644 0.920450 0.356507
0.416324 0.924187 0.355526
0.547406 0.927925 0.354545
0.679890 0.931662 0.353564
0.813775 0.935400 0.352582
0.949062 0.939137 0.351601
1.000000 0.942875 0.350620
0.002850 0.000000 0.497435
0.118988 0.000000 0.495753
0.236528 0.000000 0.494071
0.355470 0.000000 0.492389
0.475812 0.000000 0.490708
0.597557 0.000000 0.489026
0.720703 0.000000 0.487344
0.845251 0.000000 0.485662
0.971200 0.000000 0.483980
0.006519 0.107880 0.494133
0.124033 0.108347 0.492451
0.242948 0.108814 0.490769
0.363266 0.109281 0.489087
0.484984 0.109748 0.487406
0.608105 0.110216 0.485724
0.732627 0.110683 0.484042
0.858550 0.111150 0.482360
0.985875 0.111617 0.480678
0.010188 0.217594 0.490831
0.129077 0.218528 0.489149
0.249369 0.219463 0.487467
0.371062 0.220397 0.485786
0.494156 0.221331 0.484104
0.618652 0.222266 0.482422
0.744550 0.223200 0.480740
0.871849 0.224134 0.479058
1.000000 0.225069 0.477376
0.013856 0.329142 0.487529
0.134122 0.330544 0.485847
0.255789 0.331945 0.484166
0.378858 0.333347 0.482484
0.503328 0.334748 0.480802
0.629200 0.336150 0.479120
0.756473 0.337552 0.477438
0.885148 0.338953 0.475756
1.000000 0.340355 0.474074
0.017525 0.442525 0.484227
0.139166 0.444394 0.482546
0.262209 0.446263 0.480864
0.386654 0.448131 0.479182
0.512500 0.450000 0.477500
0.639748 0.451869 0.475818
0.768397 0.453738 0.474136
0.898448 0.455606 0.472454
1.000000 0.457475 0.470773
0.021194 0.557742 0.480926
0.144211 0.560078 0.479244
0.268630 0.562414 0.477562
0.394450 0.564750 0.475880
0.521672 0.567086 0.474198
0.650295 0.569422 0.472516
0.780320 0.571758 0.470834
0.911747 0.574094 0.469153
1.000000 0.576430 0.467471
0.024862 0.674794 0.477624
0.149255 0.677597 0.475942
0.275050 0.680400 0.474260
0.402246 0.683203 0.472578
0.530844 0.686006 0.470896
0.660843 0.688809 0.469214
0.792244 0.691612 0.467533
0.925046 0.694416 0.465851
1.000000 0.697219 0.464169
0.028531 0.793680 0.474322
0.154300 0.796950 0.472640
0.281470 0.800220 0.470958
0.410042 0.803491 0.469276
0.540016 0.806761 0.467594
0.671391 0.810031 0.465913
0.804167 0.813302 0.464231
0.938345 0.816572 0.462549
1.000000 0.819842 0.460867
0.032200 0.914400 0.471020
0.159345 0.918137 0.469338
0.287891 0.921875 0.467656
0.417838 0.925612 0.465974
0.549188 0.929350 0.464293
0.681938 0.933087 0.462611
0.816091 0.936825 0.460929
0.951645 0.940562 0.459247
1.000000 0.944300 0.457565
0.003563 0.000000 0.620458
0.119968 0.000000 0.618075
0.237775 0.000000 0.615692
0.356984 0.000000 0.613310
0.477594 0.000000 0.610927
0.599605 0.000000 0.608545
0.723019 0.000000 0.606162
0.847834 0.000000 0.603779
0.974050 0.000000 0.601397
0.007231 0.108058 0.615780
0.125012 0.108525 0.613398
0.244195 0.108992 0.611015
0.364780 0.109459 0.608632
0.486766 0.109927 0.606250
0.610153 0.110394 0.603867
0.734942 0.110861 0.601484
0.861133 0.111328 0.599102
0.988725 0.111795 0.596719
0.010900 0.217950 0.611102
0.130057 0.218884 0.608720
0.250616 0.219819 0.606337
0.372576 0.220753 0.603955
0.495938 0.221687 0.601572
0.620701 0.222622 0.599189
0.746866 0.223556 0.596807
0.874432 0.224491 0.594424
1.000000 0.225425 0.592041
0.014569 0.329677 0.606425
0.135102 0.331078 0.604042
0.257036 0.332480 0.601660
0.380372 0.333881 0.599277
0.505109 0.335283 0.596894
0.631248 0.336684 0.594512
0.758789 0.338086 0.592129
0.887731 0.339487 0.589746
1.000000 0.340889 0.587364
0.018238 0.443238 0.601747
0.140146 0.445106 0.599365
0.263456 0.446975 0.596982
0.388168 0.448844 0.594599
0.514281 0.450712 0.592217
0.641796 0.452581 0.589834
0.770713 0.454450 0.587451
0.901030 0.456319 0.585069
1.000000 0.458187 0.582686
0.021906 0.558633 0.597070
0.145191 0.560969 0.594687
0.269877 0.563305 0.592304
0.395964 0.565641 0.589922
0.523453 0.567977 0.587539
0.652344 0.570312 0.585156
0.782636 0.572648 0.582774
0.914330 0.574984 0.580391
1.000000 0.577320 0.578008
0.025575 0.675863 0.592392
0.150235 0.678666 0.590009
0.276297 0.681469 0.587627
0.403760 0.684272 0.585244
0.532625 0.687075 0.582861
0.662891 0.689878 0.580479
0.794559 0.692681 0.578096
0.927629 0.695484 0.575713
1.000000 0.698287 0.573331
0.029244 0.794927 0.587714
0.155280 0.798197 0.585332
0.282717 0.801467 0.582949
0.411556 0.804737 0.580566
0.541797 0.808008 0.578184
0.673439 0.811278 0.575801
0.806483 0.814548 0.573418
0.940928 0.817819 0.571036
1.000000 0.821089 0.568653
0.032913 0.915825 0.583037
0.160324 0.919562 0.580654
0.289137 0.923300 0.578271
0.419352 0.927037 0.575889
0.550969 0.930775 0.573506
0.683987 0.934512 0.571123
0.818406 0.938250 0.568741
0.954227 0.941987 0.566358
1.000000 0.945725 0.563975
0.004275 0.000000 0.742946
0.120948 0.000000 0.739863
0.239022 0.000000 0.736779
0.358498 0.000000 0.733696
0.479375 0.000000 0.730612
0.601654 0.000000 0.727529
0.725334 0.000000 0.724446
0.850416 0.000000 0.721362
0.976900 0.000000 0.718279
0.007944 0.108236 0.736893
0.125992 0.108703 0.733809
0.245442 0.109170 0.730726
0.366294 0.109637 0.727642
0.488547 0.110105 0.724559
0.612202 0.110572 0.721476
0.737258 0.111039 0.718392
0.863716 0.111506 0.715309
0.991575 0.111973 0.712225
0.011613 0.218306 0.730839
0.131037 0.219241 0.727756
0.251862 0.220175 0.724673
0.374090 0.221109 0.721589
0.497719 0.222044 0.718506
0.622749 0.222978 0.715422
0.749181 0.223912 0.712339
0.877015 0.224847 0.709255
1.000000 0.225781 0.706172
0.015281 0.330211 0.724786
0.136081 0.331612 0.721703
0.258283 0.333014 0.718619
0.381886 0.334416 0.715536
0.506891 0.335817 0.712452
0.633297 0.337219 0.709369
0.761105 0.338620 0.706285
0.890314 0.340022 0.703202
1.000000 0.341423 0.700118
0.018950 0.443950 0.718732
0.141126 0.445819 0.715649
0.264703 0.447688 0.712566
0.389682 0.449556 0.709482
0.516062 0.451425 0.706399
0.643845 0.453294 0.703315
0.773028 0.455162 0.700232
0.903613 0.457031 0.697148
1.000000 0.458900 0.694065
0.022619 0.559523 0.712679
0.146170 0.561859 0.709596
0.271123 0.564195 0.706512
0.397478 0.566531 0.703429
0.525234 0.568867 0.700345
0.654392 0.571203 0.697262
0.784952 0.573539 0.694178
0.916913 0.575875 0.691095
1.000000 0.578211 0.688012
0.026287 0.676931 0.706626
0.151215 0.679734 0.703542
0.277544 0.682538 0.700459
0.405274 0.685341 0.697375
0.534406 0.688144 0.694292
0.664940 0.690947 0.691208
0.796875 0.693750 0.688125
0.930212 0.696553 0.685042
1.000000 0.699356 0.681958
0.029956 0.796173 0.700572
0.156259 0.799444 0.697489
0.283964 0.802714 0.694405
0.413070 0.805984 0.691322
0.543578 0.809255 0.688238
0.675488 0.812525 0.685155
0.808798 0.815795 0.682072
0.943511 0.819066 0.678988
1.000000 0.822336 0.675905
0.033625 0.917250 0.694519
0.161304 0.920987 0.691435
0.290384 0.924725 0.688352
0.420866 0.928462 0.685268
0.552750 0.932200 0.682185
0.686035 0.935937 0.679102
0.820722 0.939675 0.676018
0.956810 0.943412 0.672935
1.000000 0.947150 0.669851
0.004988 0.000000 0.864900
0.121927 0.000000 0.861116
0.240269 0.000000 0.857332
0.360012 0.000000 0.853548
0.481156 0.000000 0.849763
0.603702 0.000000 0.845979
0.727650 0.000000 0.842195
0.852999 0.000000 0.838411
0.979750 0.000000 0.834627
0.008656 0.108414 0.857471
0.126972 0.108881 0.853687
0.246689 0.109348 0.849903
0.367808 0.109816 0.846118
0.490328 0.110283 0.842334
0.614250 0.110750 0.838550
0.739573 0.111217 0.834766
0.866298 0.111684 0.830982
0.994425 0.112152 0.827197
0.012325 0.218662 0.850042
0.132016 0.219597 0.846258
0.253109 0.220531 0.842473
0.375604 0.221466 0.838689
0.499500 0.222400 0.834905
0.624798 0.223334 0.831121
0.751497 0.224269 0.827337
0.879598 0.225203 0.823552
1.000000 0.226137 0.819768
0.015994 0.330745 0.842613
0.137061 0.332147 0.838828
0.259530 0.333548 0.835044
0.383400 0.334950 0.831260
0.508672 0.336352 0.827476
0.635345 0.337753 0.823692
0.763420 0.339155 0.819907
0.892897 0.340556 0.816123
1.000000 0.341958 0.812339
0.019662 0.444662 0.835183
0.142105 0.446531 0.831399
0.265950 0.448400 0.827615
0.391196 0.450269 0.823831
0.517844 0.452137 0.820047
0.645893 0.454006 0.816262
0.775344 0.455875 0.812478
0.906196 0.457744 0.808694
1.000000 0.459612 0.804910
0.023331 0.560414 0.827754
0.147150 0.562750 0.823970
0.272370 0.565086 0.820186
0.398992 0.567422 0.816402
0.527016 0.569758 0.812617
0.656441 0.572094 0.808833
0.787267 0.574430 0.805049
0.919495 0.576766 0.801265
1.000000 0.579102 0.797480
0.027000 0.678000 0.820325
0.152195 0.680803 0.816541
0.278791 0.683606 0.812757
0.406788 0.686409 0.808972
0.536188 0.689213 0.805188
0.666988 0.692016 0.801404
0.799191 0.694819 0.797620
0.932795 0.697622 0.793835
1.000000 0.700425 0.790051
0.030669 0.797420 0.812896
0.157239 0.800691 0.809112
0.285211 0.803961 0.805327
0.414584 0.807231 0.801543
0.545359 0.810502 0.797759
0.677536 0.813772 0.793975
0.811114 0.817042 0.790190
0.946094 0.820312 0.786406
1.000000 0.823583 0.782622
0.034337 0.918675 0.805467
0.162284 0.922412 0.801682
0.291631 0.926150 0.797898
0.422380 0.929887 0.794114
0.554531 0.933625 0.790330
0.688084 0.937362 0.786545
0.823038 0.941100 0.782761
0.959393 0.944837 0.778977
1.000000 0.948575 0.775193
0.005700 0.000000 0.986320
0.122907 0.000000 0.981835
0.241516 0.000000 0.977350
0.361526 0.000000 0.972865
0.482938 0.000000 0.968380
0.605751 0.000000 0.963895
0.729966 0.000000 0.959410
0.855582 0.000000 0.954925
0.982600 0.000000 0.950440
0.009369 0.108592 0.977515
0.127952 0.109059 0.973030
0.247936 0.109527 0.968545
0.369322 0.109994 0.964060
0.492109 0.110461 0.959575
0.616298 0.110928 0.955090
0.741889 0.111395 0.950605
0.868881 0.111863 0.946120
0.997275 0.112330 0.941635
0.013038 0.219019 0.968710
0.132996 0.219953 0.964225
0.254356 0.220887 0.959740
0.377118 0.221822 0.955255
0.501281 0.222756 0.950770
0.626846 0.223691 0.946285
0.753812 0.224625 0.941800
0.882180 0.225559 0.937315
1.000000 0.226494 0.932830
0.016706 0.331280 0.959905
0.138041 0.332681 0.955420
0.260777 0.334083 0.950935
0.384914 0.335484 0.946450
0.510453 0.336886 0.941965
0.637394 0.338288 0.937480
0.765736 0.339689 0.932995
0.895480 0.341091 0.928510
1.000000 0.342492 0.924025
0.020375 0.445375 0.951100
0.143085 0.447244 0.946615
0.267197 0.449112 0.942130
0.392710 0.450981 0.937645
0.519625 0.452850 0.933160
0.647941 0.454719 0.928675
0.777659 0.456587 0.924190
0.908779 0.458456 0.919705
1.000000 0.460325 0.915220
0.024044 0.561305 0.942295
0.148130 0.563641 0.937810
0.273617 0.565977 0.933325
0.400506 0.568312 0.928840
0.528797 0.570648 0.924355
0.658489 0.572984 0.919870
0.789583 0.575320 0.915385
0.922078 0.577656 0.910900
1.000000 0.579992 0.906415
0.027713 0.679069 0.933490
0.153174 0.681872 0.929005
0.280037 0.684675 0.924520
0.408302 0.687478 0.920035
0.537969 0.690281 0.915550
0.669037 0.693084 0.911065
0.801506 0.695887 0.906580
0.935377 0.698691 0.902095
1.000000 0.701494 0.897610
0.031381 0.798667 0.924685
0.158219 0.801937 0.920200
0.286458 0.805208 0.915715
0.416098 0.808478 0.911230
0.547141 0.811748 0.906745
0.679584 0.815019 0.902260
0.813430 0.818289 0.897775
0.948677 0.821559 0.893290
1.000000 0.824830 0.888805
0.035050 0.920100 0.915880
0.163263 0.923837 0.911395
0.292878 0.927575 0.906910
0.423895 0.931312 0.902425
0.556313 0.935050 0.897940
0.690132 0.938787 0.893455
0.825353 0.942525 0.888970
0.961976 0.946263 0.884485
1.000000 0.950000 0.880000
