assets/luts/cold_blue.cube
TITLE "Cold Blue"
LUT_3D_SIZE 9
DOMAIN_MIN 0.0 0.0 0.0
DOMAIN_MAX 1.0 1.0 1.0
0.000000 0.000000 0.000000
0.106250 0.000000 0.000000
0.212500 0.000000 0.000000
0.318750 0.000000 0.000000
0.425000 0.000000 0.000000
0.531250 0.000000 0.000000
0.637500 0.000000 0.000000
0.743750 0.000000 0.000000
0.850000 0.000000 0.000000
0.000000 0.110000 0.000000
0.106250 0.110000 0.000000
0.212500 0.110000 0.000000
0.318750 0.110000 0.000000
0.425000 0.110000 0.000000
0.531250 0.110000 0.000000
0.637500 0.110000 0.000000
0.743750 0.110000 0.000000
0.850000 0.110000 0.000000
0.000000 0.220000 0.000000
0.106250 0.220000 0.000000
0.212500 0.220000 0.000000
0.318750 0.220000 0.000000
0.425000 0.220000 0.000000
0.531250 0.220000 0.000000
0.637500 0.220000 0.000000
0.743750 0.220000 0.000000
0.850000 0.220000 0.000000
0.000000 0.330000 0.000000
0.106250 0.330000 0.000000
0.212500 0.330000 0.000000
0.318750 0.330000 0.000000
0.425000 0.330000 0.000000
0.531250 0.330000 0.000000
0.637500 0.330000 0.000000
0.743750 0.330000 0.000000
0.850000 0.330000 0.000000
0.000000 0.440000 0.000000
0.106250 0.440000 0.000000
0.212500 0.440000 0.000000
0.318750 0.440000 0.000000
0.425000 0.440000 0.000000
0.531250 0.440000 0.000000
0.637500 0.440000 0.000000
0.743750 0.440000 0.000000
0.850000 0.440000 0.000000
0.000000 0.550000 0.000000
0.106250 0.550000 0.000000
0.212500 0.550000 0.000000
0.318750 0.550000 0.000000
0.425000 0.550000 0.000000
0.531250 0.550000 0.000000
0.637500 0.550000 0.000000
0.743750 0.550000 0.000000
0.850000 0.550000 0.000000
0.000000 0.660000 0.000000
0.106250 0.660000 0.000000
0.212500 0.660000 0.000000
0.318750 0.660000 0.000000
0.425000 0.660000 0.000000
0.531250 0.660000 0.000000
0.637500 0.660000 0.000000
0.743750 0.660000 0.000000
0.850000 0.660000 0.000000
0.000000 0.770000 0.000000
0.106250 0.770000 0.000000
0.212500 0.770000 0.000000
0.318750 0.770000 0.000000
0.425000 0.770000 0.000000
0.531250 0.770000 0.000000
0.637500 0.770000 0.000000
0.743750 0.770000 0.000000
0.850000 0.770000 0.000000
0.000000 0.880000 0.000000
0.106250 0.880000 0.000000
0.212500 0.880000 0.000000
0.318750 0.880000 0.000000
0.425000 0.880000 0.000000
0.531250 0.880000 0.000000
0.637500 0.880000 0.000000
0.743750 0.880000 0.000000
0.850000 0.880000 0.000000
0.000000 0.000000 0.143750
0.106250 0.000000 0.143750
0.212500 0.000000 0.143750
0.318750 0.000000 0.143750
0.425000 0.000000 0.143750
0.531250 0.000000 0.143750
0.637500 0.000000 0.143750
0.743750 0.000000 0.143750
0.850000 0.000000 0.143750
0.000000 0.110000 0.143750
0.106250 0.110000 0.143750
0.212500 0.110000 0.143750
0.318750 0.110000 0.143750
0.425000 0.110000 0.143750
0.531250 0.110000 0.143750
0.637500 0.110000 0.143750
0.743750 0.110000 0.143750
0.850000 0.110000 0.143750
0.000000 0.220000 0.143750
0.106250 0.220000 0.143750
0.212500 0.220000 0.143750
0.318750 0.220000 0.143750
0.425000 0.220000 0.143750
0.531250 0.220000 0.143750
0.637500 0.220000 0.143750
0.743750 0.220000 0.143750
0.850000 0.220000 0.143750
0.000000 0.330000 0.143750
0.106250 0.330000 0.143750
0.212500 0.330000 0.143750
0.318750 0.330000 0.143750
0.425000 0.330000 0.143750
0.531250 0.330000 0.143750
0.637500 0.330000 0.143750
0.743750 0.330000 0.143750
0.850000 0.330000 0.143750
0.000000 0.440000 0.143750
0.106250 0.440000 0.143750
0.212500 0.440000 0.143750
0.318750 0.440000 0.143750
0.425000 0.440000 0.143750
0.531250 0.440000 0.143750
0.637500 0.440000 0.143750
0.743750 0.440000 0.143750
0.850000 0.440000 0.143750
0.000000 0.550000 0.143750
0.106250 0.550000 0.143750
0.212500 0.550000 0.143750
0.318750 0.550000 0.143750
0.425000 0.550000 0.143750
0.531250 0.550000 0.143750
0.637500 0.550000 0.143750
0.743750 0.550000 0.143750
0.850000 0.550000 0.143750
0.000000 0.660000 0.143750
0.106250 0.660000 0.143750
0.212500 0.660000 0.143750
0.318750 0.660000 0.143750
0.425000 0.660000 0.143750
0.531250 0.660000 0.143750
0.637500 0.660000 0.143750
0.743750 0.660000 0.143750
0.850000 0.660000 0.143750
0.000000 0.770000 0.143750
0.106250 0.770000 0.143750
0.212500 0.770000 0.143750
0.318750 0.770000 0.143750
0.425000 0.770000 0.143750
0.531250 0.770000 0.143750
0.637500 0.770000 0.143750
0.743750 0.770000 0.143750
0.850000 0.770000 0.143750
0.000000 0.880000 0.143750
0.106250 0.880000 0.143750
0.212500 0.880000 0.143750
0.318750 0.880000 0.143750
0.425000 0.880000 0.143750
0.531250 0.880000 0.143750
0.637500 0.880000 0.143750
0.743750 0.880000 0.143750
0.850000 0.880000 0.143750
0.000000 0.000000 0.287500
0.106250 0.000000 0.287500
0.212500 0.000000 0.287500
0.318750 0.000000 0.287500
0.425000 0.000000 0.287500
0.531250 0.000000 0.287500
0.637500 0.000000 0.287500
0.743750 0.000000 0.287500
0.850000 0.000000 0.287500
0.000000 0.110000 0.287500
0.106250 0.110000 0.287500
0.212500 0.110000 0.287500
0.318750 0.110000 0.287500
0.425000 0.110000 0.287500
0.531250 0.110000 0.287500
0.637500 0.110000 0.287500
0.743750 0.110000 0.287500
0.850000 0.110000 0.287500
0.000000 0.220000 0.287500
0.106250 0.220000 0.287500
0.212500 0.220000 0.287500
0.318750 0.220000 0.287500
0.425000 0.220000 0.287500
0.531250 0.220000 0.287500
0.637500 0.220000 0.287500
0.743750 0.220000 0.287500
0.850000 0.220000 0.287500
0.000000 0.330000 0.287500
0.106250 0.330000 0.287500
0.212500 0.330000 0.287500
0.318750 0.330000 0.287500
0.425000 0.330000 0.287500
0.531250 0.330000 0.287500
0.637500 0.330000 0.287500
0.743750 0.330000 0.287500
0.850000 0.330000 0.287500
0.000000 0.440000 0.287500
0.106250 0.440000 0.287500
0.212500 0.440000 0.287500
0.318750 0.440000 0.287500
0.425000 0.440000 0.287500
0.531250 0.440000 0.287500
0.637500 0.440000 0.287500
0.743750 0.440000 0.287500
0.850000 0.440000 0.287500
0.000000 0.550000 0.287500
0.106250 0.550000 0.287500
0.212500 0.550000 0.287500
0.318750 0.550000 0.287500
0.425000 0.550000 0.287500
0.531250 0.550000 0.287500
0.637500 0.550000 0.287500
0.743750 0.550000 0.287500
0.850000 0.550000 0.287500
0.000000 0.660000 0.287500
0.106250 0.660000 0.287500
0.212500 0.660000 0.287500
0.318750 0.660000 0.287500
0.425000 0.660000 0.287500
0.531250 0.660000 0.287500
0.637500 0.660000 0.287500
0.743750 0.660000 0.287500
0.850000 0.660000 0.287500
0.000000 0.770000 0.287500
0.106250 0.770000 0.287500
0.212500 0.770000 0.287500
0.318750 0.770000 0.287500
0.425000 0.770000 0.287500
0.531250 0.770000 0.287500
0.637500 0.770000 0.287500
0.743750 0.770000 0.287500
0.850000 0.770000 0.287500
0.000000 0.880000 0.287500
0.106250 0.880000 0.287500
0.212500 0.880000 0.287500
0.318750 0.880000 0.287500
0.425000 0.880000 0.287500
0.531250 0.880000 0.287500
0.637500 0.880000 0.287500
0.743750 0.880000 0.287500
0.850000 0.880000 0.287500
0.000000 0.000000 0.431250
0.106250 0.000000 0.431250
0.212500 0.000000 0.431250
0.318750 0.000000 0.431250
0.425000 0.000000 0.431250
0.531250 0.000000 0.431250
0.637500 0.000000 0.431250
0.743750 0.000000 0.431250
0.850000 0.000000 0.431250
0.000000 0.110000 0.431250
0.106250 0.110000 0.431250
0.212500 0.110000 0.431250
0.318750 0.110000 0.431250
0.425000 0.110000 0.431250
0.531250 0.110000 0.431250
0.637500 0.110000 0.431250
0.743750 0.110000 0.431250
0.850000 0.110000 0.431250
0.000000 0.220000 0.431250
0.106250 0.220000 0.431250
0.212500 0.220000 0.431250
0.318750 0.220000 0.431250
0.425000 0.220000 0.431250
0.531250 0.220000 0.431250
0.637500 0.220000 0.431250
0.743750 0.220000 0.431250
0.850000 0.220000 0.431250
0.000000 0.330000 0.431250
0.106250 0.330000 0.431250
0.212500 0.330000 0.431250
0.318750 0.330000 0.431250
0.425000 0.330000 0.431250
0.531250 0.330000 0.431250
0.637500 0.330000 0.431250
0.743750 0.330000 0.431250
0.850000 0.330000 0.431250
0.000000 0.440000 0.431250
0.106250 0.440000 0.431250
0.212500 0.440000 0.431250
0.318750 0.440000 0.431250
0.425000 0.440000 0.431250
0.531250 0.440000 0.431250
0.637500 0.440000 0.431250
0.743750 0.440000 0.431250
0.850000 0.440000 0.431250
0.000000 0.550000 0.431250
0.106250 0.550000 0.431250
0.212500 0.550000 0.431250
0.318750 0.550000 0.431250
0.425000 0.550000 0.431250
0.531250 0.550000 0.431250
0.637500 0.550000 0.431250
0.743750 0.550000 0.431250
0.850000 0.550000 0.431250
0.000000 0.660000 0.431250
0.106250 0.660000 0.431250
0.212500 0.660000 0.431250
0.318750 0.660000 0.431250
0.425000 0.660000 0.431250
0.531250 0.660000 0.431250
0.637500 0.660000 0.431250
0.743750 0.660000 0.431250
0.850000 0.660000 0.431250
0.000000 0.770000 0.431250
0.106250 0.770000 0.431250
0.212500 0.770000 0.431250
0.318750 0.770000 0.431250
0.425000 0.770000 0.431250
0.531250 0.770000 0.431250
0.637500 0.770000 0.431250
0.743750 0.770000 0.431250
0.850000 0.770000 0.431250
0.000000 0.880000 0.431250
0.106250 0.880000 0.431250
0.212500 0.880000 0.431250
0.318750 0.880000 0.431250
0.425000 0.880000 0.431250
0.531250 0.880000 0.431250
0.637500 0.880000 0.431250
0.743750 0.880000 0.431250
0.850000 0.880000 0.431250
0.000000 0.000000 0.575000
0.106250 0.000000 0.575000
0.212500 0.000000 0.575000
0.318750 0.000000 0.575000
0.425000 0.000000 0.575000
0.531250 0.000000 0.575000
0.637500 0.000000 0.575000
0.743750 0.000000 0.575000
0.850000 0.000000 0.575000
0.000000 0.110000 0.575000
0.106250 0.110000 0.575000
0.212500 0.110000 0.575000
0.318750 0.110000 0.575000
0.425000 0.110000 0.575000
0.531250 0.110000 0.575000
0.637500 0.110000 0.575000
0.743750 0.110000 0.575000
0.850000 0.110000 0.575000
0.000000 0.220000 0.575000
0.106250 0.220000 0.575000
0.212500 0.220000 0.575000
0.318750 0.220000 0.575000
0.425000 0.220000 0.575000
0.531250 0.220000 0.575000
0.637500 0.220000 0.575000
0.743750 0.220000 0.575000
0.850000 0.220000 0.575000
0.000000 0.330000 0.575000
0.106250 0.330000 0.575000
0.212500 0.330000 0.575000
0.318750 0.330000 0.575000
0.425000 0.330000 0.575000
0.531250 0.330000 0.575000
0.637500 0.330000 0.575000
0.743750 0.330000 0.575000
0.850000 0.330000 0.575000
0.000000 0.440000 0.575000
0.106250 0.440000 0.575000
0.212500 0.440000 0.575000
0.318750 0.440000 0.575000
0.425000 0.440000 0.575000
0.531250 0.440000 0.575000
0.637500 0.440000 0.575000
0.743750 0.440000 0.575000
0.850000 0.440000 0.575000
0.000000 0.550000 0.575000
0.106250 0.550000 0.575000
0.212500 0.550000 0.575000
0.318750 0.550000 0.575000
0.425000 0.550000 0.575000
0.531250 0.550000 0.575000
0.637500 0.550000 0.575000
0.743750 0.550000 0.575000
0.850000 0.550000 0.575000
0.000000 0.660000 0.575000
0.106250 0.660000 0.575000
0.212500 0.660000 0.575000
0.318750 0.660000 0.575000
0.425000 0.660000 0.575000
0.531250 0.660000 0.575000
0.637500 0.660000 0.575000
0.743750 0.660000 0.575000
0.850000 0.660000 0.575000
0.000000 0.770000 0.575000
0.106250 0.770000 0.575000
0.212500 0.770000 0.575000
0.318750 0.770000 0.575000
0.425000 0.770000 0.575000
0.531250 0.770000 0.575000
0.637500 0.770000 0.575000
0.743750 0.770000 0.575000
0.850000 0.770000 0.575000
0.000000 0.880000 0.575000
0.106250 0.880000 0.575000
0.212500 0.880000 0.575000
0.318750 0.880000 0.575000
0.425000 0.880000 0.575000
0.531250 0.880000 0.575000
0.637500 0.880000 0.575000
0.743750 0.880000 0.575000
0.850000 0.880000 0.575000
0.000000 0.000000 0.718750
0.106250 0.000000 0.718750
0.212500 0.000000 0.718750
0.318750 0.000000 0.718750
0.425000 0.000000 0.718750
0.531250 0.000000 0.718750
0.637500 0.000000 0.718750
0.743750 0.000000 0.718750
0.850000 0.000000 0.718750
0.000000 0.110000 0.718750
0.106250 0.110000 0.718750
0.212500 0.110000 0.718750
0.318750 0.110000 0.718750
0.425000 0.110000 0.718750
0.531250 0.110000 0.718750
0.637500 0.110000 0.718750
0.743750 0.110000 0.718750
0.850000 0.110000 0.718750
0.000000 0.220000 0.718750
0.106250 0.220000 0.718750
0.212500 0.220000 0.718750
0.318750 0.220000 0.718750
0.425000 0.220000 0.718750
0.531250 0.220000 0.718750
0.637500 0.220000 0.718750
0.743750 0.220000 0.718750
0.850000 0.220000 0.718750
0.000000 0.330000 0.718750
0.106250 0.330000 0.718750
0.212500 0.330000 0.718750
0.318750 0.330000 0.718750
0.425000 0.330000 0.718750
0.531250 0.330000 0.718750
0.637500 0.330000 0.718750
0.743750 0.330000 0.718750
0.850000 0.330000 0.718750
0.000000 0.440000 0.718750
0.106250 0.440000 0.718750
0.212500 0.440000 0.718750
0.318750 0.440000 0.718750
0.425000 0.440000 0.718750
0.531250 0.440000 0.718750
0.637500 0.440000 0.718750
0.743750 0.440000 0.718750
0.850000 0.440000 0.718750
0.000000 0.550000 0.718750
0.106250 0.550000 0.718750
0.212500 0.550000 0.718750
0.318750 0.550000 0.718750
0.425000 0.550000 0.718750
0.531250 0.550000 0.718750
0.637500 0.550000 0.718750
0.743750 0.550000 0.718750
0.850000 0.550000 0.718750
0.000000 0.660000 0.718750
0.106250 0.660000 0.718750
0.212500 0.660000 0.718750
0.318750 0.660000 0.718750
0.425000 0.660000 0.718750
0.531250 0.660000 0.718750
0.637500 0.660000 0.718750
0.743750 0.660000 0.718750
0.850000 0.660000 0.718750
0.000000 0.770000 0.718750
0.106250 0.770000 0.718750
0.212500 0.770000 0.718750
0.318750 0.770000 0.718750
0.425000 0.770000 0.718750
0.531250 0.770000 0.718750
0.637500 0.770000 0.718750
0.743750 0.770000 0.718750
0.850000 0.770000 0.718750
0.000000 0.880000 0.718750
0.106250 0.880000 0.718750
0.212500 0.880000 0.718750
0.318750 0.880000 0.718750
0.425000 0.880000 0.718750
0.531250 0.880000 0.718750
0.637500 0.880000 0.718750
0.743750 0.880000 0.718750
0.850000 0.880000 0.718750
0.000000 0.000000 0.862500
0.106250 0.000000 0.862500
0.212500 0.000000 0.862500
0.318750 0.000000 0.862500
0.425000 0.000000 0.862500
0.531250 0.000000 0.862500
0.637500 0.000000 0.862500
0.743750 0.000000 0.862500
0.850000 0.000000 0.862500
0.000000 0.110000 0.862500
0.106250 0.110000 0.862500
0.212500 0.110000 0.862500
0.318750 0.110000 0.862500
0.425000 0.110000 0.862500
0.531250 0.110000 0.862500
0.637500 0.110000 0.862500
0.743750 0.110000 0.862500
0.850000 0.110000 0.862500
0.000000 0.220000 0.862500
0.106250 0.220000 0.862500
0.212500 0.220000 0.862500
0.318750 0.220000 0.862500
0.425000 0.220000 0.862500
0.531250 0.220000 0.862500
0.637500 0.220000 0.862500
0.743750 0.220000 0.862500
0.850000 0.220000 0.862500
0.000000 0.330000 0.862500
0.106250 0.330000 0.862500
0.212500 0.330000 0.862500
0.318750 0.330000 0.862500
0.425000 0.330000 0.862500
0.531250 0.330000 0.862500
0.637500 0.330000 0.862500
0.743750 0.330000 0.862500
0.850000 0.330000 0.862500
0.000000 0.440000 0.862500
0.106250 0.440000 0.862500
0.212500 0.440000 0.862500
0.318750 0.440000 0.862500
0.425000 0.440000 0.862500
0.531250 0.440000 0.862500
0.637500 0.440000 0.862500
0.743750 0.440000 0.862500
0.850000 0.440000 0.862500
0.000000 0.550000 0.862500
0.106250 0.550000 0.862500
0.212500 0.550000 0.862500
0.318750 0.550000 0.862500
0.425000 0.550000 0.862500
0.531250 0.550000 0.862500
0.637500 0.550000 0.862500
0.743750 0.550000 0.862500
0.850000 0.550000 0.862500
0.000000 0.660000 0.862500
0.106250 0.660000 0.862500
0.212500 0.660000 0.862500
0.318750 0.660000 0.862500
0.425000 0.660000 0.862500
0.531250 0.660000 0.862500
0.637500 0.660000 0.862500
0.743750 0.660000 0.862500
0.850000 0.660000 0.862500
0.000000 0.770000 0.862500
0.106250 0.770000 0.862500
0.212500 0.770000 0.862500
0.318750 0.770000 0.862500
0.425000 0.770000 0.862500
0.531250 0.770000 0.862500
0.637500 0.770000 0.862500
0.743750 0.770000 0.862500
0.850000 0.770000 0.862500
0.000000 0.880000 0.862500
0.106250 0.880000 0.862500
0.212500 0.880000 0.862500
0.318750 0.880000 0.862500
0.425000 0.880000 0.862500
0.531250 0.880000 0.862500
0.637500 0.880000 0.862500
0.743750 0.880000 0.862500
0.850000 0.880000 0.862500
0.000000 0.000000 1.006250
0.106250 0.000000 1.006250
0.212500 0.000000 1.006250
0.318750 0.000000 1.006250
0.425000 0.000000 1.006250
0.531250 0.000000 1.006250
0.637500 0.000000 1.006250
0.743750 0.000000 1.006250
0.850000 0.000000 1.006250
0.000000 0.110000 1.006250
0.106250 0.110000 1.006250
0.212500 0.110000 1.006250
0.318750 0.110000 1.006250
0.425000 0.110000 1.006250
0.531250 0.110000 1.006250
0.637500 0.110000 1.006250
0.743750 0.110000 1.006250
0.850000 0.110000 1.006250
0.000000 0.220000 1.006250
0.106250 0.220000 1.006250
0.212500 0.220000 1.006250
0.318750 0.220000 1.006250
0.425000 0.220000 1.006250
0.531250 0.220000 1.006250
0.637500 0.220000 1.006250
0.743750 0.220000 1.006250
0.850000 0.220000 1.006250
0.000000 0.330000 1.006250
0.106250 0.330000 1.006250
0.212500 0.330000 1.006250
0.318750 0.330000 1.006250
0.425000 0.330000 1.006250
0.531250 0.330000 1.006250
0.637500 0.330000 1.006250
0.743750 0.330000 1.006250
0.850000 0.330000 1.006250
0.000000 0.440000 1.006250
0.106250 0.440000 1.006250
0.212500 0.440000 1.006250
0.318750 0.440000 1.006250
0.425000 0.440000 1.006250
0.531250 0.440000 1.006250
0.637500 0.440000 1.006250
0.743750 0.440000 1.006250
0.850000 0.440000 1.006250
0.000000 0.550000 1.006250
0.106250 0.550000 1.006250
0.212500 0.550000 1.006250
0.318750 0.550000 1.006250
0.425000 0.550000 1.006250
0.531250 0.550000 1.006250
0.637500 0.550000 1.006250
0.743750 0.550000 1.006250
0.850000 0.550000 1.006250
0.000000 0.660000 1.006250
0.106250 0.660000 1.006250
0.212500 0.660000 1.006250
0.318750 0.660000 1.006250
0.425000 0.660000 1.006250
0.531250 0.660000 1.006250
0.637500 0.660000 1.006250
0.743750 0.660000 1.006250
0.850000 0.660000 1.006250
0.000000 0.770000 1.006250
0.106250 0.770000 1.006250
0.212500 0.770000 1.006250
0.318750 0.770000 1.006250
0.425000 0.770000 1.006250
0.531250 0.770000 1.006250
0.637500 0.770000 1.006250
0.743750 0.770000 1.006250
0.850000 0.770000 1.006250
0.000000 0.880000 1.006250
0.106250 0.880000 1.006250
0.212500 0.880000 1.006250
0.318750 0.880000 1.006250
0.425000 0.880000 1.006250
0.531250 0.880000 1.006250
0.637500 0.880000 1.006250
0.743750 0.880000 1.006250
0.850000 0.880000 1.006250
0.000000 0.000000 1.150000
0.106250 0.000000 1.150000
0.212500 0.000000 1.150000
0.318750 0.000000 1.150000
0.425000 0.000000 1.150000
0.531250 0.000000 1.150000
0.637500 0.000000 1.150000
0.743750 0.000000 1.150000
0.850000 0.000000 1.150000
0.000000 0.110000 1.150000
0.106250 0.110000 1.150000
0.212500 0.110000 1.150000
0.318750 0.110000 1.150000
0.425000 0.110000 1.150000
0.531250 0.110000 1.150000
0.637500 0.110000 1.150000
0.743750 0.110000 1.150000
0.850000 0.110000 1.150000
0.000000 0.220000 1.150000
0.106250 0.220000 1.150000
0.212500 0.220000 1.150000
0.318750 0.220000 1.150000
0.425000 0.220000 1.150000
0.531250 0.220000 1.150000
0.637500 0.220000 1.150000
0.743750 0.220000 1.150000
0.850000 0.220000 1.150000
0.000000 0.330000 1.150000
0.106250 0.330000 1.150000
0.212500 0.330000 1.150000
0.318750 0.330000 1.150000
0.425000 0.330000 1.150000
0.531250 0.330000 1.150000
0.637500 0.330000 1.150000
0.743750 0.330000 1.150000
0.850000 0.330000 1.150000
0.000000 0.440000 1.150000
0.106250 0.440000 1.150000
0.212500 0.440000 1.150000
0.318750 0.440000 1.150000
0.425000 0.440000 1.150000
0.531250 0.440000 1.150000
0.637500 0.440000 1.150000
0.743750 0.440000 1.150000
0.850000 0.440000 1.150000
0.000000 0.550000 1.150000
0.106250 0.550000 1.150000
0.212500 0.550000 1.150000
0.318750 0.550000 1.150000
0.425000 0.550000 1.150000
0.531250 0.550000 1.150000
0.637500 0.550000 1.150000
0.743750 0.550000 1.150000
0.850000 0.550000 1.150000
0.000000 0.660000 1.150000
0.106250 0.660000 1.150000
0.212500 0.660000 1.150000
0.318750 0.660000 1.150000
0.425000 0.660000 1.150000
0.531250 0.660000 1.150000
0.637500 0.660000 1.150000
0.743750 0.660000 1.150000
0.850000 0.660000 1.150000
0.000000 0.770000 1.150000
0.106250 0.770000 1.150000
0.212500 0.770000 1.150000
0.318750 0.770000 1.150000
0.425000 0.770000 1.150000
0.531250 0.770000 1.150000
0.637500 0.770000 1.150000
0.743750 0.770000 1.150000
0.850000 0.770000 1.150000
0.000000 0.880000 1.150000
0.106250 0.880000 1.150000
0.212500 0.880000 1.150000
0.318750 0.880000 1.150000
0.425000 0.880000 1.150000
0.531250 0.880000 1.150000
0.637500 0.880000 1.150000
0.743750 0.880000 1.150000
0.850000 0.880000 1.150000
