assets/luts/cold_blue.cube
TITLE "Cold Blue"
LUT_3D_SIZE 5
DOMAIN_MIN 0.0 0.0 0.0
DOMAIN_MAX 1.0 1.0 1.0
0.000000 0.000000 0.000000
0.212500 0.000000 0.000000
0.425000 0.000000 0.000000
0.637500 0.000000 0.000000
0.850000 0.000000 0.000000
0.000000 0.220000 0.000000
0.212500 0.220000 0.000000
0.425000 0.220000 0.000000
0.637500 0.220000 0.000000
0.850000 0.220000 0.000000
0.000000 0.440000 0.000000
0.212500 0.440000 0.000000
0.425000 0.440000 0.000000
0.637500 0.440000 0.000000
0.850000 0.440000 0.000000
0.000000 0.660000 0.000000
0.212500 0.660000 0.000000
0.425000 0.660000 0.000000
0.637500 0.660000 0.000000
0.850000 0.660000 0.000000
0.000000 0.880000 0.000000
0.212500 0.880000 0.000000
0.425000 0.880000 0.000000
0.637500 0.880000 0.000000
0.850000 0.880000 0.000000
0.000000 0.000000 0.287500
0.212500 0.000000 0.287500
0.425000 0.000000 0.287500
0.637500 0.000000 0.287500
0.850000 0.000000 0.287500
0.000000 0.220000 0.287500
0.212500 0.220000 0.287500
0.425000 0.220000 0.287500
0.637500 0.220000 0.287500
0.850000 0.220000 0.287500
0.000000 0.440000 0.287500
0.212500 0.440000 0.287500
0.425000 0.440000 0.287500
0.637500 0.440000 0.287500
0.850000 0.440000 0.287500
0.000000 0.660000 0.287500
0.212500 0.660000 0.287500
0.425000 0.660000 0.287500
0.637500 0.660000 0.287500
0.850000 0.660000 0.287500
0.000000 0.880000 0.287500
0.212500 0.880000 0.287500
0.425000 0.880000 0.287500
0.637500 0.880000 0.287500
0.850000 0.880000 0.287500
0.000000 0.000000 0.575000
0.212500 0.000000 0.575000
0.425000 0.000000 0.575000
0.637500 0.000000 0.575000
0.850000 0.000000 0.575000
0.000000 0.220000 0.575000
0.212500 0.220000 0.575000
0.425000 0.220000 0.575000
0.637500 0.220000 0.575000
0.850000 0.220000 0.575000
0.000000 0.440000 0.575000
0.212500 0.440000 0.575000
0.425000 0.440000 0.575000
0.637500 0.440000 0.575000
0.850000 0.440000 0.575000
0.000000 0.660000 0.575000
0.212500 0.660000 0.575000
0.425000 0.660000 0.575000
0.637500 0.660000 0.575000
0.850000 0.660000 0.575000
0.000000 0.880000 0.575000
0.212500 0.880000 0.575000
0.425000 0.880000 0.575000
0.637500 0.880000 0.575000
0.850000 0.880000 0.575000
0.000000 0.000000 0.862500
0.212500 0.000000 0.862500
0.425000 0.000000 0.862500
0.637500 0.000000 0.862500
0.850000 0.000000 0.862500
0.000000 0.220000 0.862500
0.212500 0.220000 0.862500
0.425000 0.220000 0.862500
0.637500 0.220000 0.862500
0.850000 0.220000 0.862500
0.000000 0.440000 0.862500
0.212500 0.440000 0.862500
0.425000 0.440000 0.862500
0.637500 0.440000 0.862500
0.850000 0.440000 0.862500
0.000000 0.660000 0.862500
0.212500 0.660000 0.862500
0.425000 0.660000 0.862500
0.637500 0.660000 0.862500
0.850000 0.660000 0.862500
0.000000 0.880000 0.862500
0.212500 0.880000 0.862500
0.425000 0.880000 0.862500
0.637500 0.880000 0.862500
0.850000 0.880000 0.862500
0.000000 0.000000 1.150000
0.212500 0.000000 1.150000
0.425000 0.000000 1.150000
0.637500 0.000000 1.150000
0.850000 0.000000 1.150000
0.000000 0.220000 1.150000
0.212500 0.220000 1.150000
0.425000 0.220000 1.150000
0.637500 0.220000 1.150000
0.850000 0.220000 1.150000
0.000000 0.440000 1.150000
0.212500 0.440000 1.150000
0.425000 0.440000 1.150000
0.637500 0.440000 1.150000
0.850000 0.440000 1.150000
0.000000 0.660000 1.150000
0.212500 0.660000 1.150000
0.425000 0.660000 1.150000
0.637500 0.660000 1.150000
0.850000 0.660000 1.150000
0.000000 0.880000 1.150000
0.212500 0.880000 1.150000
0.425000 0.880000 1.150000
0.637500 0.880000 1.150000
0.850000 0.880000 1.150000
