assets/luts/cold_blue.cube
TITLE "Cold Blue"
LUT_3D_SIZE 17
DOMAIN_MIN 0.0 0.0 0.0
DOMAIN_MAX 1.0 1.0 1.0
0.000000 0.000000 0.000000
0.053125 0.000000 0.000000
0.106250 0.000000 0.000000
0.159375 0.000000 0.000000
0.212500 0.000000 0.000000
0.265625 0.000000 0.000000
0.318750 0.000000 0.000000
0.371875 0.000000 0.000000
0.425000 0.000000 0.000000
0.478125 0.000000 0.000000
0.531250 0.000000 0.000000
0.584375 0.000000 0.000000
0.637500 0.000000 0.000000
0.690625 0.000000 0.000000
0.743750 0.000000 0.000000
0.796875 0.000000 0.000000
0.850000 0.000000 0.000000
0.000000 0.055000 0.000000
0.053125 0.055000 0.000000
0.106250 0.055000 0.000000
0.159375 0.055000 0.000000
0.212500 0.055000 0.000000
0.265625 0.055000 0.000000
0.318750 0.055000 0.000000
0.371875 0.055000 0.000000
0.425000 0.055000 0.000000
0.478125 0.055000 0.000000
0.531250 0.055000 0.000000
0.584375 0.055000 0.000000
0.637500 0.055000 0.000000
0.690625 0.055000 0.000000
0.743750 0.055000 0.000000
0.796875 0.055000 0.000000
0.850000 0.055000 0.000000
0.000000 0.110000 0.000000
0.053125 0.110000 0.000000
0.106250 0.110000 0.000000
0.159375 0.110000 0.000000
0.212500 0.110000 0.000000
0.265625 0.110000 0.000000
0.318750 0.110000 0.000000
0.371875 0.110000 0.000000
0.425000 0.110000 0.000000
0.478125 0.110000 0.000000
0.531250 0.110000 0.000000
0.584375 0.110000 0.000000
0.637500 0.110000 0.000000
0.690625 0.110000 0.000000
0.743750 0.110000 0.000000
0.796875 0.110000 0.000000
0.850000 0.110000 0.000000
0.000000 0.165000 0.000000
0.053125 0.165000 0.000000
0.106250 0.165000 0.000000
0.159375 0.165000 0.000000
0.212500 0.165000 0.000000
0.265625 0.165000 0.000000
0.318750 0.165000 0.000000
0.371875 0.165000 0.000000
0.425000 0.165000 0.000000
0.478125 0.165000 0.000000
0.531250 0.165000 0.000000
0.584375 0.165000 0.000000
0.637500 0.165000 0.000000
0.690625 0.165000 0.000000
0.743750 0.165000 0.000000
0.796875 0.165000 0.000000
0.850000 0.165000 0.000000
0.000000 0.220000 0.000000
0.053125 0.220000 0.000000
0.106250 0.220000 0.000000
0.159375 0.220000 0.000000
0.212500 0.220000 0.000000
0.265625 0.220000 0.000000
0.318750 0.220000 0.000000
0.371875 0.220000 0.000000
0.425000 0.220000 0.000000
0.478125 0.220000 0.000000
0.531250 0.220000 0.000000
0.584375 0.220000 0.000000
0.637500 0.220000 0.000000
0.690625 0.220000 0.000000
0.743750 0.220000 0.000000
0.796875 0.220000 0.000000
0.850000 0.220000 0.000000
0.000000 0.275000 0.000000
0.053125 0.275000 0.000000
0.106250 0.275000 0.000000
0.159375 0.275000 0.000000
0.212500 0.275000 0.000000
0.265625 0.275000 0.000000
0.318750 0.275000 0.000000
0.371875 0.275000 0.000000
0.425000 0.275000 0.000000
0.478125 0.275000 0.000000
0.531250 0.275000 0.000000
0.584375 0.275000 0.000000
0.637500 0.275000 0.000000
0.690625 0.275000 0.000000
0.743750 0.275000 0.000000
0.796875 0.275000 0.000000
0.850000 0.275000 0.000000
0.000000 0.330000 0.000000
0.053125 0.330000 0.000000
0.106250 0.330000 0.000000
0.159375 0.330000 0.000000
0.212500 0.330000 0.000000
0.265625 0.330000 0.000000
0.318750 0.330000 0.000000
0.371875 0.330000 0.000000
0.425000 0.330000 0.000000
0.478125 0.330000 0.000000
0.531250 0.330000 0.000000
0.584375 0.330000 0.000000
0.637500 0.330000 0.000000
0.690625 0.330000 0.000000
0.743750 0.330000 0.000000
0.796875 0.330000 0.000000
0.850000 0.330000 0.000000
0.000000 0.385000 0.000000
0.053125 0.385000 0.000000
0.106250 0.385000 0.000000
0.159375 0.385000 0.000000
0.212500 0.385000 0.000000
0.265625 0.385000 0.000000
0.318750 0.385000 0.000000
0.371875 0.385000 0.000000
0.425000 0.385000 0.000000
0.478125 0.385000 0.000000
0.531250 0.385000 0.000000
0.584375 0.385000 0.000000
0.637500 0.385000 0.000000
0.690625 0.385000 0.000000
0.743750 0.385000 0.000000
0.796875 0.385000 0.000000
0.850000 0.385000 0.000000
0.000000 0.440000 0.000000
0.053125 0.440000 0.000000
0.106250 0.440000 0.000000
0.159375 0.440000 0.000000
0.212500 0.440000 0.000000
0.265625 0.440000 0.000000
0.318750 0.440000 0.000000
0.371875 0.440000 0.000000
0.425000 0.440000 0.000000
0.478125 0.440000 0.000000
0.531250 0.440000 0.000000
0.584375 0.440000 0.000000
0.637500 0.440000 0.000000
0.690625 0.440000 0.000000
0.743750 0.440000 0.000000
0.796875 0.440000 0.000000
0.850000 0.440000 0.000000
0.000000 0.495000 0.000000
0.053125 0.495000 0.000000
0.106250 0.495000 0.000000
0.159375 0.495000 0.000000
0.212500 0.495000 0.000000
0.265625 0.495000 0.000000
0.318750 0.495000 0.000000
0.371875 0.495000 0.000000
0.425000 0.495000 0.000000
0.478125 0.495000 0.000000
0.531250 0.495000 0.000000
0.584375 0.495000 0.000000
0.637500 0.495000 0.000000
0.690625 0.495000 0.000000
0.743750 0.495000 0.000000
0.796875 0.495000 0.000000
0.850000 0.495000 0.000000
0.000000 0.550000 0.000000
0.053125 0.550000 0.000000
0.106250 0.550000 0.000000
0.159375 0.550000 0.000000
0.212500 0.550000 0.000000
0.265625 0.550000 0.000000
0.318750 0.550000 0.000000
0.371875 0.550000 0.000000
0.425000 0.550000 0.000000
0.478125 0.550000 0.000000
0.531250 0.550000 0.000000
0.584375 0.550000 0.000000
0.637500 0.550000 0.000000
0.690625 0.550000 0.000000
0.743750 0.550000 0.000000
0.796875 0.550000 0.000000
0.850000 0.550000 0.000000
0.000000 0.605000 0.000000
0.053125 0.605000 0.000000
0.106250 0.605000 0.000000
0.159375 0.605000 0.000000
0.212500 0.605000 0.000000
0.265625 0.605000 0.000000
0.318750 0.605000 0.000000
0.371875 0.605000 0.000000
0.425000 0.605000 0.000000
0.478125 0.605000 0.000000
0.531250 0.605000 0.000000
0.584375 0.605000 0.000000
0.637500 0.605000 0.000000
0.690625 0.605000 0.000000
0.743750 0.605000 0.000000
0.796875 0.605000 0.000000
0.850000 0.605000 0.000000
0.000000 0.660000 0.000000
0.053125 0.660000 0.000000
0.106250 0.660000 0.000000
0.159375 0.660000 0.000000
0.212500 0.660000 0.000000
0.265625 0.660000 0.000000
0.318750 0.660000 0.000000
0.371875 0.660000 0.000000
0.425000 0.660000 0.000000
0.478125 0.660000 0.000000
0.531250 0.660000 0.000000
0.584375 0.660000 0.000000
0.637500 0.660000 0.000000
0.690625 0.660000 0.000000
0.743750 0.660000 0.000000
0.796875 0.660000 0.000000
0.850000 0.660000 0.000000
0.000000 0.715000 0.000000
0.053125 0.715000 0.000000
0.106250 0.715000 0.000000
0.159375 0.715000 0.000000
0.212500 0.715000 0.000000
0.265625 0.715000 0.000000
0.318750 0.715000 0.000000
0.371875 0.715000 0.000000
0.425000 0.715000 0.000000
0.478125 0.715000 0.000000
0.531250 0.715000 0.000000
0.584375 0.715000 0.000000
0.637500 0.715000 0.000000
0.690625 0.715000 0.000000
0.743750 0.715000 0.000000
0.796875 0.715000 0.000000
0.850000 0.715000 0.000000
0.000000 0.770000 0.000000
0.053125 0.770000 0.000000
0.106250 0.770000 0.000000
0.159375 0.770000 0.000000
0.212500 0.770000 0.000000
0.265625 0.770000 0.000000
0.318750 0.770000 0.000000
0.371875 0.770000 0.000000
0.425000 0.770000 0.000000
0.478125 0.770000 0.000000
0.531250 0.770000 0.000000
0.584375 0.770000 0.000000
0.637500 0.770000 0.000000
0.690625 0.770000 0.000000
0.743750 0.770000 0.000000
0.796875 0.770000 0.000000
0.850000 0.770000 0.000000
0.000000 0.825000 0.000000
0.053125 0.825000 0.000000
0.106250 0.825000 0.000000
0.159375 0.825000 0.000000
0.212500 0.825000 0.000000
0.265625 0.825000 0.000000
0.318750 0.825000 0.000000
0.371875 0.825000 0.000000
0.425000 0.825000 0.000000
0.478125 0.825000 0.000000
0.531250 0.825000 0.000000
0.584375 0.825000 0.000000
0.637500 0.825000 0.000000
0.690625 0.825000 0.000000
0.743750 0.825000 0.000000
0.796875 0.825000 0.000000
0.850000 0.825000 0.000000
0.000000 0.880000 0.000000
0.053125 0.880000 0.000000
0.106250 0.880000 0.000000
0.159375 0.880000 0.000000
0.212500 0.880000 0.000000
0.265625 0.880000 0.000000
0.318750 0.880000 0.000000
0.371875 0.880000 0.000000
0.425000 0.880000 0.000000
0.478125 0.880000 0.000000
0.531250 0.880000 0.000000
0.584375 0.880000 0.000000
0.637500 0.880000 0.000000
0.690625 0.880000 0.000000
0.743750 0.880000 0.000000
0.796875 0.880000 0.000000
0.850000 0.880000 0.000000
0.000000 0.000000 0.071875
0.053125 0.000000 0.071875
0.106250 0.000000 0.071875
0.159375 0.000000 0.071875
0.212500 0.000000 0.071875
0.265625 0.000000 0.071875
0.318750 0.000000 0.071875
0.371875 0.000000 0.071875
0.425000 0.000000 0.071875
0.478125 0.000000 0.071875
0.531250 0.000000 0.071875
0.584375 0.000000 0.071875
0.637500 0.000000 0.071875
0.690625 0.000000 0.071875
0.743750 0.000000 0.071875
0.796875 0.000000 0.071875
0.850000 0.000000 0.071875
0.000000 0.055000 0.071875
0.053125 0.055000 0.071875
0.106250 0.055000 0.071875
0.159375 0.055000 0.071875
0.212500 0.055000 0.071875
0.265625 0.055000 0.071875
0.318750 0.055000 0.071875
0.371875 0.055000 0.071875
0.425000 0.055000 0.071875
0.478125 0.055000 0.071875
0.531250 0.055000 0.071875
0.584375 0.055000 0.071875
0.637500 0.055000 0.071875
0.690625 0.055000 0.071875
0.743750 0.055000 0.071875
0.796875 0.055000 0.071875
0.850000 0.055000 0.071875
0.000000 0.110000 0.071875
0.053125 0.110000 0.071875
0.106250 0.110000 0.071875
0.159375 0.110000 0.071875
0.212500 0.110000 0.071875
0.265625 0.110000 0.071875
0.318750 0.110000 0.071875
0.371875 0.110000 0.071875
0.425000 0.110000 0.071875
0.478125 0.110000 0.071875
0.531250 0.110000 0.071875
0.584375 0.110000 0.071875
0.637500 0.110000 0.071875
0.690625 0.110000 0.071875
0.743750 0.110000 0.071875
0.796875 0.110000 0.071875
0.850000 0.110000 0.071875
0.000000 0.165000 0.071875
0.053125 0.165000 0.071875
0.106250 0.165000 0.071875
0.159375 0.165000 0.071875
0.212500 0.165000 0.071875
0.265625 0.165000 0.071875
0.318750 0.165000 0.071875
0.371875 0.165000 0.071875
0.425000 0.165000 0.071875
0.478125 0.165000 0.071875
0.531250 0.165000 0.071875
0.584375 0.165000 0.071875
0.637500 0.165000 0.071875
0.690625 0.165000 0.071875
0.743750 0.165000 0.071875
0.796875 0.165000 0.071875
0.850000 0.165000 0.071875
0.000000 0.220000 0.071875
0.053125 0.220000 0.071875
0.106250 0.220000 0.071875
0.159375 0.220000 0.071875
0.212500 0.220000 0.071875
0.265625 0.220000 0.071875
0.318750 0.220000 0.071875
0.371875 0.220000 0.071875
0.425000 0.220000 0.071875
0.478125 0.220000 0.071875
0.531250 0.220000 0.071875
0.584375 0.220000 0.071875
0.637500 0.220000 0.071875
0.690625 0.220000 0.071875
0.743750 0.220000 0.071875
0.796875 0.220000 0.071875
0.850000 0.220000 0.071875
0.000000 0.275000 0.071875
0.053125 0.275000 0.071875
0.106250 0.275000 0.071875
0.159375 0.275000 0.071875
0.212500 0.275000 0.071875
0.265625 0.275000 0.071875
0.318750 0.275000 0.071875
0.371875 0.275000 0.071875
0.425000 0.275000 0.071875
0.478125 0.275000 0.071875
0.531250 0.275000 0.071875
0.584375 0.275000 0.071875
0.637500 0.275000 0.071875
0.690625 0.275000 0.071875
0.743750 0.275000 0.071875
0.796875 0.275000 0.071875
0.850000 0.275000 0.071875
0.000000 0.330000 0.071875
0.053125 0.330000 0.071875
0.106250 0.330000 0.071875
0.159375 0.330000 0.071875
0.212500 0.330000 0.071875
0.265625 0.330000 0.071875
0.318750 0.330000 0.071875
0.371875 0.330000 0.071875
0.425000 0.330000 0.071875
0.478125 0.330000 0.071875
0.531250 0.330000 0.071875
0.584375 0.330000 0.071875
0.637500 0.330000 0.071875
0.690625 0.330000 0.071875
0.743750 0.330000 0.071875
0.796875 0.330000 0.071875
0.850000 0.330000 0.071875
0.000000 0.385000 0.071875
0.053125 0.385000 0.071875
0.106250 0.385000 0.071875
0.159375 0.385000 0.071875
0.212500 0.385000 0.071875
0.265625 0.385000 0.071875
0.318750 0.385000 0.071875
0.371875 0.385000 0.071875
0.425000 0.385000 0.071875
0.478125 0.385000 0.071875
0.531250 0.385000 0.071875
0.584375 0.385000 0.071875
0.637500 0.385000 0.071875
0.690625 0.385000 0.071875
0.743750 0.385000 0.071875
0.796875 0.385000 0.071875
0.850000 0.385000 0.071875
0.000000 0.440000 0.071875
0.053125 0.440000 0.071875
0.106250 0.440000 0.071875
0.159375 0.440000 0.071875
0.212500 0.440000 0.071875
0.265625 0.440000 0.071875
0.318750 0.440000 0.071875
0.371875 0.440000 0.071875
0.425000 0.440000 0.071875
0.478125 0.440000 0.071875
0.531250 0.440000 0.071875
0.584375 0.440000 0.071875
0.637500 0.440000 0.071875
0.690625 0.440000 0.071875
0.743750 0.440000 0.071875
0.796875 0.440000 0.071875
0.850000 0.440000 0.071875
0.000000 0.495000 0.071875
0.053125 0.495000 0.071875
0.106250 0.495000 0.071875
0.159375 0.495000 0.071875
0.212500 0.495000 0.071875
0.265625 0.495000 0.071875
0.318750 0.495000 0.071875
0.371875 0.495000 0.071875
0.425000 0.495000 0.071875
0.478125 0.495000 0.071875
0.531250 0.495000 0.071875
0.584375 0.495000 0.071875
0.637500 0.495000 0.071875
0.690625 0.495000 0.071875
0.743750 0.495000 0.071875
0.796875 0.495000 0.071875
0.850000 0.495000 0.071875
0.000000 0.550000 0.071875
0.053125 0.550000 0.071875
0.106250 0.550000 0.071875
0.159375 0.550000 0.071875
0.212500 0.550000 0.071875
0.265625 0.550000 0.071875
0.318750 0.550000 0.071875
0.371875 0.550000 0.071875
0.425000 0.550000 0.071875
0.478125 0.550000 0.071875
0.531250 0.550000 0.071875
0.584375 0.550000 0.071875
0.637500 0.550000 0.071875
0.690625 0.550000 0.071875
0.743750 0.550000 0.071875
0.796875 0.550000 0.071875
0.850000 0.550000 0.071875
0.000000 0.605000 0.071875
0.053125 0.605000 0.071875
0.106250 0.605000 0.071875
0.159375 0.605000 0.071875
0.212500 0.605000 0.071875
0.265625 0.605000 0.071875
0.318750 0.605000 0.071875
0.371875 0.605000 0.071875
0.425000 0.605000 0.071875
0.478125 0.605000 0.071875
0.531250 0.605000 0.071875
0.584375 0.605000 0.071875
0.637500 0.605000 0.071875
0.690625 0.605000 0.071875
0.743750 0.605000 0.071875
0.796875 0.605000 0.071875
0.850000 0.605000 0.071875
0.000000 0.660000 0.071875
0.053125 0.660000 0.071875
0.106250 0.660000 0.071875
0.159375 0.660000 0.071875
0.212500 0.660000 0.071875
0.265625 0.660000 0.071875
0.318750 0.660000 0.071875
0.371875 0.660000 0.071875
0.425000 0.660000 0.071875
0.478125 0.660000 0.071875
0.531250 0.660000 0.071875
0.584375 0.660000 0.071875
0.637500 0.660000 0.071875
0.690625 0.660000 0.071875
0.743750 0.660000 0.071875
0.796875 0.660000 0.071875
0.850000 0.660000 0.071875
0.000000 0.715000 0.071875
0.053125 0.715000 0.071875
0.106250 0.715000 0.071875
0.159375 0.715000 0.071875
0.212500 0.715000 0.071875
0.265625 0.715000 0.071875
0.318750 0.715000 0.071875
0.371875 0.715000 0.071875
0.425000 0.715000 0.071875
0.478125 0.715000 0.071875
0.531250 0.715000 0.071875
0.584375 0.715000 0.071875
0.637500 0.715000 0.071875
0.690625 0.715000 0.071875
0.743750 0.715000 0.071875
0.796875 0.715000 0.071875
0.850000 0.715000 0.071875
0.000000 0.770000 0.071875
0.053125 0.770000 0.071875
0.106250 0.770000 0.071875
0.159375 0.770000 0.071875
0.212500 0.770000 0.071875
0.265625 0.770000 0.071875
0.318750 0.770000 0.071875
0.371875 0.770000 0.071875
0.425000 0.770000 0.071875
0.478125 0.770000 0.071875
0.531250 0.770000 0.071875
0.584375 0.770000 0.071875
0.637500 0.770000 0.071875
0.690625 0.770000 0.071875
0.743750 0.770000 0.071875
0.796875 0.770000 0.071875
0.850000 0.770000 0.071875
0.000000 0.825000 0.071875
0.053125 0.825000 0.071875
0.106250 0.825000 0.071875
0.159375 0.825000 0.071875
0.212500 0.825000 0.071875
0.265625 0.825000 0.071875
0.318750 0.825000 0.071875
0.371875 0.825000 0.071875
0.425000 0.825000 0.071875
0.478125 0.825000 0.071875
0.531250 0.825000 0.071875
0.584375 0.825000 0.071875
0.637500 0.825000 0.071875
0.690625 0.825000 0.071875
0.743750 0.825000 0.071875
0.796875 0.825000 0.071875
0.850000 0.825000 0.071875
0.000000 0.880000 0.071875
0.053125 0.880000 0.071875
0.106250 0.880000 0.071875
0.159375 0.880000 0.071875
0.212500 0.880000 0.071875
0.265625 0.880000 0.071875
0.318750 0.880000 0.071875
0.371875 0.880000 0.071875
0.425000 0.880000 0.071875
0.478125 0.880000 0.071875
0.531250 0.880000 0.071875
0.584375 0.880000 0.071875
0.637500 0.880000 0.071875
0.690625 0.880000 0.071875
0.743750 0.880000 0.071875
0.796875 0.880000 0.071875
0.850000 0.880000 0.071875
0.000000 0.000000 0.143750
0.053125 0.000000 0.143750
0.106250 0.000000 0.143750
0.159375 0.000000 0.143750
0.212500 0.000000 0.143750
0.265625 0.000000 0.143750
0.318750 0.000000 0.143750
0.371875 0.000000 0.143750
0.425000 0.000000 0.143750
0.478125 0.000000 0.143750
0.531250 0.000000 0.143750
0.584375 0.000000 0.143750
0.637500 0.000000 0.143750
0.690625 0.000000 0.143750
0.743750 0.000000 0.143750
0.796875 0.000000 0.143750
0.850000 0.000000 0.143750
0.000000 0.055000 0.143750
0.053125 0.055000 0.143750
0.106250 0.055000 0.143750
0.159375 0.055000 0.143750
0.212500 0.055000 0.143750
0.265625 0.055000 0.143750
0.318750 0.055000 0.143750
0.371875 0.055000 0.143750
0.425000 0.055000 0.143750
0.478125 0.055000 0.143750
0.531250 0.055000 0.143750
0.584375 0.055000 0.143750
0.637500 0.055000 0.143750
0.690625 0.055000 0.143750
0.743750 0.055000 0.143750
0.796875 0.055000 0.143750
0.850000 0.055000 0.143750
0.000000 0.110000 0.143750
0.053125 0.110000 0.143750
0.106250 0.110000 0.143750
0.159375 0.110000 0.143750
0.212500 0.110000 0.143750
0.265625 0.110000 0.143750
0.318750 0.110000 0.143750
0.371875 0.110000 0.143750
0.425000 0.110000 0.143750
0.478125 0.110000 0.143750
0.531250 0.110000 0.143750
0.584375 0.110000 0.143750
0.637500 0.110000 0.143750
0.690625 0.110000 0.143750
0.743750 0.110000 0.143750
0.796875 0.110000 0.143750
0.850000 0.110000 0.143750
0.000000 0.165000 0.143750
0.053125 0.165000 0.143750
0.106250 0.165000 0.143750
0.159375 0.165000 0.143750
0.212500 0.165000 0.143750
0.265625 0.165000 0.143750
0.318750 0.165000 0.143750
0.371875 0.165000 0.143750
0.425000 0.165000 0.143750
0.478125 0.165000 0.143750
0.531250 0.165000 0.143750
0.584375 0.165000 0.143750
0.637500 0.165000 0.143750
0.690625 0.165000 0.143750
0.743750 0.165000 0.143750
0.796875 0.165000 0.143750
0.850000 0.165000 0.143750
0.000000 0.220000 0.143750
0.053125 0.220000 0.143750
0.106250 0.220000 0.143750
0.159375 0.220000 0.143750
0.212500 0.220000 0.143750
0.265625 0.220000 0.143750
0.318750 0.220000 0.143750
0.371875 0.220000 0.143750
0.425000 0.220000 0.143750
0.478125 0.220000 0.143750
0.531250 0.220000 0.143750
0.584375 0.220000 0.143750
0.637500 0.220000 0.143750
0.690625 0.220000 0.143750
0.743750 0.220000 0.143750
0.796875 0.220000 0.143750
0.850000 0.220000 0.143750
0.000000 0.275000 0.143750
0.053125 0.275000 0.143750
0.106250 0.275000 0.143750
0.159375 0.275000 0.143750
0.212500 0.275000 0.143750
0.265625 0.275000 0.143750
0.318750 0.275000 0.143750
0.371875 0.275000 0.143750
0.425000 0.275000 0.143750
0.478125 0.275000 0.143750
0.531250 0.275000 0.143750
0.584375 0.275000 0.143750
0.637500 0.275000 0.143750
0.690625 0.275000 0.143750
0.743750 0.275000 0.143750
0.796875 0.275000 0.143750
0.850000 0.275000 0.143750
0.000000 0.330000 0.143750
0.053125 0.330000 0.143750
0.106250 0.330000 0.143750
0.159375 0.330000 0.143750
0.212500 0.330000 0.143750
0.265625 0.330000 0.143750
0.318750 0.330000 0.143750
0.371875 0.330000 0.143750
0.425000 0.330000 0.143750
0.478125 0.330000 0.143750
0.531250 0.330000 0.143750
0.584375 0.330000 0.143750
0.637500 0.330000 0.143750
0.690625 0.330000 0.143750
0.743750 0.330000 0.143750
0.796875 0.330000 0.143750
0.850000 0.330000 0.143750
0.000000 0.385000 0.143750
0.053125 0.385000 0.143750
0.106250 0.385000 0.143750
0.159375 0.385000 0.143750
0.212500 0.385000 0.143750
0.265625 0.385000 0.143750
0.318750 0.385000 0.143750
0.371875 0.385000 0.143750
0.425000 0.385000 0.143750
0.478125 0.385000 0.143750
0.531250 0.385000 0.143750
0.584375 0.385000 0.143750
0.637500 0.385000 0.143750
0.690625 0.385000 0.143750
0.743750 0.385000 0.143750
0.796875 0.385000 0.143750
0.850000 0.385000 0.143750
0.000000 0.440000 0.143750
0.053125 0.440000 0.143750
0.106250 0.440000 0.143750
0.159375 0.440000 0.143750
0.212500 0.440000 0.143750
0.265625 0.440000 0.143750
0.318750 0.440000 0.143750
0.371875 0.440000 0.143750
0.425000 0.440000 0.143750
0.478125 0.440000 0.143750
0.531250 0.440000 0.143750
0.584375 0.440000 0.143750
0.637500 0.440000 0.143750
0.690625 0.440000 0.143750
0.743750 0.440000 0.143750
0.796875 0.440000 0.143750
0.850000 0.440000 0.143750
0.000000 0.495000 0.143750
0.053125 0.495000 0.143750
0.106250 0.495000 0.143750
0.159375 0.495000 0.143750
0.212500 0.495000 0.143750
0.265625 0.495000 0.143750
0.318750 0.495000 0.143750
0.371875 0.495000 0.143750
0.425000 0.495000 0.143750
0.478125 0.495000 0.143750
0.531250 0.495000 0.143750
0.584375 0.495000 0.143750
0.637500 0.495000 0.143750
0.690625 0.495000 0.143750
0.743750 0.495000 0.143750
0.796875 0.495000 0.143750
0.850000 0.495000 0.143750
0.000000 0.550000 0.143750
0.053125 0.550000 0.143750
0.106250 0.550000 0.143750
0.159375 0.550000 0.143750
0.212500 0.550000 0.143750
0.265625 0.550000 0.143750
0.318750 0.550000 0.143750
0.371875 0.550000 0.143750
0.425000 0.550000 0.143750
0.478125 0.550000 0.143750
0.531250 0.550000 0.143750
0.584375 0.550000 0.143750
0.637500 0.550000 0.143750
0.690625 0.550000 0.143750
0.743750 0.550000 0.143750
0.796875 0.550000 0.143750
0.850000 0.550000 0.143750
0.000000 0.605000 0.143750
0.053125 0.605000 0.143750
0.106250 0.605000 0.143750
0.159375 0.605000 0.143750
0.212500 0.605000 0.143750
0.265625 0.605000 0.143750
0.318750 0.605000 0.143750
0.371875 0.605000 0.143750
0.425000 0.605000 0.143750
0.478125 0.605000 0.143750
0.531250 0.605000 0.143750
0.584375 0.605000 0.143750
0.637500 0.605000 0.143750
0.690625 0.605000 0.143750
0.743750 0.605000 0.143750
0.796875 0.605000 0.143750
0.850000 0.605000 0.143750
0.000000 0.660000 0.143750
0.053125 0.660000 0.143750
0.106250 0.660000 0.143750
0.159375 0.660000 0.143750
0.212500 0.660000 0.143750
0.265625 0.660000 0.143750
0.318750 0.660000 0.143750
0.371875 0.660000 0.143750
0.425000 0.660000 0.143750
0.478125 0.660000 0.143750
0.531250 0.660000 0.143750
0.584375 0.660000 0.143750
0.637500 0.660000 0.143750
0.690625 0.660000 0.143750
0.743750 0.660000 0.143750
0.796875 0.660000 0.143750
0.850000 0.660000 0.143750
0.000000 0.715000 0.143750
0.053125 0.715000 0.143750
0.106250 0.715000 0.143750
0.159375 0.715000 0.143750
0.212500 0.715000 0.143750
0.265625 0.715000 0.143750
0.318750 0.715000 0.143750
0.371875 0.715000 0.143750
0.425000 0.715000 0.143750
0.478125 0.715000 0.143750
0.531250 0.715000 0.143750
0.584375 0.715000 0.143750
0.637500 0.715000 0.143750
0.690625 0.715000 0.143750
0.743750 0.715000 0.143750
0.796875 0.715000 0.143750
0.850000 0.715000 0.143750
0.000000 0.770000 0.143750
0.053125 0.770000 0.143750
0.106250 0.770000 0.143750
0.159375 0.770000 0.143750
0.212500 0.770000 0.143750
0.265625 0.770000 0.143750
0.318750 0.770000 0.143750
0.371875 0.770000 0.143750
0.425000 0.770000 0.143750
0.478125 0.770000 0.143750
0.531250 0.770000 0.143750
0.584375 0.770000 0.143750
0.637500 0.770000 0.143750
0.690625 0.770000 0.143750
0.743750 0.770000 0.143750
0.796875 0.770000 0.143750
0.850000 0.770000 0.143750
0.000000 0.825000 0.143750
0.053125 0.825000 0.143750
0.106250 0.825000 0.143750
0.159375 0.825000 0.143750
0.212500 0.825000 0.143750
0.265625 0.825000 0.143750
0.318750 0.825000 0.143750
0.371875 0.825000 0.143750
0.425000 0.825000 0.143750
0.478125 0.825000 0.143750
0.531250 0.825000 0.143750
0.584375 0.825000 0.143750
0.637500 0.825000 0.143750
0.690625 0.825000 0.143750
0.743750 0.825000 0.143750
0.796875 0.825000 0.143750
0.850000 0.825000 0.143750
0.000000 0.880000 0.143750
0.053125 0.880000 0.143750
0.106250 0.880000 0.143750
0.159375 0.880000 0.143750
0.212500 0.880000 0.143750
0.265625 0.880000 0.143750
0.318750 0.880000 0.143750
0.371875 0.880000 0.143750
0.425000 0.880000 0.143750
0.478125 0.880000 0.143750
0.531250 0.880000 0.143750
0.584375 0.880000 0.143750
0.637500 0.880000 0.143750
0.690625 0.880000 0.143750
0.743750 0.880000 0.143750
0.796875 0.880000 0.143750
0.850000 0.880000 0.143750
0.000000 0.000000 0.215625
0.053125 0.000000 0.215625
0.106250 0.000000 0.215625
0.159375 0.000000 0.215625
0.212500 0.000000 0.215625
0.265625 0.000000 0.215625
0.318750 0.000000 0.215625
0.371875 0.000000 0.215625
0.425000 0.000000 0.215625
0.478125 0.000000 0.215625
0.531250 0.000000 0.215625
0.584375 0.000000 0.215625
0.637500 0.000000 0.215625
0.690625 0.000000 0.215625
0.743750 0.000000 0.215625
0.796875 0.000000 0.215625
0.850000 0.000000 0.215625
0.000000 0.055000 0.215625
