assets/luts/dark_desaturated.cube
TITLE "Dark Desaturated"
LUT_3D_SIZE 9
DOMAIN_MIN 0.0 0.0 0.0
DOMAIN_MAX 1.0 1.0 1.0
0.000000 0.000000 0.000000
0.026162 0.026910 0.028031
0.052325 0.053820 0.056063
0.078488 0.080730 0.084094
0.104650 0.107640 0.112125
0.130812 0.134550 0.140156
0.156975 0.161460 0.168187
0.183137 0.188370 0.196219
0.209300 0.215280 0.224250
0.051362 0.052830 0.055031
0.077525 0.079740 0.083062
0.103688 0.106650 0.111094
0.129850 0.133560 0.139125
0.156012 0.160470 0.167156
0.182175 0.187380 0.195187
0.208338 0.214290 0.223219
0.234500 0.241200 0.251250
0.260663 0.268110 0.279281
0.102725 0.105660 0.110062
0.128887 0.132570 0.138094
0.155050 0.159480 0.166125
0.181212 0.186390 0.194156
0.207375 0.213300 0.222188
0.233537 0.240210 0.250219
0.259700 0.267120 0.278250
0.285862 0.294030 0.306281
0.312025 0.320940 0.334313
0.154087 0.158490 0.165094
0.180250 0.185400 0.193125
0.206412 0.212310 0.221156
0.232575 0.239220 0.249188
0.258737 0.266130 0.277219
0.284900 0.293040 0.305250
0.311062 0.319950 0.333281
0.337225 0.346860 0.361313
0.363387 0.373770 0.389344
0.205450 0.211320 0.220125
0.231612 0.238230 0.248156
0.257775 0.265140 0.276187
0.283938 0.292050 0.304219
0.310100 0.318960 0.332250
0.336262 0.345870 0.360281
0.362425 0.372780 0.388312
0.388587 0.399690 0.416344
0.414750 0.426600 0.444375
0.256812 0.264150 0.275156
0.282975 0.291060 0.303187
0.309137 0.317970 0.331219
0.335300 0.344880 0.359250
0.361462 0.371790 0.387281
0.387625 0.398700 0.415312
0.413787 0.425610 0.443344
0.439950 0.452520 0.471375
0.466112 0.479430 0.499406
0.308175 0.316980 0.330187
0.334337 0.343890 0.358219
0.360500 0.370800 0.386250
0.386662 0.397710 0.414281
0.412825 0.424620 0.442312
0.438987 0.451530 0.470344
0.465150 0.478440 0.498375
0.491312 0.505350 0.526406
0.517475 0.532260 0.554437
0.359537 0.369810 0.385219
0.385700 0.396720 0.413250
0.411862 0.423630 0.441281
0.438025 0.450540 0.469313
0.464187 0.477450 0.497344
0.490350 0.504360 0.525375
0.516513 0.531270 0.553406
0.542675 0.558180 0.581438
0.568837 0.585090 0.609469
0.410900 0.422640 0.440250
0.437062 0.449550 0.468281
0.463225 0.476460 0.496312
0.489387 0.503370 0.524344
0.515550 0.530280 0.552375
0.541712 0.557190 0.580406
0.567875 0.584100 0.608437
0.594037 0.611010 0.636469
0.620200 0.637920 0.664500
0.009975 0.010260 0.010688
0.036137 0.037170 0.038719
0.062300 0.064080 0.066750
0.088462 0.090990 0.094781
0.114625 0.117900 0.122813
0.140787 0.144810 0.150844
0.166950 0.171720 0.178875
0.193112 0.198630 0.206906
0.219275 0.225540 0.234937
0.061337 0.063090 0.065719
0.087500 0.090000 0.093750
0.113662 0.116910 0.121781
0.139825 0.143820 0.149813
0.165987 0.170730 0.177844
0.192150 0.197640 0.205875
0.218312 0.224550 0.233906
0.244475 0.251460 0.261937
0.270637 0.278370 0.289969
0.112700 0.115920 0.120750
0.138862 0.142830 0.148781
0.165025 0.169740 0.176812
0.191187 0.196650 0.204844
0.217350 0.223560 0.232875
0.243512 0.250470 0.260906
0.269675 0.277380 0.288937
0.295837 0.304290 0.316969
0.322000 0.331200 0.345000
0.164062 0.168750 0.175781
0.190225 0.195660 0.203813
0.216387 0.222570 0.231844
0.242550 0.249480 0.259875
0.268712 0.276390 0.287906
0.294875 0.303300 0.315937
0.321037 0.330210 0.343969
0.347200 0.357120 0.372000
0.373362 0.384030 0.400031
0.215425 0.221580 0.230812
0.241587 0.248490 0.258844
0.267750 0.275400 0.286875
0.293912 0.302310 0.314906
0.320075 0.329220 0.342937
0.346237 0.356130 0.370969
0.372400 0.383040 0.399000
0.398562 0.409950 0.427031
0.424725 0.436860 0.455063
0.266787 0.274410 0.285844
0.292950 0.301320 0.313875
0.319112 0.328230 0.341906
0.345275 0.355140 0.369937
0.371437 0.382050 0.397969
0.397600 0.408960 0.426000
0.423762 0.435870 0.454031
0.449925 0.462780 0.482062
0.476087 0.489690 0.510094
0.318150 0.327240 0.340875
0.344312 0.354150 0.368906
0.370475 0.381060 0.396937
0.396637 0.407970 0.424969
0.422800 0.434880 0.453000
0.448962 0.461790 0.481031
0.475125 0.488700 0.509062
0.501287 0.515610 0.537094
0.527450 0.542520 0.565125
0.369512 0.380070 0.395906
0.395675 0.406980 0.423938
0.421837 0.433890 0.451969
0.448000 0.460800 0.480000
0.474162 0.487710 0.508031
0.500325 0.514620 0.536062
0.526487 0.541530 0.564094
0.552650 0.568440 0.592125
0.578812 0.595350 0.620156
0.420875 0.432900 0.450937
0.447037 0.459810 0.478969
0.473200 0.486720 0.507000
0.499362 0.513630 0.535031
0.525525 0.540540 0.563062
0.551687 0.567450 0.591094
0.577850 0.594360 0.619125
0.604012 0.621270 0.647156
0.630175 0.648180 0.675187
0.019950 0.020520 0.021375
0.046113 0.047430 0.049406
0.072275 0.074340 0.077437
0.098437 0.101250 0.105469
0.124600 0.128160 0.133500
0.150762 0.155070 0.161531
0.176925 0.181980 0.189563
0.203088 0.208890 0.217594
0.229250 0.235800 0.245625
0.071312 0.073350 0.076406
0.097475 0.100260 0.104437
0.123637 0.127170 0.132469
0.149800 0.154080 0.160500
0.175962 0.180990 0.188531
0.202125 0.207900 0.216562
0.228288 0.234810 0.244594
0.254450 0.261720 0.272625
0.280612 0.288630 0.300656
0.122675 0.126180 0.131437
0.148837 0.153090 0.159469
0.175000 0.180000 0.187500
0.201162 0.206910 0.215531
0.227325 0.233820 0.243563
0.253487 0.260730 0.271594
0.279650 0.287640 0.299625
0.305812 0.314550 0.327656
0.331975 0.341460 0.355687
0.174037 0.179010 0.186469
0.200200 0.205920 0.214500
0.226362 0.232830 0.242531
0.252525 0.259740 0.270563
0.278687 0.286650 0.298594
0.304850 0.313560 0.326625
0.331012 0.340470 0.354656
0.357175 0.367380 0.382687
0.383337 0.394290 0.410719
0.225400 0.231840 0.241500
0.251562 0.258750 0.269531
0.277725 0.285660 0.297563
0.303888 0.312570 0.325594
0.330050 0.339480 0.353625
0.356212 0.366390 0.381656
0.382375 0.393300 0.409687
0.408537 0.420210 0.437719
0.434700 0.447120 0.465750
0.276762 0.284670 0.296531
0.302925 0.311580 0.324562
0.329087 0.338490 0.352594
0.355250 0.365400 0.380625
0.381412 0.392310 0.408656
0.407575 0.419220 0.436687
0.433737 0.446130 0.464719
0.459900 0.473040 0.492750
0.486062 0.499950 0.520781
0.328125 0.337500 0.351562
0.354287 0.364410 0.379594
0.380450 0.391320 0.407625
0.406612 0.418230 0.435656
0.432775 0.445140 0.463687
0.458937 0.472050 0.491719
0.485100 0.498960 0.519750
0.511262 0.525870 0.547781
0.537425 0.552780 0.575812
0.379487 0.390330 0.406594
0.405650 0.417240 0.434625
0.431812 0.444150 0.462656
0.457975 0.471060 0.490687
0.484137 0.497970 0.518719
0.510300 0.524880 0.546750
0.536462 0.551790 0.574781
0.562625 0.578700 0.602812
0.588787 0.605610 0.630844
0.430850 0.443160 0.461625
0.457012 0.470070 0.489656
0.483175 0.496980 0.517687
0.509337 0.523890 0.545719
0.535500 0.550800 0.573750
0.561662 0.577710 0.601781
0.587825 0.604620 0.629812
0.613987 0.631530 0.657844
0.640150 0.658440 0.685875
0.029925 0.030780 0.032063
0.056087 0.057690 0.060094
0.082250 0.084600 0.088125
0.108413 0.111510 0.116156
0.134575 0.138420 0.144187
0.160737 0.165330 0.172219
0.186900 0.192240 0.200250
0.213062 0.219150 0.228281
0.239225 0.246060 0.256312
0.081287 0.083610 0.087094
0.107450 0.110520 0.115125
0.133612 0.137430 0.143156
0.159775 0.164340 0.171187
0.185937 0.191250 0.199219
0.212100 0.218160 0.227250
0.238263 0.245070 0.255281
0.264425 0.271980 0.283312
0.290587 0.298890 0.311344
0.132650 0.136440 0.142125
0.158812 0.163350 0.170156
0.184975 0.190260 0.198187
0.211137 0.217170 0.226219
0.237300 0.244080 0.254250
0.263462 0.270990 0.282281
0.289625 0.297900 0.310312
0.315787 0.324810 0.338344
0.341950 0.351720 0.366375
0.184012 0.189270 0.197156
0.210175 0.216180 0.225188
0.236337 0.243090 0.253219
0.262500 0.270000 0.281250
0.288662 0.296910 0.309281
0.314825 0.323820 0.337313
0.340987 0.350730 0.365344
0.367150 0.377640 0.393375
0.393312 0.404550 0.421406
0.235375 0.242100 0.252188
0.261537 0.269010 0.280219
0.287700 0.295920 0.308250
0.313862 0.322830 0.336281
0.340025 0.349740 0.364312
0.366187 0.376650 0.392344
0.392350 0.403560 0.420375
0.418512 0.430470 0.448406
0.444675 0.457380 0.476437
0.286737 0.294930 0.307219
0.312900 0.321840 0.335250
0.339062 0.348750 0.363281
0.365225 0.375660 0.391312
0.391387 0.402570 0.419344
0.417550 0.429480 0.447375
0.443712 0.456390 0.475406
0.469875 0.483300 0.503437
0.496037 0.510210 0.531469
0.338100 0.347760 0.362250
0.364262 0.374670 0.390281
0.390425 0.401580 0.418312
0.416587 0.428490 0.446344
0.442750 0.455400 0.474375
0.468912 0.482310 0.502406
0.495075 0.509220 0.530437
0.521237 0.536130 0.558469
0.547400 0.563040 0.586500
0.389462 0.400590 0.417281
0.415625 0.427500 0.445312
0.441787 0.454410 0.473344
0.467950 0.481320 0.501375
0.494112 0.508230 0.529406
0.520275 0.535140 0.557438
0.546438 0.562050 0.585469
0.572600 0.588960 0.613500
0.598762 0.615870 0.641531
0.440825 0.453420 0.472312
0.466987 0.480330 0.500344
0.493150 0.507240 0.528375
0.519312 0.534150 0.556406
0.545475 0.561060 0.584437
0.571637 0.587970 0.612469
0.597800 0.614880 0.640500
0.623962 0.641790 0.668531
0.650125 0.668700 0.696562
0.039900 0.041040 0.042750
0.066062 0.067950 0.070781
0.092225 0.094860 0.098812
0.118387 0.121770 0.126844
0.144550 0.148680 0.154875
0.170712 0.175590 0.182906
0.196875 0.202500 0.210938
0.223037 0.229410 0.238969
0.249200 0.256320 0.267000
0.091262 0.093870 0.097781
0.117425 0.120780 0.125812
0.143587 0.147690 0.153844
0.169750 0.174600 0.181875
0.195912 0.201510 0.209906
0.222075 0.228420 0.237937
0.248237 0.255330 0.265969
0.274400 0.282240 0.294000
0.300563 0.309150 0.322031
0.142625 0.146700 0.152812
0.168787 0.173610 0.180844
0.194950 0.200520 0.208875
0.221112 0.227430 0.236906
0.247275 0.254340 0.264937
0.273437 0.281250 0.292969
0.299600 0.308160 0.321000
0.325762 0.335070 0.349031
0.351925 0.361980 0.377063
0.193988 0.199530 0.207844
0.220150 0.226440 0.235875
0.246312 0.253350 0.263906
0.272475 0.280260 0.291937
0.298637 0.307170 0.319969
0.324800 0.334080 0.348000
0.350963 0.360990 0.376031
0.377125 0.387900 0.404063
0.403287 0.414810 0.432094
0.245350 0.252360 0.262875
0.271512 0.279270 0.290906
0.297675 0.306180 0.318937
0.323838 0.333090 0.346969
0.350000 0.360000 0.375000
0.376163 0.386910 0.403031
0.402325 0.413820 0.431063
0.428488 0.440730 0.459094
0.454650 0.467640 0.487125
0.296712 0.305190 0.317906
0.322875 0.332100 0.345937
0.349037 0.359010 0.373969
0.375200 0.385920 0.402000
0.401362 0.412830 0.430031
0.427525 0.439740 0.458063
0.453687 0.466650 0.486094
0.479850 0.493560 0.514125
0.506012 0.520470 0.542156
0.348075 0.358020 0.372937
0.374238 0.384930 0.400969
0.400400 0.411840 0.429000
0.426562 0.438750 0.457031
0.452725 0.465660 0.485063
0.478887 0.492570 0.513094
0.505050 0.519480 0.541125
0.531212 0.546390 0.569156
0.557375 0.573300 0.597187
0.399438 0.410850 0.427969
0.425600 0.437760 0.456000
0.451763 0.464670 0.484031
0.477925 0.491580 0.512063
0.504088 0.518490 0.540094
0.530250 0.545400 0.568125
0.556413 0.572310 0.596156
0.582575 0.599220 0.624188
0.608737 0.626130 0.652219
0.450800 0.463680 0.483000
0.476963 0.490590 0.511031
0.503125 0.517500 0.539062
0.529288 0.544410 0.567094
0.555450 0.571320 0.595125
0.581612 0.598230 0.623156
0.607775 0.625140 0.651188
0.633937 0.652050 0.679219
0.660100 0.678960 0.707250
0.049875 0.051300 0.053438
0.076037 0.078210 0.081469
0.102200 0.105120 0.109500
0.128362 0.132030 0.137531
0.154525 0.158940 0.165563
0.180687 0.185850 0.193594
0.206850 0.212760 0.221625
0.233013 0.239670 0.249656
0.259175 0.266580 0.277687
0.101237 0.104130 0.108469
0.127400 0.131040 0.136500
0.153562 0.157950 0.164531
0.179725 0.184860 0.192563
0.205887 0.211770 0.220594
0.232050 0.238680 0.248625
0.258213 0.265590 0.276656
0.284375 0.292500 0.304688
0.310538 0.319410 0.332719
0.152600 0.156960 0.163500
0.178762 0.183870 0.191531
0.204925 0.210780 0.219562
0.231087 0.237690 0.247594
0.257250 0.264600 0.275625
0.283412 0.291510 0.303656
0.309575 0.318420 0.331688
0.335737 0.345330 0.359719
0.361900 0.372240 0.387750
0.203962 0.209790 0.218531
0.230125 0.236700 0.246562
0.256288 0.263610 0.274594
0.282450 0.290520 0.302625
0.308613 0.317430 0.330656
0.334775 0.344340 0.358687
0.360937 0.371250 0.386719
0.387100 0.398160 0.414750
0.413262 0.425070 0.442781
0.255325 0.262620 0.273563
0.281487 0.289530 0.301594
0.307650 0.316440 0.329625
0.333813 0.343350 0.357656
0.359975 0.370260 0.385687
0.386138 0.397170 0.413719
0.412300 0.424080 0.441750
0.438462 0.450990 0.469781
0.464625 0.477900 0.497813
0.306687 0.315450 0.328594
0.332850 0.342360 0.356625
0.359012 0.369270 0.384656
0.385175 0.396180 0.412687
0.411337 0.423090 0.440719
0.437500 0.450000 0.468750
0.463662 0.476910 0.496781
0.489825 0.503820 0.524813
0.515988 0.530730 0.552844
0.358050 0.368280 0.383625
0.384212 0.395190 0.411656
0.410375 0.422100 0.439688
0.436537 0.449010 0.467719
0.462700 0.475920 0.495750
0.488862 0.502830 0.523781
0.515025 0.529740 0.551813
0.541188 0.556650 0.579844
0.567350 0.583560 0.607875
0.409413 0.421110 0.438656
0.435575 0.448020 0.466688
0.461737 0.474930 0.494719
0.487900 0.501840 0.522750
0.514062 0.528750 0.550781
0.540225 0.555660 0.578813
0.566388 0.582570 0.606844
0.592550 0.609480 0.634875
0.618712 0.636390 0.662906
0.460775 0.473940 0.493688
0.486938 0.500850 0.521719
0.513100 0.527760 0.549750
0.539262 0.554670 0.577781
0.565425 0.581580 0.605812
0.591587 0.608490 0.633844
0.617750 0.635400 0.661875
0.643912 0.662310 0.689906
0.670075 0.689220 0.717937
0.059850 0.061560 0.064125
0.086013 0.088470 0.092156
0.112175 0.115380 0.120188
0.138337 0.142290 0.148219
0.164500 0.169200 0.176250
0.190662 0.196110 0.204281
0.216825 0.223020 0.232313
0.242987 0.249930 0.260344
0.269150 0.276840 0.288375
0.111212 0.114390 0.119156
0.137375 0.141300 0.147187
0.163538 0.168210 0.175219
0.189700 0.195120 0.203250
0.215862 0.222030 0.231281
0.242025 0.248940 0.259313
0.268188 0.275850 0.287344
0.294350 0.302760 0.315375
0.320512 0.329670 0.343406
0.162575 0.167220 0.174187
0.188738 0.194130 0.202219
0.214900 0.221040 0.230250
0.241062 0.247950 0.258281
0.267225 0.274860 0.286313
0.293387 0.301770 0.314344
0.319550 0.328680 0.342375
0.345712 0.355590 0.370406
0.371875 0.382500 0.398438
0.213937 0.220050 0.229219
0.240100 0.246960 0.257250
0.266263 0.273870 0.285281
0.292425 0.300780 0.313312
0.318587 0.327690 0.341344
0.344750 0.354600 0.369375
0.370912 0.381510 0.397406
0.397075 0.408420 0.425438
0.423237 0.435330 0.453469
0.265300 0.272880 0.284250
0.291462 0.299790 0.312281
0.317625 0.326700 0.340313
0.343788 0.353610 0.368344
0.369950 0.380520 0.396375
0.396112 0.407430 0.424406
0.422275 0.434340 0.452437
0.448437 0.461250 0.480469
0.474600 0.488160 0.508500
0.316662 0.325710 0.339281
0.342825 0.352620 0.367312
0.368987 0.379530 0.395344
0.395150 0.406440 0.423375
0.421312 0.433350 0.451406
0.447475 0.460260 0.479437
0.473637 0.487170 0.507469
0.499800 0.514080 0.535500
0.525962 0.540990 0.563531
0.368025 0.378540 0.394312
0.394187 0.405450 0.422344
0.420350 0.432360 0.450375
0.446512 0.459270 0.478406
0.472675 0.486180 0.506437
0.498837 0.513090 0.534469
0.525000 0.540000 0.562500
0.551162 0.566910 0.590531
0.577325 0.593820 0.618563
0.419387 0.431370 0.449344
0.445550 0.458280 0.477375
0.471712 0.485190 0.505406
0.497875 0.512100 0.533438
0.524037 0.539010 0.561469
0.550200 0.565920 0.589500
0.576362 0.592830 0.617531
0.602525 0.619740 0.645563
0.628687 0.646650 0.673594
0.470750 0.484200 0.504375
0.496912 0.511110 0.532406
0.523075 0.538020 0.560437
0.549237 0.564930 0.588469
0.575400 0.591840 0.616500
0.601562 0.618750 0.644531
0.627725 0.645660 0.672563
0.653887 0.672570 0.700594
0.680050 0.699480 0.728625
0.069825 0.071820 0.074813
0.095987 0.098730 0.102844
0.122150 0.125640 0.130875
0.148312 0.152550 0.158906
0.174475 0.179460 0.186938
0.200637 0.206370 0.214969
0.226800 0.233280 0.243000
0.252962 0.260190 0.271031
0.279125 0.287100 0.299063
0.121187 0.124650 0.129844
0.147350 0.151560 0.157875
0.173512 0.178470 0.185906
0.199675 0.205380 0.213938
0.225837 0.232290 0.241969
0.252000 0.259200 0.270000
0.278162 0.286110 0.298031
0.304325 0.313020 0.326062
0.330487 0.339930 0.354094
0.172550 0.177480 0.184875
0.198712 0.204390 0.212906
0.224875 0.231300 0.240937
0.251037 0.258210 0.268969
0.277200 0.285120 0.297000
0.303362 0.312030 0.325031
0.329525 0.338940 0.353063
0.355687 0.365850 0.381094
0.381850 0.392760 0.409125
0.223912 0.230310 0.239906
0.250075 0.257220 0.267937
0.276237 0.284130 0.295969
0.302400 0.311040 0.324000
0.328562 0.337950 0.352031
0.354725 0.364860 0.380063
0.380887 0.391770 0.408094
0.407050 0.418680 0.436125
0.433212 0.445590 0.464156
0.275275 0.283140 0.294937
0.301437 0.310050 0.322969
0.327600 0.336960 0.351000
0.353762 0.363870 0.379031
0.379925 0.390780 0.407062
0.406087 0.417690 0.435094
0.432250 0.444600 0.463125
0.458412 0.471510 0.491156
0.484575 0.498420 0.519188
0.326637 0.335970 0.349969
0.352800 0.362880 0.378000
0.378962 0.389790 0.406031
0.405125 0.416700 0.434063
0.431287 0.443610 0.462094
0.457450 0.470520 0.490125
0.483612 0.497430 0.518156
0.509775 0.524340 0.546187
0.535937 0.551250 0.574219
0.378000 0.388800 0.405000
0.404162 0.415710 0.433031
0.430325 0.442620 0.461063
0.456487 0.469530 0.489094
0.482650 0.496440 0.517125
0.508812 0.523350 0.545156
0.534975 0.550260 0.573187
0.561137 0.577170 0.601219
0.587300 0.604080 0.629250
0.429362 0.441630 0.460031
0.455525 0.468540 0.488063
0.481687 0.495450 0.516094
0.507850 0.522360 0.544125
0.534012 0.549270 0.572156
0.560175 0.576180 0.600187
0.586337 0.603090 0.628219
0.612500 0.630000 0.656250
0.638662 0.656910 0.684281
0.480725 0.494460 0.515062
0.506887 0.521370 0.543094
0.533050 0.548280 0.571125
0.559213 0.575190 0.599156
0.585375 0.602100 0.627188
0.611537 0.629010 0.655219
0.637700 0.655920 0.683250
0.663862 0.682830 0.711281
0.690025 0.709740 0.739312
0.079800 0.082080 0.085500
0.105963 0.108990 0.113531
0.132125 0.135900 0.141563
0.158287 0.162810 0.169594
0.184450 0.189720 0.197625
0.210612 0.216630 0.225656
0.236775 0.243540 0.253688
0.262937 0.270450 0.281719
0.289100 0.297360 0.309750
0.131163 0.134910 0.140531
0.157325 0.161820 0.168563
0.183487 0.188730 0.196594
0.209650 0.215640 0.224625
0.235812 0.242550 0.252656
0.261975 0.269460 0.280687
0.288137 0.296370 0.308719
0.314300 0.323280 0.336750
0.340463 0.350190 0.364781
0.182525 0.187740 0.195562
0.208687 0.214650 0.223594
0.234850 0.241560 0.251625
0.261012 0.268470 0.279656
0.287175 0.295380 0.307688
0.313337 0.322290 0.335719
0.339500 0.349200 0.363750
0.365663 0.376110 0.391781
0.391825 0.403020 0.419812
0.233887 0.240570 0.250594
0.260050 0.267480 0.278625
0.286212 0.294390 0.306656
0.312375 0.321300 0.334687
0.338537 0.348210 0.362719
0.364700 0.375120 0.390750
0.390862 0.402030 0.418781
0.417025 0.428940 0.446813
0.443187 0.455850 0.474844
0.285250 0.293400 0.305625
0.311412 0.320310 0.333656
0.337575 0.347220 0.361687
0.363737 0.374130 0.389719
0.389900 0.401040 0.417750
0.416062 0.427950 0.445781
0.442225 0.454860 0.473812
0.468387 0.481770 0.501844
0.494550 0.508680 0.529875
0.336612 0.346230 0.360656
0.362775 0.373140 0.388687
0.388937 0.400050 0.416719
0.415100 0.426960 0.444750
0.441262 0.453870 0.472781
0.467425 0.480780 0.500812
0.493587 0.507690 0.528844
0.519750 0.534600 0.556875
0.545912 0.561510 0.584906
0.387975 0.399060 0.415687
0.414137 0.425970 0.443719
0.440300 0.452880 0.471750
0.466462 0.479790 0.499781
0.492625 0.506700 0.527813
0.518787 0.533610 0.555844
0.544950 0.560520 0.583875
0.571113 0.587430 0.611906
0.597275 0.614340 0.639937
0.439337 0.451890 0.470719
0.465500 0.478800 0.498750
0.491662 0.505710 0.526781
0.517825 0.532620 0.554813
0.543987 0.559530 0.582844
0.570150 0.586440 0.610875
0.596313 0.613350 0.638906
0.622475 0.640260 0.666937
0.648637 0.667170 0.694969
0.490700 0.504720 0.525750
0.516863 0.531630 0.553781
0.543025 0.558540 0.581812
0.569187 0.585450 0.609844
0.595350 0.612360 0.637875
0.621512 0.639270 0.665906
0.647675 0.666180 0.693937
0.673837 0.693090 0.721969
0.700000 0.720000 0.750000
