assets/luts/dark_desaturated.cube
TITLE "Dark Desaturated"
LUT_3D_SIZE 17
DOMAIN_MIN 0.0 0.0 0.0
DOMAIN_MAX 1.0 1.0 1.0
0.000000 0.000000 0.000000
0.013081 0.013455 0.014016
0.026162 0.026910 0.028031
0.039244 0.040365 0.042047
0.052325 0.053820 0.056063
0.065406 0.067275 0.070078
0.078488 0.080730 0.084094
0.091569 0.094185 0.098109
0.104650 0.107640 0.112125
0.117731 0.121095 0.126141
0.130812 0.134550 0.140156
0.143894 0.148005 0.154172
0.156975 0.161460 0.168187
0.170056 0.174915 0.182203
0.183137 0.188370 0.196219
0.196219 0.201825 0.210234
0.209300 0.215280 0.224250
0.025681 0.026415 0.027516
0.038762 0.039870 0.041531
0.051844 0.053325 0.055547
0.064925 0.066780 0.069562
0.078006 0.080235 0.083578
0.091087 0.093690 0.097594
0.104169 0.107145 0.111609
0.117250 0.120600 0.125625
0.130331 0.134055 0.139641
0.143412 0.147510 0.153656
0.156494 0.160965 0.167672
0.169575 0.174420 0.181687
0.182656 0.187875 0.195703
0.195738 0.201330 0.209719
0.208819 0.214785 0.223734
0.221900 0.228240 0.237750
0.234981 0.241695 0.251766
0.051362 0.052830 0.055031
0.064444 0.066285 0.069047
0.077525 0.079740 0.083062
0.090606 0.093195 0.097078
0.103688 0.106650 0.111094
0.116769 0.120105 0.125109
0.129850 0.133560 0.139125
0.142931 0.147015 0.153141
0.156012 0.160470 0.167156
0.169094 0.173925 0.181172
0.182175 0.187380 0.195187
0.195256 0.200835 0.209203
0.208338 0.214290 0.223219
0.221419 0.227745 0.237234
0.234500 0.241200 0.251250
0.247581 0.254655 0.265266
0.260663 0.268110 0.279281
0.077044 0.079245 0.082547
0.090125 0.092700 0.096562
0.103206 0.106155 0.110578
0.116287 0.119610 0.124594
0.129369 0.133065 0.138609
0.142450 0.146520 0.152625
0.155531 0.159975 0.166641
0.168612 0.173430 0.180656
0.181694 0.186885 0.194672
0.194775 0.200340 0.208687
0.207856 0.213795 0.222703
0.220937 0.227250 0.236719
0.234019 0.240705 0.250734
0.247100 0.254160 0.264750
0.260181 0.267615 0.278766
0.273262 0.281070 0.292781
0.286344 0.294525 0.306797
0.102725 0.105660 0.110062
0.115806 0.119115 0.124078
0.128887 0.132570 0.138094
0.141969 0.146025 0.152109
0.155050 0.159480 0.166125
0.168131 0.172935 0.180141
0.181212 0.186390 0.194156
0.194294 0.199845 0.208172
0.207375 0.213300 0.222188
0.220456 0.226755 0.236203
0.233537 0.240210 0.250219
0.246619 0.253665 0.264234
0.259700 0.267120 0.278250
0.272781 0.280575 0.292266
0.285862 0.294030 0.306281
0.298944 0.307485 0.320297
0.312025 0.320940 0.334313
0.128406 0.132075 0.137578
0.141487 0.145530 0.151594
0.154569 0.158985 0.165609
0.167650 0.172440 0.179625
0.180731 0.185895 0.193641
0.193812 0.199350 0.207656
0.206894 0.212805 0.221672
0.219975 0.226260 0.235687
0.233056 0.239715 0.249703
0.246137 0.253170 0.263719
0.259219 0.266625 0.277734
0.272300 0.280080 0.291750
0.285381 0.293535 0.305766
0.298462 0.306990 0.319781
0.311544 0.320445 0.333797
0.324625 0.333900 0.347812
0.337706 0.347355 0.361828
0.154087 0.158490 0.165094
0.167169 0.171945 0.179109
0.180250 0.185400 0.193125
0.193331 0.198855 0.207141
0.206412 0.212310 0.221156
0.219494 0.225765 0.235172
0.232575 0.239220 0.249188
0.245656 0.252675 0.263203
0.258737 0.266130 0.277219
0.271819 0.279585 0.291234
0.284900 0.293040 0.305250
0.297981 0.306495 0.319266
0.311062 0.319950 0.333281
0.324144 0.333405 0.347297
0.337225 0.346860 0.361313
0.350306 0.360315 0.375328
0.363387 0.373770 0.389344
0.179769 0.184905 0.192609
0.192850 0.198360 0.206625
0.205931 0.211815 0.220641
0.219012 0.225270 0.234656
0.232094 0.238725 0.248672
0.245175 0.252180 0.262688
0.258256 0.265635 0.276703
0.271337 0.279090 0.290719
0.284419 0.292545 0.304734
0.297500 0.306000 0.318750
0.310581 0.319455 0.332766
0.323662 0.332910 0.346781
0.336744 0.346365 0.360797
0.349825 0.359820 0.374812
0.362906 0.373275 0.388828
0.375987 0.386730 0.402844
0.389069 0.400185 0.416859
0.205450 0.211320 0.220125
0.218531 0.224775 0.234141
0.231612 0.238230 0.248156
0.244694 0.251685 0.262172
0.257775 0.265140 0.276187
0.270856 0.278595 0.290203
0.283938 0.292050 0.304219
0.297019 0.305505 0.318234
0.310100 0.318960 0.332250
0.323181 0.332415 0.346266
0.336262 0.345870 0.360281
0.349344 0.359325 0.374297
0.362425 0.372780 0.388312
0.375506 0.386235 0.402328
0.388587 0.399690 0.416344
0.401669 0.413145 0.430359
0.414750 0.426600 0.444375
0.231131 0.237735 0.247641
0.244212 0.251190 0.261656
0.257294 0.264645 0.275672
0.270375 0.278100 0.289687
0.283456 0.291555 0.303703
0.296537 0.305010 0.317719
0.309619 0.318465 0.331734
0.322700 0.331920 0.345750
0.335781 0.345375 0.359766
0.348862 0.358830 0.373781
0.361944 0.372285 0.387797
0.375025 0.385740 0.401812
0.388106 0.399195 0.415828
0.401187 0.412650 0.429844
0.414269 0.426105 0.443859
0.427350 0.439560 0.457875
0.440431 0.453015 0.471891
0.256812 0.264150 0.275156
0.269894 0.277605 0.289172
0.282975 0.291060 0.303187
0.296056 0.304515 0.317203
0.309137 0.317970 0.331219
0.322219 0.331425 0.345234
0.335300 0.344880 0.359250
0.348381 0.358335 0.373266
0.361462 0.371790 0.387281
0.374544 0.385245 0.401297
0.387625 0.398700 0.415312
0.400706 0.412155 0.429328
0.413787 0.425610 0.443344
0.426869 0.439065 0.457359
0.439950 0.452520 0.471375
0.453031 0.465975 0.485391
0.466112 0.479430 0.499406
0.282494 0.290565 0.302672
0.295575 0.304020 0.316688
0.308656 0.317475 0.330703
0.321738 0.330930 0.344719
0.334819 0.344385 0.358734
0.347900 0.357840 0.372750
0.360981 0.371295 0.386766
0.374063 0.384750 0.400781
0.387144 0.398205 0.414797
0.400225 0.411660 0.428812
0.413306 0.425115 0.442828
0.426387 0.438570 0.456844
0.439469 0.452025 0.470859
0.452550 0.465480 0.484875
0.465631 0.478935 0.498891
0.478712 0.492390 0.512906
0.491794 0.505845 0.526922
0.308175 0.316980 0.330187
0.321256 0.330435 0.344203
0.334337 0.343890 0.358219
0.347419 0.357345 0.372234
0.360500 0.370800 0.386250
0.373581 0.384255 0.400266
0.386662 0.397710 0.414281
0.399744 0.411165 0.428297
0.412825 0.424620 0.442312
0.425906 0.438075 0.456328
0.438987 0.451530 0.470344
0.452069 0.464985 0.484359
0.465150 0.478440 0.498375
0.478231 0.491895 0.512391
0.491312 0.505350 0.526406
0.504394 0.518805 0.540422
0.517475 0.532260 0.554437
0.333856 0.343395 0.357703
0.346937 0.356850 0.371719
0.360019 0.370305 0.385734
0.373100 0.383760 0.399750
0.386181 0.397215 0.413766
0.399262 0.410670 0.427781
0.412344 0.424125 0.441797
0.425425 0.437580 0.455813
0.438506 0.451035 0.469828
0.451587 0.464490 0.483844
0.464669 0.477945 0.497859
0.477750 0.491400 0.511875
0.490831 0.504855 0.525891
0.503912 0.518310 0.539906
0.516994 0.531765 0.553922
0.530075 0.545220 0.567937
0.543156 0.558675 0.581953
0.359537 0.369810 0.385219
0.372619 0.383265 0.399234
0.385700 0.396720 0.413250
0.398781 0.410175 0.427266
0.411862 0.423630 0.441281
0.424944 0.437085 0.455297
0.438025 0.450540 0.469313
0.451106 0.463995 0.483328
0.464187 0.477450 0.497344
0.477269 0.490905 0.511359
0.490350 0.504360 0.525375
0.503431 0.517815 0.539391
0.516513 0.531270 0.553406
0.529594 0.544725 0.567422
0.542675 0.558180 0.581438
0.555756 0.571635 0.595453
0.568837 0.585090 0.609469
0.385219 0.396225 0.412734
0.398300 0.409680 0.426750
0.411381 0.423135 0.440766
0.424462 0.436590 0.454781
0.437544 0.450045 0.468797
0.450625 0.463500 0.482812
0.463706 0.476955 0.496828
0.476787 0.490410 0.510844
0.489869 0.503865 0.524859
0.502950 0.517320 0.538875
0.516031 0.530775 0.552891
0.529112 0.544230 0.566906
0.542194 0.557685 0.580922
0.555275 0.571140 0.594938
0.568356 0.584595 0.608953
0.581437 0.598050 0.622969
0.594519 0.611505 0.636984
0.410900 0.422640 0.440250
0.423981 0.436095 0.454266
0.437062 0.449550 0.468281
0.450144 0.463005 0.482297
0.463225 0.476460 0.496312
0.476306 0.489915 0.510328
0.489387 0.503370 0.524344
0.502469 0.516825 0.538359
0.515550 0.530280 0.552375
0.528631 0.543735 0.566391
0.541712 0.557190 0.580406
0.554794 0.570645 0.594422
0.567875 0.584100 0.608437
0.580956 0.597555 0.622453
0.594037 0.611010 0.636469
0.607119 0.624465 0.650484
0.620200 0.637920 0.664500
0.004987 0.005130 0.005344
0.018069 0.018585 0.019359
0.031150 0.032040 0.033375
0.044231 0.045495 0.047391
0.057312 0.058950 0.061406
0.070394 0.072405 0.075422
0.083475 0.085860 0.089438
0.096556 0.099315 0.103453
0.109637 0.112770 0.117469
0.122719 0.126225 0.131484
0.135800 0.139680 0.145500
0.148881 0.153135 0.159516
0.161962 0.166590 0.173531
0.175044 0.180045 0.187547
0.188125 0.193500 0.201562
0.201206 0.206955 0.215578
0.214287 0.220410 0.229594
0.030669 0.031545 0.032859
0.043750 0.045000 0.046875
0.056831 0.058455 0.060891
0.069913 0.071910 0.074906
0.082994 0.085365 0.088922
0.096075 0.098820 0.102937
0.109156 0.112275 0.116953
0.122237 0.125730 0.130969
0.135319 0.139185 0.144984
0.148400 0.152640 0.159000
0.161481 0.166095 0.173016
0.174562 0.179550 0.187031
0.187644 0.193005 0.201047
0.200725 0.206460 0.215062
0.213806 0.219915 0.229078
0.226887 0.233370 0.243094
0.239969 0.246825 0.257109
0.056350 0.057960 0.060375
0.069431 0.071415 0.074391
0.082512 0.084870 0.088406
0.095594 0.098325 0.102422
0.108675 0.111780 0.116437
0.121756 0.125235 0.130453
0.134837 0.138690 0.144469
0.147919 0.152145 0.158484
0.161000 0.165600 0.172500
0.174081 0.179055 0.186516
0.187162 0.192510 0.200531
0.200244 0.205965 0.214547
0.213325 0.219420 0.228563
0.226406 0.232875 0.242578
0.239487 0.246330 0.256594
0.252569 0.259785 0.270609
0.265650 0.273240 0.284625
0.082031 0.084375 0.087891
0.095112 0.097830 0.101906
0.108194 0.111285 0.115922
0.121275 0.124740 0.129937
0.134356 0.138195 0.143953
0.147437 0.151650 0.157969
0.160519 0.165105 0.171984
0.173600 0.178560 0.186000
0.186681 0.192015 0.200016
0.199762 0.205470 0.214031
0.212844 0.218925 0.228047
0.225925 0.232380 0.242062
0.239006 0.245835 0.256078
0.252087 0.259290 0.270094
0.265169 0.272745 0.284109
0.278250 0.286200 0.298125
0.291331 0.299655 0.312141
0.107712 0.110790 0.115406
0.120794 0.124245 0.129422
0.133875 0.137700 0.143437
0.146956 0.151155 0.157453
0.160037 0.164610 0.171469
0.173119 0.178065 0.185484
0.186200 0.191520 0.199500
0.199281 0.204975 0.213516
0.212362 0.218430 0.227531
0.225444 0.231885 0.241547
0.238525 0.245340 0.255562
0.251606 0.258795 0.269578
0.264687 0.272250 0.283594
0.277769 0.285705 0.297609
0.290850 0.299160 0.311625
0.303931 0.312615 0.325641
0.317012 0.326070 0.339656
0.133394 0.137205 0.142922
0.146475 0.150660 0.156937
0.159556 0.164115 0.170953
0.172637 0.177570 0.184969
0.185719 0.191025 0.198984
0.198800 0.204480 0.213000
0.211881 0.217935 0.227016
0.224962 0.231390 0.241031
0.238044 0.244845 0.255047
0.251125 0.258300 0.269062
0.264206 0.271755 0.283078
0.277287 0.285210 0.297094
0.290369 0.298665 0.311109
0.303450 0.312120 0.325125
0.316531 0.325575 0.339141
0.329612 0.339030 0.353156
0.342694 0.352485 0.367172
0.159075 0.163620 0.170437
0.172156 0.177075 0.184453
0.185237 0.190530 0.198469
0.198319 0.203985 0.212484
0.211400 0.217440 0.226500
0.224481 0.230895 0.240516
0.237562 0.244350 0.254531
0.250644 0.257805 0.268547
0.263725 0.271260 0.282562
0.276806 0.284715 0.296578
0.289887 0.298170 0.310594
0.302969 0.311625 0.324609
0.316050 0.325080 0.338625
0.329131 0.338535 0.352641
0.342212 0.351990 0.366656
0.355294 0.365445 0.380672
0.368375 0.378900 0.394687
0.184756 0.190035 0.197953
0.197837 0.203490 0.211969
0.210919 0.216945 0.225984
0.224000 0.230400 0.240000
0.237081 0.243855 0.254016
0.250163 0.257310 0.268031
0.263244 0.270765 0.282047
0.276325 0.284220 0.296063
0.289406 0.297675 0.310078
0.302487 0.311130 0.324094
0.315569 0.324585 0.338109
0.328650 0.338040 0.352125
0.341731 0.351495 0.366141
0.354813 0.364950 0.380156
0.367894 0.378405 0.394172
0.380975 0.391860 0.408188
0.394056 0.405315 0.422203
0.210437 0.216450 0.225469
0.223519 0.229905 0.239484
0.236600 0.243360 0.253500
0.249681 0.256815 0.267516
0.262762 0.270270 0.281531
0.275844 0.283725 0.295547
0.288925 0.297180 0.309563
0.302006 0.310635 0.323578
0.315087 0.324090 0.337594
0.328169 0.337545 0.351609
0.341250 0.351000 0.365625
0.354331 0.364455 0.379641
0.367412 0.377910 0.393656
0.380494 0.391365 0.407672
0.393575 0.404820 0.421687
0.406656 0.418275 0.435703
0.419738 0.431730 0.449719
0.236119 0.242865 0.252984
0.249200 0.256320 0.267000
0.262281 0.269775 0.281016
0.275362 0.283230 0.295031
0.288444 0.296685 0.309047
0.301525 0.310140 0.323062
0.314606 0.323595 0.337078
0.327687 0.337050 0.351094
0.340769 0.350505 0.365109
0.353850 0.363960 0.379125
0.366931 0.377415 0.393141
0.380012 0.390870 0.407156
0.393094 0.404325 0.421172
0.406175 0.417780 0.435188
0.419256 0.431235 0.449203
0.432337 0.444690 0.463219
0.445419 0.458145 0.477234
0.261800 0.269280 0.280500
0.274881 0.282735 0.294516
0.287962 0.296190 0.308531
0.301044 0.309645 0.322547
0.314125 0.323100 0.336562
0.327206 0.336555 0.350578
0.340287 0.350010 0.364594
0.353369 0.363465 0.378609
0.366450 0.376920 0.392625
0.379531 0.390375 0.406641
0.392612 0.403830 0.420656
0.405694 0.417285 0.434672
0.418775 0.430740 0.448687
0.431856 0.444195 0.462703
0.444937 0.457650 0.476719
0.458019 0.471105 0.490734
0.471100 0.484560 0.504750
0.287481 0.295695 0.308016
0.300563 0.309150 0.322031
0.313644 0.322605 0.336047
0.326725 0.336060 0.350062
0.339806 0.349515 0.364078
0.352888 0.362970 0.378094
0.365969 0.376425 0.392109
0.379050 0.389880 0.406125
0.392131 0.403335 0.420141
0.405212 0.416790 0.434156
0.418294 0.430245 0.448172
0.431375 0.443700 0.462187
0.444456 0.457155 0.476203
0.457537 0.470610 0.490219
0.470619 0.484065 0.504234
0.483700 0.497520 0.518250
0.496781 0.510975 0.532266
0.313162 0.322110 0.335531
0.326244 0.335565 0.349547
0.339325 0.349020 0.363562
0.352406 0.362475 0.377578
0.365488 0.375930 0.391594
0.378569 0.389385 0.405609
0.391650 0.402840 0.419625
0.404731 0.416295 0.433641
0.417813 0.429750 0.447656
0.430894 0.443205 0.461672
0.443975 0.456660 0.475687
0.457056 0.470115 0.489703
0.470137 0.483570 0.503719
0.483219 0.497025 0.517734
0.496300 0.510480 0.531750
0.509381 0.523935 0.545766
0.522462 0.537390 0.559781
0.338844 0.348525 0.363047
0.351925 0.361980 0.377063
0.365006 0.375435 0.391078
0.378087 0.388890 0.405094
0.391169 0.402345 0.419109
0.404250 0.415800 0.433125
0.417331 0.429255 0.447141
0.430413 0.442710 0.461156
0.443494 0.456165 0.475172
0.456575 0.469620 0.489187
0.469656 0.483075 0.503203
0.482737 0.496530 0.517219
0.495819 0.509985 0.531234
0.508900 0.523440 0.545250
0.521981 0.536895 0.559266
0.535062 0.550350 0.573281
0.548144 0.563805 0.587297
0.364525 0.374940 0.390563
0.377606 0.388395 0.404578
0.390688 0.401850 0.418594
0.403769 0.415305 0.432609
0.416850 0.428760 0.446625
0.429931 0.442215 0.460641
0.443013 0.455670 0.474656
0.456094 0.469125 0.488672
0.469175 0.482580 0.502687
0.482256 0.496035 0.516703
0.495337 0.509490 0.530719
0.508419 0.522945 0.544734
0.521500 0.536400 0.558750
0.534581 0.549855 0.572766
0.547662 0.563310 0.586781
0.560744 0.576765 0.600797
0.573825 0.590220 0.614812
0.390206 0.401355 0.418078
0.403287 0.414810 0.432094
0.416369 0.428265 0.446109
0.429450 0.441720 0.460125
0.442531 0.455175 0.474141
0.455612 0.468630 0.488156
0.468694 0.482085 0.502172
0.481775 0.495540 0.516188
0.494856 0.508995 0.530203
0.507937 0.522450 0.544219
0.521019 0.535905 0.558234
0.534100 0.549360 0.572250
0.547181 0.562815 0.586266
0.560262 0.576270 0.600281
0.573344 0.589725 0.614297
0.586425 0.603180 0.628313
0.599506 0.616635 0.642328
0.415887 0.427770 0.445594
0.428969 0.441225 0.459609
0.442050 0.454680 0.473625
0.455131 0.468135 0.487641
0.468212 0.481590 0.501656
0.481294 0.495045 0.515672
0.494375 0.508500 0.529688
0.507456 0.521955 0.543703
0.520537 0.535410 0.557719
0.533619 0.548865 0.571734
0.546700 0.562320 0.585750
0.559781 0.575775 0.599766
0.572863 0.589230 0.613781
0.585944 0.602685 0.627797
0.599025 0.616140 0.641813
0.612106 0.629595 0.655828
0.625187 0.643050 0.669844
0.009975 0.010260 0.010688
0.023056 0.023715 0.024703
0.036137 0.037170 0.038719
0.049219 0.050625 0.052734
0.062300 0.064080 0.066750
0.075381 0.077535 0.080766
0.088462 0.090990 0.094781
0.101544 0.104445 0.108797
0.114625 0.117900 0.122813
0.127706 0.131355 0.136828
0.140787 0.144810 0.150844
0.153869 0.158265 0.164859
0.166950 0.171720 0.178875
0.180031 0.185175 0.192891
0.193112 0.198630 0.206906
0.206194 0.212085 0.220922
0.219275 0.225540 0.234937
0.035656 0.036675 0.038203
0.048737 0.050130 0.052219
0.061819 0.063585 0.066234
0.074900 0.077040 0.080250
0.087981 0.090495 0.094266
0.101062 0.103950 0.108281
0.114144 0.117405 0.122297
0.127225 0.130860 0.136313
0.140306 0.144315 0.150328
0.153387 0.157770 0.164344
0.166469 0.171225 0.178359
0.179550 0.184680 0.192375
0.192631 0.198135 0.206391
0.205712 0.211590 0.220406
0.218794 0.225045 0.234422
0.231875 0.238500 0.248437
0.244956 0.251955 0.262453
0.061337 0.063090 0.065719
0.074419 0.076545 0.079734
0.087500 0.090000 0.093750
0.100581 0.103455 0.107766
0.113662 0.116910 0.121781
0.126744 0.130365 0.135797
0.139825 0.143820 0.149813
0.152906 0.157275 0.163828
0.165987 0.170730 0.177844
0.179069 0.184185 0.191859
0.192150 0.197640 0.205875
0.205231 0.211095 0.219891
0.218312 0.224550 0.233906
0.231394 0.238005 0.247922
0.244475 0.251460 0.261937
0.257556 0.264915 0.275953
0.270637 0.278370 0.289969
0.087019 0.089505 0.093234
0.100100 0.102960 0.107250
0.113181 0.116415 0.121266
0.126262 0.129870 0.135281
0.139344 0.143325 0.149297
0.152425 0.156780 0.163312
0.165506 0.170235 0.177328
0.178587 0.183690 0.191344
0.191669 0.197145 0.205359
0.204750 0.210600 0.219375
0.217831 0.224055 0.233391
0.230912 0.237510 0.247406
0.243994 0.250965 0.261422
0.257075 0.264420 0.275438
0.270156 0.277875 0.289453
0.283237 0.291330 0.303469
0.296319 0.304785 0.317484
0.112700 0.115920 0.120750
0.125781 0.129375 0.134766
0.138862 0.142830 0.148781
0.151944 0.156285 0.162797
0.165025 0.169740 0.176812
0.178106 0.183195 0.190828
0.191187 0.196650 0.204844
0.204269 0.210105 0.218859
0.217350 0.223560 0.232875
0.230431 0.237015 0.246891
0.243512 0.250470 0.260906
0.256594 0.263925 0.274922
0.269675 0.277380 0.288937
0.282756 0.290835 0.302953
0.295837 0.304290 0.316969
0.308919 0.317745 0.330984
0.322000 0.331200 0.345000
0.138381 0.142335 0.148266
0.151462 0.155790 0.162281
0.164544 0.169245 0.176297
0.177625 0.182700 0.190312
0.190706 0.196155 0.204328
0.203787 0.209610 0.218344
0.216869 0.223065 0.232359
0.229950 0.236520 0.246375
0.243031 0.249975 0.260391
0.256112 0.263430 0.274406
0.269194 0.276885 0.288422
0.282275 0.290340 0.302437
0.295356 0.303795 0.316453
0.308437 0.317250 0.330469
0.321519 0.330705 0.344484
0.334600 0.344160 0.358500
0.347681 0.357615 0.372516
0.164062 0.168750 0.175781
0.177144 0.182205 0.189797
0.190225 0.195660 0.203813
0.203306 0.209115 0.217828
0.216387 0.222570 0.231844
0.229469 0.236025 0.245859
0.242550 0.249480 0.259875
0.255631 0.262935 0.273891
0.268712 0.276390 0.287906
0.281794 0.289845 0.301922
0.294875 0.303300 0.315937
0.307956 0.316755 0.329953
0.321037 0.330210 0.343969
0.334119 0.343665 0.357984
0.347200 0.357120 0.372000
0.360281 0.370575 0.386016
0.373362 0.384030 0.400031
0.189744 0.195165 0.203297
0.202825 0.208620 0.217313
0.215906 0.222075 0.231328
0.228987 0.235530 0.245344
0.242069 0.248985 0.259359
0.255150 0.262440 0.273375
0.268231 0.275895 0.287391
0.281312 0.289350 0.301406
0.294394 0.302805 0.315422
0.307475 0.316260 0.329437
0.320556 0.329715 0.343453
0.333637 0.343170 0.357469
0.346719 0.356625 0.371484
0.359800 0.370080 0.385500
0.372881 0.383535 0.399516
0.385962 0.396990 0.413531
0.399044 0.410445 0.427547
0.215425 0.221580 0.230812
0.228506 0.235035 0.244828
0.241587 0.248490 0.258844
0.254669 0.261945 0.272859
0.267750 0.275400 0.286875
0.280831 0.288855 0.300891
0.293912 0.302310 0.314906
0.306994 0.315765 0.328922
0.320075 0.329220 0.342937
0.333156 0.342675 0.356953
0.346237 0.356130 0.370969
0.359319 0.369585 0.384984
0.372400 0.383040 0.399000
0.385481 0.396495 0.413016
0.398562 0.409950 0.427031
0.411644 0.423405 0.441047
0.424725 0.436860 0.455063
0.241106 0.247995 0.258328
0.254187 0.261450 0.272344
0.267269 0.274905 0.286359
0.280350 0.288360 0.300375
0.293431 0.301815 0.314391
0.306512 0.315270 0.328406
0.319594 0.328725 0.342422
0.332675 0.342180 0.356437
0.345756 0.355635 0.370453
0.358837 0.369090 0.384469
0.371919 0.382545 0.398484
0.385000 0.396000 0.412500
0.398081 0.409455 0.426516
0.411162 0.422910 0.440531
0.424244 0.436365 0.454547
0.437325 0.449820 0.468562
0.450406 0.463275 0.482578
0.266787 0.274410 0.285844
0.279869 0.287865 0.299859
0.292950 0.301320 0.313875
0.306031 0.314775 0.327891
0.319112 0.328230 0.341906
0.332194 0.341685 0.355922
0.345275 0.355140 0.369937
0.358356 0.368595 0.383953
0.371437 0.382050 0.397969
0.384519 0.395505 0.411984
0.397600 0.408960 0.426000
0.410681 0.422415 0.440016
0.423762 0.435870 0.454031
0.436844 0.449325 0.468047
0.449925 0.462780 0.482062
0.463006 0.476235 0.496078
0.476087 0.489690 0.510094
0.292469 0.300825 0.313359
0.305550 0.314280 0.327375
0.318631 0.327735 0.341391
0.331712 0.341190 0.355406
0.344794 0.354645 0.369422
0.357875 0.368100 0.383437
0.370956 0.381555 0.397453
0.384037 0.395010 0.411469
0.397119 0.408465 0.425484
0.410200 0.421920 0.439500
0.423281 0.435375 0.453516
0.436362 0.448830 0.467531
0.449444 0.462285 0.481547
0.462525 0.475740 0.495562
0.475606 0.489195 0.509578
0.488687 0.502650 0.523594
0.501769 0.516105 0.537609
0.318150 0.327240 0.340875
0.331231 0.340695 0.354891
0.344312 0.354150 0.368906
0.357394 0.367605 0.382922
0.370475 0.381060 0.396937
0.383556 0.394515 0.410953
0.396637 0.407970 0.424969
0.409719 0.421425 0.438984
0.422800 0.434880 0.453000
0.435881 0.448335 0.467016
0.448962 0.461790 0.481031
0.462044 0.475245 0.495047
0.475125 0.488700 0.509062
0.488206 0.502155 0.523078
0.501287 0.515610 0.537094
0.514369 0.529065 0.551109
0.527450 0.542520 0.565125
0.343831 0.353655 0.368391
0.356912 0.367110 0.382406
0.369994 0.380565 0.396422
0.383075 0.394020 0.410437
0.396156 0.407475 0.424453
0.409237 0.420930 0.438469
0.422319 0.434385 0.452484
0.435400 0.447840 0.466500
0.448481 0.461295 0.480516
0.461562 0.474750 0.494531
0.474644 0.488205 0.508547
0.487725 0.501660 0.522562
0.500806 0.515115 0.536578
0.513887 0.528570 0.550594
0.526969 0.542025 0.564609
0.540050 0.555480 0.578625
0.553131 0.568935 0.592641
0.369512 0.380070 0.395906
0.382594 0.393525 0.409922
0.395675 0.406980 0.423938
0.408756 0.420435 0.437953
0.421837 0.433890 0.451969
0.434919 0.447345 0.465984
0.448000 0.460800 0.480000
0.461081 0.474255 0.494016
0.474162 0.487710 0.508031
0.487244 0.501165 0.522047
0.500325 0.514620 0.536062
0.513406 0.528075 0.550078
0.526487 0.541530 0.564094
0.539569 0.554985 0.578109
0.552650 0.568440 0.592125
0.565731 0.581895 0.606141
0.578812 0.595350 0.620156
0.395194 0.406485 0.423422
0.408275 0.419940 0.437437
0.421356 0.433395 0.451453
0.434437 0.446850 0.465469
0.447519 0.460305 0.479484
0.460600 0.473760 0.493500
0.473681 0.487215 0.507516
0.486762 0.500670 0.521531
0.499844 0.514125 0.535547
0.512925 0.527580 0.549562
0.526006 0.541035 0.563578
0.539087 0.554490 0.577594
0.552169 0.567945 0.591609
0.565250 0.581400 0.605625
0.578331 0.594855 0.619641
0.591412 0.608310 0.633656
0.604494 0.621765 0.647672
0.420875 0.432900 0.450937
0.433956 0.446355 0.464953
0.447037 0.459810 0.478969
0.460119 0.473265 0.492984
0.473200 0.486720 0.507000
0.486281 0.500175 0.521016
0.499362 0.513630 0.535031
0.512444 0.527085 0.549047
0.525525 0.540540 0.563062
0.538606 0.553995 0.577078
0.551687 0.567450 0.591094
0.564769 0.580905 0.605109
0.577850 0.594360 0.619125
0.590931 0.607815 0.633141
0.604012 0.621270 0.647156
0.617094 0.634725 0.661172
0.630175 0.648180 0.675187
0.014963 0.015390 0.016031
0.028044 0.028845 0.030047
0.041125 0.042300 0.044062
0.054206 0.055755 0.058078
0.067288 0.069210 0.072094
0.080369 0.082665 0.086109
0.093450 0.096120 0.100125
0.106531 0.109575 0.114141
0.119612 0.123030 0.128156
0.132694 0.136485 0.142172
0.145775 0.149940 0.156187
0.158856 0.163395 0.170203
0.171937 0.176850 0.184219
0.185019 0.190305 0.198234
0.198100 0.203760 0.212250
0.211181 0.217215 0.226266
0.224262 0.230670 0.240281
0.040644 0.041805 0.043547
