assets/luts/dark_desaturated.cube
TITLE "Dark Desaturated"
LUT_3D_SIZE 5
DOMAIN_MIN 0.0 0.0 0.0
DOMAIN_MAX 1.0 1.0 1.0
0.000000 0.000000 0.000000
0.052325 0.053820 0.056063
0.104650 0.107640 0.112125
0.156975 0.161460 0.168187
0.209300 0.215280 0.224250
0.102725 0.105660 0.110062
0.155050 0.159480 0.166125
0.207375 0.213300 0.222188
0.259700 0.267120 0.278250
0.312025 0.320940 0.334313
0.205450 0.211320 0.220125
0.257775 0.265140 0.276187
0.310100 0.318960 0.332250
0.362425 0.372780 0.388312
0.414750 0.426600 0.444375
0.308175 0.316980 0.330187
0.360500 0.370800 0.386250
0.412825 0.424620 0.442312
0.465150 0.478440 0.498375
0.517475 0.532260 0.554437
0.410900 0.422640 0.440250
0.463225 0.476460 0.496312
0.515550 0.530280 0.552375
0.567875 0.584100 0.608437
0.620200 0.637920 0.664500
0.019950 0.020520 0.021375
0.072275 0.074340 0.077437
0.124600 0.128160 0.133500
0.176925 0.181980 0.189563
0.229250 0.235800 0.245625
0.122675 0.126180 0.131437
0.175000 0.180000 0.187500
0.227325 0.233820 0.243563
0.279650 0.287640 0.299625
0.331975 0.341460 0.355687
0.225400 0.231840 0.241500
0.277725 0.285660 0.297563
0.330050 0.339480 0.353625
0.382375 0.393300 0.409687
0.434700 0.447120 0.465750
0.328125 0.337500 0.351562
0.380450 0.391320 0.407625
0.432775 0.445140 0.463687
0.485100 0.498960 0.519750
0.537425 0.552780 0.575812
0.430850 0.443160 0.461625
0.483175 0.496980 0.517687
0.535500 0.550800 0.573750
0.587825 0.604620 0.629812
0.640150 0.658440 0.685875
0.039900 0.041040 0.042750
0.092225 0.094860 0.098812
0.144550 0.148680 0.154875
0.196875 0.202500 0.210938
0.249200 0.256320 0.267000
0.142625 0.146700 0.152812
0.194950 0.200520 0.208875
0.247275 0.254340 0.264937
0.299600 0.308160 0.321000
0.351925 0.361980 0.377063
0.245350 0.252360 0.262875
0.297675 0.306180 0.318937
0.350000 0.360000 0.375000
0.402325 0.413820 0.431063
0.454650 0.467640 0.487125
0.348075 0.358020 0.372937
0.400400 0.411840 0.429000
0.452725 0.465660 0.485063
0.505050 0.519480 0.541125
0.557375 0.573300 0.597187
0.450800 0.463680 0.483000
0.503125 0.517500 0.539062
0.555450 0.571320 0.595125
0.607775 0.625140 0.651188
0.660100 0.678960 0.707250
0.059850 0.061560 0.064125
0.112175 0.115380 0.120188
0.164500 0.169200 0.176250
0.216825 0.223020 0.232313
0.269150 0.276840 0.288375
0.162575 0.167220 0.174187
0.214900 0.221040 0.230250
0.267225 0.274860 0.286313
0.319550 0.328680 0.342375
0.371875 0.382500 0.398438
0.265300 0.272880 0.284250
0.317625 0.326700 0.340313
0.369950 0.380520 0.396375
0.422275 0.434340 0.452437
0.474600 0.488160 0.508500
0.368025 0.378540 0.394312
0.420350 0.432360 0.450375
0.472675 0.486180 0.506437
0.525000 0.540000 0.562500
0.577325 0.593820 0.618563
0.470750 0.484200 0.504375
0.523075 0.538020 0.560437
0.575400 0.591840 0.616500
0.627725 0.645660 0.672563
0.680050 0.699480 0.728625
0.079800 0.082080 0.085500
0.132125 0.135900 0.141563
0.184450 0.189720 0.197625
0.236775 0.243540 0.253688
0.289100 0.297360 0.309750
0.182525 0.187740 0.195562
0.234850 0.241560 0.251625
0.287175 0.295380 0.307688
0.339500 0.349200 0.363750
0.391825 0.403020 0.419812
0.285250 0.293400 0.305625
0.337575 0.347220 0.361687
0.389900 0.401040 0.417750
0.442225 0.454860 0.473812
0.494550 0.508680 0.529875
0.387975 0.399060 0.415687
0.440300 0.452880 0.471750
0.492625 0.506700 0.527813
0.544950 0.560520 0.583875
0.597275 0.614340 0.639937
0.490700 0.504720 0.525750
0.543025 0.558540 0.581812
0.595350 0.612360 0.637875
0.647675 0.666180 0.693937
0.700000 0.720000 0.750000
