assets/luts/desolate_cold.cube
TITLE "Desolate Cold"
LUT_3D_SIZE 5
DOMAIN_MIN 0.0 0.0 0.0
DOMAIN_MAX 1.0 1.0 1.0
0.050000 0.030000 0.080000
0.109800 0.093537 0.147275
0.169600 0.157075 0.214550
0.229400 0.220612 0.281825
0.289200 0.284150 0.349100
0.167400 0.154737 0.212075
0.227200 0.218275 0.279350
0.287000 0.281813 0.346625
0.346800 0.345350 0.413900
0.406600 0.408887 0.481175
0.284800 0.279475 0.344150
0.344600 0.343012 0.411425
0.404400 0.406550 0.478700
0.464200 0.470087 0.545975
0.524000 0.533625 0.613250
0.402200 0.404212 0.476225
0.462000 0.467750 0.543500
0.521800 0.531288 0.610775
0.581600 0.594825 0.678050
0.641400 0.658362 0.745325
0.519600 0.528950 0.608300
0.579400 0.592487 0.675575
0.639200 0.656025 0.742850
0.699000 0.719562 0.810125
0.758800 0.783100 0.877400
0.072800 0.054225 0.105650
0.132600 0.117762 0.172925
0.192400 0.181300 0.240200
0.252200 0.244838 0.307475
0.312000 0.308375 0.374750
0.190200 0.178962 0.237725
0.250000 0.242500 0.305000
0.309800 0.306038 0.372275
0.369600 0.369575 0.439550
0.429400 0.433113 0.506825
0.307600 0.303700 0.369800
0.367400 0.367237 0.437075
0.427200 0.430775 0.504350
0.487000 0.494312 0.571625
0.546800 0.557850 0.638900
0.425000 0.428438 0.501875
0.484800 0.491975 0.569150
0.544600 0.555512 0.636425
0.604400 0.619050 0.703700
0.664200 0.682587 0.770975
0.542400 0.553175 0.633950
0.602200 0.616712 0.701225
0.662000 0.680250 0.768500
0.721800 0.743788 0.835775
0.781600 0.807325 0.903050
0.095600 0.078450 0.131300
0.155400 0.141987 0.198575
0.215200 0.205525 0.265850
0.275000 0.269062 0.333125
0.334800 0.332600 0.400400
0.213000 0.203187 0.263375
0.272800 0.266725 0.330650
0.332600 0.330263 0.397925
0.392400 0.393800 0.465200
0.452200 0.457338 0.532475
0.330400 0.327925 0.395450
0.390200 0.391462 0.462725
0.450000 0.455000 0.530000
0.509800 0.518537 0.597275
0.569600 0.582075 0.664550
0.447800 0.452662 0.527525
0.507600 0.516200 0.594800
0.567400 0.579738 0.662075
0.627200 0.643275 0.729350
0.687000 0.706813 0.796625
0.565200 0.577400 0.659600
0.625000 0.640938 0.726875
0.684800 0.704475 0.794150
0.744600 0.768013 0.861425
0.804400 0.831550 0.928700
0.118400 0.102675 0.156950
0.178200 0.166212 0.224225
0.238000 0.229750 0.291500
0.297800 0.293288 0.358775
0.357600 0.356825 0.426050
0.235800 0.227413 0.289025
0.295600 0.290950 0.356300
0.355400 0.354488 0.423575
0.415200 0.418025 0.490850
0.475000 0.481563 0.558125
0.353200 0.352150 0.421100
0.413000 0.415687 0.488375
0.472800 0.479225 0.555650
0.532600 0.542762 0.622925
0.592400 0.606300 0.690200
0.470600 0.476887 0.553175
0.530400 0.540425 0.620450
0.590200 0.603963 0.687725
0.650000 0.667500 0.755000
0.709800 0.731038 0.822275
0.588000 0.601625 0.685250
0.647800 0.665162 0.752525
0.707600 0.728700 0.819800
0.767400 0.792238 0.887075
0.827200 0.855775 0.954350
0.141200 0.126900 0.182600
0.201000 0.190437 0.249875
0.260800 0.253975 0.317150
0.320600 0.317512 0.384425
0.380400 0.381050 0.451700
0.258600 0.251637 0.314675
0.318400 0.315175 0.381950
0.378200 0.378713 0.449225
0.438000 0.442250 0.516500
0.497800 0.505787 0.583775
0.376000 0.376375 0.446750
0.435800 0.439912 0.514025
0.495600 0.503450 0.581300
0.555400 0.566987 0.648575
0.615200 0.630525 0.715850
0.493400 0.501112 0.578825
0.553200 0.564650 0.646100
0.613000 0.628188 0.713375
0.672800 0.691725 0.780650
0.732600 0.755262 0.847925
0.610800 0.625850 0.710900
0.670600 0.689387 0.778175
0.730400 0.752925 0.845450
0.790200 0.816462 0.912725
0.850000 0.880000 0.980000
