assets/luts/desolate_cold.cube
TITLE "Desolate Cold"
LUT_3D_SIZE 17
DOMAIN_MIN 0.0 0.0 0.0
DOMAIN_MAX 1.0 1.0 1.0
0.050000 0.030000 0.080000
0.064950 0.045884 0.096819
0.079900 0.061769 0.113638
0.094850 0.077653 0.130456
0.109800 0.093537 0.147275
0.124750 0.109422 0.164094
0.139700 0.125306 0.180913
0.154650 0.141191 0.197731
0.169600 0.157075 0.214550
0.184550 0.172959 0.231369
0.199500 0.188844 0.248188
0.214450 0.204728 0.265006
0.229400 0.220612 0.281825
0.244350 0.236497 0.298644
0.259300 0.252381 0.315462
0.274250 0.268266 0.332281
0.289200 0.284150 0.349100
0.079350 0.061184 0.113019
0.094300 0.077069 0.129837
0.109250 0.092953 0.146656
0.124200 0.108837 0.163475
0.139150 0.124722 0.180294
0.154100 0.140606 0.197112
0.169050 0.156491 0.213931
0.184000 0.172375 0.230750
0.198950 0.188259 0.247569
0.213900 0.204144 0.264387
0.228850 0.220028 0.281206
0.243800 0.235912 0.298025
0.258750 0.251797 0.314844
0.273700 0.267681 0.331663
0.288650 0.283566 0.348481
0.303600 0.299450 0.365300
0.318550 0.315334 0.382119
0.108700 0.092369 0.146037
0.123650 0.108253 0.162856
0.138600 0.124137 0.179675
0.153550 0.140022 0.196494
0.168500 0.155906 0.213313
0.183450 0.171791 0.230131
0.198400 0.187675 0.246950
0.213350 0.203559 0.263769
0.228300 0.219444 0.280587
0.243250 0.235328 0.297406
0.258200 0.251212 0.314225
0.273150 0.267097 0.331044
0.288100 0.282981 0.347863
0.303050 0.298866 0.364681
0.318000 0.314750 0.381500
0.332950 0.330634 0.398319
0.347900 0.346519 0.415138
0.138050 0.123553 0.179056
0.153000 0.139437 0.195875
0.167950 0.155322 0.212694
0.182900 0.171206 0.229513
0.197850 0.187091 0.246331
0.212800 0.202975 0.263150
0.227750 0.218859 0.279969
0.242700 0.234744 0.296788
0.257650 0.250628 0.313606
0.272600 0.266512 0.330425
0.287550 0.282397 0.347244
0.302500 0.298281 0.364063
0.317450 0.314166 0.380881
0.332400 0.330050 0.397700
0.347350 0.345934 0.414519
0.362300 0.361819 0.431337
0.377250 0.377703 0.448156
0.167400 0.154737 0.212075
0.182350 0.170622 0.228894
0.197300 0.186506 0.245713
0.212250 0.202391 0.262531
0.227200 0.218275 0.279350
0.242150 0.234159 0.296169
0.257100 0.250044 0.312987
0.272050 0.265928 0.329806
0.287000 0.281813 0.346625
0.301950 0.297697 0.363444
0.316900 0.313581 0.380263
0.331850 0.329466 0.397081
0.346800 0.345350 0.413900
0.361750 0.361234 0.430719
0.376700 0.377119 0.447538
0.391650 0.393003 0.464356
0.406600 0.408887 0.481175
0.196750 0.185922 0.245094
0.211700 0.201806 0.261912
0.226650 0.217691 0.278731
0.241600 0.233575 0.295550
0.256550 0.249459 0.312369
0.271500 0.265344 0.329187
0.286450 0.281228 0.346006
0.301400 0.297113 0.362825
0.316350 0.312997 0.379644
0.331300 0.328881 0.396462
0.346250 0.344766 0.413281
0.361200 0.360650 0.430100
0.376150 0.376534 0.446919
0.391100 0.392419 0.463737
0.406050 0.408303 0.480556
0.421000 0.424187 0.497375
0.435950 0.440072 0.514194
0.226100 0.217106 0.278112
0.241050 0.232991 0.294931
0.256000 0.248875 0.311750
0.270950 0.264759 0.328569
0.285900 0.280644 0.345388
0.300850 0.296528 0.362206
0.315800 0.312412 0.379025
0.330750 0.328297 0.395844
0.345700 0.344181 0.412662
0.360650 0.360066 0.429481
0.375600 0.375950 0.446300
0.390550 0.391834 0.463119
0.405500 0.407719 0.479938
0.420450 0.423603 0.496756
0.435400 0.439488 0.513575
0.450350 0.455372 0.530394
0.465300 0.471256 0.547212
0.255450 0.248291 0.311131
0.270400 0.264175 0.327950
0.285350 0.280059 0.344769
0.300300 0.295944 0.361588
0.315250 0.311828 0.378406
0.330200 0.327712 0.395225
0.345150 0.343597 0.412044
0.360100 0.359481 0.428863
0.375050 0.375366 0.445681
0.390000 0.391250 0.462500
0.404950 0.407134 0.479319
0.419900 0.423019 0.496138
0.434850 0.438903 0.512956
0.449800 0.454788 0.529775
0.464750 0.470672 0.546594
0.479700 0.486556 0.563412
0.494650 0.502441 0.580231
0.284800 0.279475 0.344150
0.299750 0.295359 0.360969
0.314700 0.311244 0.377787
0.329650 0.327128 0.394606
0.344600 0.343012 0.411425
0.359550 0.358897 0.428244
0.374500 0.374781 0.445063
0.389450 0.390666 0.461881
0.404400 0.406550 0.478700
0.419350 0.422434 0.495519
0.434300 0.438319 0.512338
0.449250 0.454203 0.529156
0.464200 0.470087 0.545975
0.479150 0.485972 0.562794
0.494100 0.501856 0.579612
0.509050 0.517741 0.596431
0.524000 0.533625 0.613250
0.314150 0.310659 0.377169
0.329100 0.326544 0.393987
0.344050 0.342428 0.410806
0.359000 0.358312 0.427625
0.373950 0.374197 0.444444
0.388900 0.390081 0.461263
0.403850 0.405966 0.478081
0.418800 0.421850 0.494900
0.433750 0.437734 0.511719
0.448700 0.453619 0.528537
0.463650 0.469503 0.545356
0.478600 0.485387 0.562175
0.493550 0.501272 0.578994
0.508500 0.517156 0.595812
0.523450 0.533041 0.612631
0.538400 0.548925 0.629450
0.553350 0.564809 0.646269
0.343500 0.341844 0.410187
0.358450 0.357728 0.427006
0.373400 0.373612 0.443825
0.388350 0.389497 0.460644
0.403300 0.405381 0.477462
0.418250 0.421266 0.494281
0.433200 0.437150 0.511100
0.448150 0.453034 0.527919
0.463100 0.468919 0.544737
0.478050 0.484803 0.561556
0.493000 0.500687 0.578375
0.507950 0.516572 0.595194
0.522900 0.532456 0.612012
0.537850 0.548341 0.628831
0.552800 0.564225 0.645650
0.567750 0.580109 0.662469
0.582700 0.595994 0.679287
0.372850 0.373028 0.443206
0.387800 0.388912 0.460025
0.402750 0.404797 0.476844
0.417700 0.420681 0.493663
0.432650 0.436566 0.510481
0.447600 0.452450 0.527300
0.462550 0.468334 0.544119
0.477500 0.484219 0.560938
0.492450 0.500103 0.577756
0.507400 0.515987 0.594575
0.522350 0.531872 0.611394
0.537300 0.547756 0.628212
0.552250 0.563641 0.645031
0.567200 0.579525 0.661850
0.582150 0.595409 0.678669
0.597100 0.611294 0.695488
0.612050 0.627178 0.712306
0.402200 0.404212 0.476225
0.417150 0.420097 0.493044
0.432100 0.435981 0.509862
0.447050 0.451866 0.526681
0.462000 0.467750 0.543500
0.476950 0.483634 0.560319
0.491900 0.499519 0.577137
0.506850 0.515403 0.593956
0.521800 0.531288 0.610775
0.536750 0.547172 0.627594
0.551700 0.563056 0.644412
0.566650 0.578941 0.661231
0.581600 0.594825 0.678050
0.596550 0.610709 0.694869
0.611500 0.626594 0.711688
0.626450 0.642478 0.728506
0.641400 0.658362 0.745325
0.431550 0.435397 0.509244
0.446500 0.451281 0.526062
0.461450 0.467166 0.542881
0.476400 0.483050 0.559700
0.491350 0.498934 0.576519
0.506300 0.514819 0.593337
0.521250 0.530703 0.610156
0.536200 0.546588 0.626975
0.551150 0.562472 0.643794
0.566100 0.578356 0.660612
0.581050 0.594241 0.677431
0.596000 0.610125 0.694250
0.610950 0.626009 0.711069
0.625900 0.641894 0.727887
0.640850 0.657778 0.744706
0.655800 0.673662 0.761525
0.670750 0.689547 0.778344
0.460900 0.466581 0.542262
0.475850 0.482466 0.559081
0.490800 0.498350 0.575900
0.505750 0.514234 0.592719
0.520700 0.530119 0.609537
0.535650 0.546003 0.626356
0.550600 0.561887 0.643175
0.565550 0.577772 0.659994
0.580500 0.593656 0.676812
0.595450 0.609541 0.693631
0.610400 0.625425 0.710450
0.625350 0.641309 0.727269
0.640300 0.657194 0.744088
0.655250 0.673078 0.760906
0.670200 0.688963 0.777725
0.685150 0.704847 0.794544
0.700100 0.720731 0.811362
0.490250 0.497766 0.575281
0.505200 0.513650 0.592100
0.520150 0.529534 0.608919
0.535100 0.545419 0.625737
0.550050 0.561303 0.642556
0.565000 0.577187 0.659375
0.579950 0.593072 0.676194
0.594900 0.608956 0.693012
0.609850 0.624841 0.709831
0.624800 0.640725 0.726650
0.639750 0.656609 0.743469
0.654700 0.672494 0.760287
0.669650 0.688378 0.777106
0.684600 0.704263 0.793925
0.699550 0.720147 0.810744
0.714500 0.736031 0.827562
0.729450 0.751916 0.844381
0.519600 0.528950 0.608300
0.534550 0.544834 0.625119
0.549500 0.560719 0.641937
0.564450 0.576603 0.658756
0.579400 0.592487 0.675575
0.594350 0.608372 0.692394
0.609300 0.624256 0.709213
0.624250 0.640141 0.726031
0.639200 0.656025 0.742850
0.654150 0.671909 0.759669
0.669100 0.687794 0.776487
0.684050 0.703678 0.793306
0.699000 0.719562 0.810125
0.713950 0.735447 0.826944
0.728900 0.751331 0.843762
0.743850 0.767216 0.860581
0.758800 0.783100 0.877400
0.055700 0.036056 0.086413
0.070650 0.051941 0.103231
0.085600 0.067825 0.120050
0.100550 0.083709 0.136869
0.115500 0.099594 0.153688
0.130450 0.115478 0.170506
0.145400 0.131362 0.187325
0.160350 0.147247 0.204144
0.175300 0.163131 0.220963
0.190250 0.179016 0.237781
0.205200 0.194900 0.254600
0.220150 0.210784 0.271419
0.235100 0.226669 0.288237
0.250050 0.242553 0.305056
0.265000 0.258437 0.321875
0.279950 0.274322 0.338694
0.294900 0.290206 0.355513
0.085050 0.067241 0.119431
0.100000 0.083125 0.136250
0.114950 0.099009 0.153069
0.129900 0.114894 0.169888
0.144850 0.130778 0.186706
0.159800 0.146662 0.203525
0.174750 0.162547 0.220344
0.189700 0.178431 0.237162
0.204650 0.194316 0.253981
0.219600 0.210200 0.270800
0.234550 0.226084 0.287619
0.249500 0.241969 0.304437
0.264450 0.257853 0.321256
0.279400 0.273737 0.338075
0.294350 0.289622 0.354894
0.309300 0.305506 0.371712
0.324250 0.321391 0.388531
0.114400 0.098425 0.152450
0.129350 0.114309 0.169269
0.144300 0.130194 0.186088
0.159250 0.146078 0.202906
0.174200 0.161962 0.219725
0.189150 0.177847 0.236544
0.204100 0.193731 0.253362
0.219050 0.209616 0.270181
0.234000 0.225500 0.287000
0.248950 0.241384 0.303819
0.263900 0.257269 0.320637
0.278850 0.273153 0.337456
0.293800 0.289038 0.354275
0.308750 0.304922 0.371094
0.323700 0.320806 0.387912
0.338650 0.336691 0.404731
0.353600 0.352575 0.421550
0.143750 0.129609 0.185469
0.158700 0.145494 0.202288
0.173650 0.161378 0.219106
0.188600 0.177262 0.235925
0.203550 0.193147 0.252744
0.218500 0.209031 0.269562
0.233450 0.224916 0.286381
0.248400 0.240800 0.303200
0.263350 0.256684 0.320019
0.278300 0.272569 0.336838
0.293250 0.288453 0.353656
0.308200 0.304337 0.370475
0.323150 0.320222 0.387294
0.338100 0.336106 0.404112
0.353050 0.351991 0.420931
0.368000 0.367875 0.437750
0.382950 0.383759 0.454569
0.173100 0.160794 0.218488
0.188050 0.176678 0.235306
0.203000 0.192562 0.252125
0.217950 0.208447 0.268944
0.232900 0.224331 0.285762
0.247850 0.240216 0.302581
0.262800 0.256100 0.319400
0.277750 0.271984 0.336219
0.292700 0.287869 0.353038
0.307650 0.303753 0.369856
0.322600 0.319637 0.386675
0.337550 0.335522 0.403494
0.352500 0.351406 0.420313
0.367450 0.367291 0.437131
0.382400 0.383175 0.453950
0.397350 0.399059 0.470769
0.412300 0.414944 0.487588
0.202450 0.191978 0.251506
0.217400 0.207862 0.268325
0.232350 0.223747 0.285144
0.247300 0.239631 0.301962
0.262250 0.255516 0.318781
0.277200 0.271400 0.335600
0.292150 0.287284 0.352419
0.307100 0.303169 0.369237
0.322050 0.319053 0.386056
0.337000 0.334937 0.402875
0.351950 0.350822 0.419694
0.366900 0.366706 0.436512
0.381850 0.382591 0.453331
0.396800 0.398475 0.470150
0.411750 0.414359 0.486969
0.426700 0.430244 0.503787
0.441650 0.446128 0.520606
0.231800 0.223162 0.284525
0.246750 0.239047 0.301344
0.261700 0.254931 0.318163
0.276650 0.270816 0.334981
0.291600 0.286700 0.351800
0.306550 0.302584 0.368619
0.321500 0.318469 0.385437
0.336450 0.334353 0.402256
0.351400 0.350237 0.419075
0.366350 0.366122 0.435894
0.381300 0.382006 0.452713
0.396250 0.397891 0.469531
0.411200 0.413775 0.486350
0.426150 0.429659 0.503169
0.441100 0.445544 0.519988
0.456050 0.461428 0.536806
0.471000 0.477313 0.553625
0.261150 0.254347 0.317544
0.276100 0.270231 0.334363
0.291050 0.286116 0.351181
0.306000 0.302000 0.368000
0.320950 0.317884 0.384819
0.335900 0.333769 0.401638
0.350850 0.349653 0.418456
0.365800 0.365537 0.435275
0.380750 0.381422 0.452094
0.395700 0.397306 0.468913
0.410650 0.413191 0.485731
0.425600 0.429075 0.502550
0.440550 0.444959 0.519369
0.455500 0.460844 0.536188
0.470450 0.476728 0.553006
0.485400 0.492613 0.569825
0.500350 0.508497 0.586644
0.290500 0.285531 0.350562
0.305450 0.301416 0.367381
0.320400 0.317300 0.384200
0.335350 0.333184 0.401019
0.350300 0.349069 0.417837
0.365250 0.364953 0.434656
0.380200 0.380837 0.451475
0.395150 0.396722 0.468294
0.410100 0.412606 0.485112
0.425050 0.428491 0.501931
0.440000 0.444375 0.518750
0.454950 0.460259 0.535569
0.469900 0.476144 0.552388
0.484850 0.492028 0.569206
0.499800 0.507912 0.586025
0.514750 0.523797 0.602844
0.529700 0.539681 0.619663
0.319850 0.316716 0.383581
0.334800 0.332600 0.400400
0.349750 0.348484 0.417219
0.364700 0.364369 0.434038
0.379650 0.380253 0.450856
0.394600 0.396137 0.467675
0.409550 0.412022 0.484494
0.424500 0.427906 0.501312
0.439450 0.443791 0.518131
0.454400 0.459675 0.534950
0.469350 0.475559 0.551769
0.484300 0.491444 0.568588
0.499250 0.507328 0.585406
0.514200 0.523212 0.602225
0.529150 0.539097 0.619044
0.544100 0.554981 0.635862
0.559050 0.570866 0.652681
0.349200 0.347900 0.416600
0.364150 0.363784 0.433419
0.379100 0.379669 0.450237
0.394050 0.395553 0.467056
0.409000 0.411437 0.483875
0.423950 0.427322 0.500694
0.438900 0.443206 0.517512
0.453850 0.459091 0.534331
0.468800 0.474975 0.551150
0.483750 0.490859 0.567969
0.498700 0.506744 0.584788
0.513650 0.522628 0.601606
0.528600 0.538512 0.618425
0.543550 0.554397 0.635244
0.558500 0.570281 0.652062
0.573450 0.586166 0.668881
0.588400 0.602050 0.685700
0.378550 0.379084 0.449619
0.393500 0.394969 0.466438
0.408450 0.410853 0.483256
0.423400 0.426737 0.500075
0.438350 0.442622 0.516894
0.453300 0.458506 0.533713
0.468250 0.474391 0.550531
0.483200 0.490275 0.567350
0.498150 0.506159 0.584169
0.513100 0.522044 0.600988
0.528050 0.537928 0.617806
0.543000 0.553812 0.634625
0.557950 0.569697 0.651444
0.572900 0.585581 0.668262
0.587850 0.601466 0.685081
0.602800 0.617350 0.701900
0.617750 0.633234 0.718719
0.407900 0.410269 0.482637
0.422850 0.426153 0.499456
0.437800 0.442037 0.516275
0.452750 0.457922 0.533094
0.467700 0.473806 0.549913
0.482650 0.489691 0.566731
0.497600 0.505575 0.583550
0.512550 0.521459 0.600369
0.527500 0.537344 0.617188
0.542450 0.553228 0.634006
0.557400 0.569113 0.650825
0.572350 0.584997 0.667644
0.587300 0.600881 0.684462
0.602250 0.616766 0.701281
0.617200 0.632650 0.718100
0.632150 0.648534 0.734919
0.647100 0.664419 0.751737
0.437250 0.441453 0.515656
0.452200 0.457338 0.532475
0.467150 0.473222 0.549294
0.482100 0.489106 0.566113
0.497050 0.504991 0.582931
0.512000 0.520875 0.599750
0.526950 0.536759 0.616569
0.541900 0.552644 0.633387
0.556850 0.568528 0.650206
0.571800 0.584413 0.667025
0.586750 0.600297 0.683844
0.601700 0.616181 0.700662
0.616650 0.632066 0.717481
0.631600 0.647950 0.734300
0.646550 0.663834 0.751119
0.661500 0.679719 0.767938
0.676450 0.695603 0.784756
0.466600 0.472638 0.548675
0.481550 0.488522 0.565494
0.496500 0.504406 0.582313
0.511450 0.520291 0.599131
0.526400 0.536175 0.615950
0.541350 0.552059 0.632769
0.556300 0.567944 0.649588
0.571250 0.583828 0.666406
0.586200 0.599712 0.683225
0.601150 0.615597 0.700044
0.616100 0.631481 0.716863
0.631050 0.647366 0.733681
0.646000 0.663250 0.750500
0.660950 0.679134 0.767319
0.675900 0.695019 0.784138
0.690850 0.710903 0.800956
0.705800 0.726788 0.817775
0.495950 0.503822 0.581694
0.510900 0.519706 0.598513
0.525850 0.535591 0.615331
0.540800 0.551475 0.632150
0.555750 0.567359 0.648969
0.570700 0.583244 0.665787
0.585650 0.599128 0.682606
0.600600 0.615013 0.699425
0.615550 0.630897 0.716244
0.630500 0.646781 0.733062
0.645450 0.662666 0.749881
0.660400 0.678550 0.766700
0.675350 0.694434 0.783519
0.690300 0.710319 0.800338
0.705250 0.726203 0.817156
0.720200 0.742088 0.833975
0.735150 0.757972 0.850794
0.525300 0.535006 0.614712
0.540250 0.550891 0.631531
0.555200 0.566775 0.648350
0.570150 0.582659 0.665169
0.585100 0.598544 0.681987
0.600050 0.614428 0.698806
0.615000 0.630313 0.715625
0.629950 0.646197 0.732444
0.644900 0.662081 0.749262
0.659850 0.677966 0.766081
0.674800 0.693850 0.782900
0.689750 0.709734 0.799719
0.704700 0.725619 0.816538
0.719650 0.741503 0.833356
0.734600 0.757387 0.850175
0.749550 0.773272 0.866994
0.764500 0.789156 0.883812
0.061400 0.042112 0.092825
0.076350 0.057997 0.109644
0.091300 0.073881 0.126463
0.106250 0.089766 0.143281
0.121200 0.105650 0.160100
0.136150 0.121534 0.176919
0.151100 0.137419 0.193738
0.166050 0.153303 0.210556
0.181000 0.169187 0.227375
0.195950 0.185072 0.244194
0.210900 0.200956 0.261012
0.225850 0.216841 0.277831
0.240800 0.232725 0.294650
0.255750 0.248609 0.311469
0.270700 0.264494 0.328288
0.285650 0.280378 0.345106
0.300600 0.296262 0.361925
0.090750 0.073297 0.125844
0.105700 0.089181 0.142662
0.120650 0.105066 0.159481
0.135600 0.120950 0.176300
0.150550 0.136834 0.193119
0.165500 0.152719 0.209937
0.180450 0.168603 0.226756
0.195400 0.184487 0.243575
0.210350 0.200372 0.260394
0.225300 0.216256 0.277212
0.240250 0.232141 0.294031
0.255200 0.248025 0.310850
0.270150 0.263909 0.327669
0.285100 0.279794 0.344488
0.300050 0.295678 0.361306
0.315000 0.311562 0.378125
0.329950 0.327447 0.394944
0.120100 0.104481 0.158863
0.135050 0.120366 0.175681
0.150000 0.136250 0.192500
0.164950 0.152134 0.209319
0.179900 0.168019 0.226138
0.194850 0.183903 0.242956
0.209800 0.199788 0.259775
0.224750 0.215672 0.276594
0.239700 0.231556 0.293413
0.254650 0.247441 0.310231
0.269600 0.263325 0.327050
0.284550 0.279209 0.343869
0.299500 0.295094 0.360688
0.314450 0.310978 0.377506
0.329400 0.326862 0.394325
0.344350 0.342747 0.411144
0.359300 0.358631 0.427963
0.149450 0.135666 0.191881
0.164400 0.151550 0.208700
0.179350 0.167434 0.225519
0.194300 0.183319 0.242338
0.209250 0.199203 0.259156
0.224200 0.215087 0.275975
0.239150 0.230972 0.292794
0.254100 0.246856 0.309613
0.269050 0.262741 0.326431
0.284000 0.278625 0.343250
0.298950 0.294509 0.360069
0.313900 0.310394 0.376887
0.328850 0.326278 0.393706
0.343800 0.342162 0.410525
0.358750 0.358047 0.427344
0.373700 0.373931 0.444162
0.388650 0.389816 0.460981
0.178800 0.166850 0.224900
0.193750 0.182734 0.241719
0.208700 0.198619 0.258537
0.223650 0.214503 0.275356
0.238600 0.230387 0.292175
0.253550 0.246272 0.308994
0.268500 0.262156 0.325812
0.283450 0.278041 0.342631
0.298400 0.293925 0.359450
0.313350 0.309809 0.376269
0.328300 0.325694 0.393087
0.343250 0.341578 0.409906
0.358200 0.357463 0.426725
0.373150 0.373347 0.443544
0.388100 0.389231 0.460363
0.403050 0.405116 0.477181
0.418000 0.421000 0.494000
0.208150 0.198034 0.257919
0.223100 0.213919 0.274737
0.238050 0.229803 0.291556
0.253000 0.245687 0.308375
0.267950 0.261572 0.325194
0.282900 0.277456 0.342012
0.297850 0.293341 0.358831
0.312800 0.309225 0.375650
0.327750 0.325109 0.392469
0.342700 0.340994 0.409287
0.357650 0.356878 0.426106
0.372600 0.372762 0.442925
0.387550 0.388647 0.459744
0.402500 0.404531 0.476562
0.417450 0.420416 0.493381
0.432400 0.436300 0.510200
0.447350 0.452184 0.527019
0.237500 0.229219 0.290938
0.252450 0.245103 0.307756
0.267400 0.260987 0.324575
0.282350 0.276872 0.341394
0.297300 0.292756 0.358212
0.312250 0.308641 0.375031
0.327200 0.324525 0.391850
0.342150 0.340409 0.408669
0.357100 0.356294 0.425488
0.372050 0.372178 0.442306
0.387000 0.388062 0.459125
0.401950 0.403947 0.475944
0.416900 0.419831 0.492762
0.431850 0.435716 0.509581
0.446800 0.451600 0.526400
0.461750 0.467484 0.543219
0.476700 0.483369 0.560037
0.266850 0.260403 0.323956
0.281800 0.276288 0.340775
0.296750 0.292172 0.357594
0.311700 0.308056 0.374413
0.326650 0.323941 0.391231
0.341600 0.339825 0.408050
0.356550 0.355709 0.424869
0.371500 0.371594 0.441688
0.386450 0.387478 0.458506
0.401400 0.403362 0.475325
0.416350 0.419247 0.492144
0.431300 0.435131 0.508962
0.446250 0.451016 0.525781
0.461200 0.466900 0.542600
0.476150 0.482784 0.559419
0.491100 0.498669 0.576237
0.506050 0.514553 0.593056
0.296200 0.291587 0.356975
0.311150 0.307472 0.373794
0.326100 0.323356 0.390612
0.341050 0.339241 0.407431
0.356000 0.355125 0.424250
0.370950 0.371009 0.441069
0.385900 0.386894 0.457888
0.400850 0.402778 0.474706
0.415800 0.418662 0.491525
0.430750 0.434547 0.508344
0.445700 0.450431 0.525162
0.460650 0.466316 0.541981
0.475600 0.482200 0.558800
0.490550 0.498084 0.575619
0.505500 0.513969 0.592437
0.520450 0.529853 0.609256
0.535400 0.545737 0.626075
0.325550 0.322772 0.389994
0.340500 0.338656 0.406813
0.355450 0.354541 0.423631
0.370400 0.370425 0.440450
0.385350 0.386309 0.457269
0.400300 0.402194 0.474087
0.415250 0.418078 0.490906
0.430200 0.433962 0.507725
0.445150 0.449847 0.524544
0.460100 0.465731 0.541362
0.475050 0.481616 0.558181
0.490000 0.497500 0.575000
0.504950 0.513384 0.591819
0.519900 0.529269 0.608637
0.534850 0.545153 0.625456
0.549800 0.561037 0.642275
0.564750 0.576922 0.659094
0.354900 0.353956 0.423012
0.369850 0.369841 0.439831
0.384800 0.385725 0.456650
0.399750 0.401609 0.473469
0.414700 0.417494 0.490287
0.429650 0.433378 0.507106
0.444600 0.449263 0.523925
0.459550 0.465147 0.540744
0.474500 0.481031 0.557562
0.489450 0.496916 0.574381
0.504400 0.512800 0.591200
0.519350 0.528684 0.608019
0.534300 0.544569 0.624837
0.549250 0.560453 0.641656
0.564200 0.576337 0.658475
0.579150 0.592222 0.675294
0.594100 0.608106 0.692112
0.384250 0.385141 0.456031
0.399200 0.401025 0.472850
0.414150 0.416909 0.489669
0.429100 0.432794 0.506487
0.444050 0.448678 0.523306
0.459000 0.464562 0.540125
0.473950 0.480447 0.556944
0.488900 0.496331 0.573763
0.503850 0.512216 0.590581
0.518800 0.528100 0.607400
0.533750 0.543984 0.624219
0.548700 0.559869 0.641037
0.563650 0.575753 0.657856
0.578600 0.591637 0.674675
0.593550 0.607522 0.691494
0.608500 0.623406 0.708313
0.623450 0.639291 0.725131
0.413600 0.416325 0.489050
0.428550 0.432209 0.505869
0.443500 0.448094 0.522687
0.458450 0.463978 0.539506
0.473400 0.479862 0.556325
0.488350 0.495747 0.573144
0.503300 0.511631 0.589962
0.518250 0.527516 0.606781
0.533200 0.543400 0.623600
0.548150 0.559284 0.640419
0.563100 0.575169 0.657237
0.578050 0.591053 0.674056
0.593000 0.606938 0.690875
0.607950 0.622822 0.707694
0.622900 0.638706 0.724513
0.637850 0.654591 0.741331
0.652800 0.670475 0.758150
0.442950 0.447509 0.522069
0.457900 0.463394 0.538887
0.472850 0.479278 0.555706
0.487800 0.495162 0.572525
0.502750 0.511047 0.589344
0.517700 0.526931 0.606162
0.532650 0.542816 0.622981
0.547600 0.558700 0.639800
0.562550 0.574584 0.656619
0.577500 0.590469 0.673437
0.592450 0.606353 0.690256
0.607400 0.622237 0.707075
0.622350 0.638122 0.723894
0.637300 0.654006 0.740712
0.652250 0.669891 0.757531
0.667200 0.685775 0.774350
0.682150 0.701659 0.791169
0.472300 0.478694 0.555087
0.487250 0.494578 0.571906
0.502200 0.510463 0.588725
0.517150 0.526347 0.605544
0.532100 0.542231 0.622362
0.547050 0.558116 0.639181
0.562000 0.574000 0.656000
0.576950 0.589884 0.672819
0.591900 0.605769 0.689637
0.606850 0.621653 0.706456
0.621800 0.637537 0.723275
0.636750 0.653422 0.740094
0.651700 0.669306 0.756912
0.666650 0.685191 0.773731
0.681600 0.701075 0.790550
0.696550 0.716959 0.807369
0.711500 0.732844 0.824187
0.501650 0.509878 0.588106
0.516600 0.525762 0.604925
0.531550 0.541647 0.621744
0.546500 0.557531 0.638562
0.561450 0.573416 0.655381
0.576400 0.589300 0.672200
0.591350 0.605184 0.689019
0.606300 0.621069 0.705837
0.621250 0.636953 0.722656
0.636200 0.652837 0.739475
0.651150 0.668722 0.756294
0.666100 0.684606 0.773112
0.681050 0.700491 0.789931
0.696000 0.716375 0.806750
0.710950 0.732259 0.823569
0.725900 0.748144 0.840387
0.740850 0.764028 0.857206
0.531000 0.541063 0.621125
0.545950 0.556947 0.637944
0.560900 0.572831 0.654763
0.575850 0.588716 0.671581
0.590800 0.604600 0.688400
0.605750 0.620484 0.705219
0.620700 0.636369 0.722037
0.635650 0.652253 0.738856
0.650600 0.668137 0.755675
0.665550 0.684022 0.772494
0.680500 0.699906 0.789312
0.695450 0.715791 0.806131
0.710400 0.731675 0.822950
0.725350 0.747559 0.839769
0.740300 0.763444 0.856587
0.755250 0.779328 0.873406
0.770200 0.795212 0.890225
0.067100 0.048169 0.099238
0.082050 0.064053 0.116056
0.097000 0.079937 0.132875
0.111950 0.095822 0.149694
0.126900 0.111706 0.166513
0.141850 0.127591 0.183331
0.156800 0.143475 0.200150
0.171750 0.159359 0.216969
0.186700 0.175244 0.233787
0.201650 0.191128 0.250606
0.216600 0.207012 0.267425
0.231550 0.222897 0.284244
0.246500 0.238781 0.301063
0.261450 0.254666 0.317881
0.276400 0.270550 0.334700
0.291350 0.286434 0.351519
0.306300 0.302319 0.368337
0.096450 0.079353 0.132256
