assets/luts/desolate_cold.cube
TITLE "Desolate Cold"
LUT_3D_SIZE 9
DOMAIN_MIN 0.0 0.0 0.0
DOMAIN_MAX 1.0 1.0 1.0
0.050000 0.030000 0.080000
0.079900 0.061769 0.113638
0.109800 0.093537 0.147275
0.139700 0.125306 0.180913
0.169600 0.157075 0.214550
0.199500 0.188844 0.248188
0.229400 0.220612 0.281825
0.259300 0.252381 0.315462
0.289200 0.284150 0.349100
0.108700 0.092369 0.146037
0.138600 0.124137 0.179675
0.168500 0.155906 0.213313
0.198400 0.187675 0.246950
0.228300 0.219444 0.280587
0.258200 0.251212 0.314225
0.288100 0.282981 0.347863
0.318000 0.314750 0.381500
0.347900 0.346519 0.415138
0.167400 0.154737 0.212075
0.197300 0.186506 0.245713
0.227200 0.218275 0.279350
0.257100 0.250044 0.312987
0.287000 0.281813 0.346625
0.316900 0.313581 0.380263
0.346800 0.345350 0.413900
0.376700 0.377119 0.447538
0.406600 0.408887 0.481175
0.226100 0.217106 0.278112
0.256000 0.248875 0.311750
0.285900 0.280644 0.345388
0.315800 0.312412 0.379025
0.345700 0.344181 0.412662
0.375600 0.375950 0.446300
0.405500 0.407719 0.479938
0.435400 0.439488 0.513575
0.465300 0.471256 0.547212
0.284800 0.279475 0.344150
0.314700 0.311244 0.377787
0.344600 0.343012 0.411425
0.374500 0.374781 0.445063
0.404400 0.406550 0.478700
0.434300 0.438319 0.512338
0.464200 0.470087 0.545975
0.494100 0.501856 0.579612
0.524000 0.533625 0.613250
0.343500 0.341844 0.410187
0.373400 0.373612 0.443825
0.403300 0.405381 0.477462
0.433200 0.437150 0.511100
0.463100 0.468919 0.544737
0.493000 0.500687 0.578375
0.522900 0.532456 0.612012
0.552800 0.564225 0.645650
0.582700 0.595994 0.679287
0.402200 0.404212 0.476225
0.432100 0.435981 0.509862
0.462000 0.467750 0.543500
0.491900 0.499519 0.577137
0.521800 0.531288 0.610775
0.551700 0.563056 0.644412
0.581600 0.594825 0.678050
0.611500 0.626594 0.711688
0.641400 0.658362 0.745325
0.460900 0.466581 0.542262
0.490800 0.498350 0.575900
0.520700 0.530119 0.609537
0.550600 0.561887 0.643175
0.580500 0.593656 0.676812
0.610400 0.625425 0.710450
0.640300 0.657194 0.744088
0.670200 0.688963 0.777725
0.700100 0.720731 0.811362
0.519600 0.528950 0.608300
0.549500 0.560719 0.641937
0.579400 0.592487 0.675575
0.609300 0.624256 0.709213
0.639200 0.656025 0.742850
0.669100 0.687794 0.776487
0.699000 0.719562 0.810125
0.728900 0.751331 0.843762
0.758800 0.783100 0.877400
0.061400 0.042112 0.092825
0.091300 0.073881 0.126463
0.121200 0.105650 0.160100
0.151100 0.137419 0.193738
0.181000 0.169187 0.227375
0.210900 0.200956 0.261012
0.240800 0.232725 0.294650
0.270700 0.264494 0.328288
0.300600 0.296262 0.361925
0.120100 0.104481 0.158863
0.150000 0.136250 0.192500
0.179900 0.168019 0.226138
0.209800 0.199788 0.259775
0.239700 0.231556 0.293413
0.269600 0.263325 0.327050
0.299500 0.295094 0.360688
0.329400 0.326862 0.394325
0.359300 0.358631 0.427963
0.178800 0.166850 0.224900
0.208700 0.198619 0.258537
0.238600 0.230387 0.292175
0.268500 0.262156 0.325812
0.298400 0.293925 0.359450
0.328300 0.325694 0.393087
0.358200 0.357463 0.426725
0.388100 0.389231 0.460363
0.418000 0.421000 0.494000
0.237500 0.229219 0.290938
0.267400 0.260987 0.324575
0.297300 0.292756 0.358212
0.327200 0.324525 0.391850
0.357100 0.356294 0.425488
0.387000 0.388062 0.459125
0.416900 0.419831 0.492762
0.446800 0.451600 0.526400
0.476700 0.483369 0.560037
0.296200 0.291587 0.356975
0.326100 0.323356 0.390612
0.356000 0.355125 0.424250
0.385900 0.386894 0.457888
0.415800 0.418662 0.491525
0.445700 0.450431 0.525162
0.475600 0.482200 0.558800
0.505500 0.513969 0.592437
0.535400 0.545737 0.626075
0.354900 0.353956 0.423012
0.384800 0.385725 0.456650
0.414700 0.417494 0.490287
0.444600 0.449263 0.523925
0.474500 0.481031 0.557562
0.504400 0.512800 0.591200
0.534300 0.544569 0.624837
0.564200 0.576337 0.658475
0.594100 0.608106 0.692112
0.413600 0.416325 0.489050
0.443500 0.448094 0.522687
0.473400 0.479862 0.556325
0.503300 0.511631 0.589962
0.533200 0.543400 0.623600
0.563100 0.575169 0.657237
0.593000 0.606938 0.690875
0.622900 0.638706 0.724513
0.652800 0.670475 0.758150
0.472300 0.478694 0.555087
0.502200 0.510463 0.588725
0.532100 0.542231 0.622362
0.562000 0.574000 0.656000
0.591900 0.605769 0.689637
0.621800 0.637537 0.723275
0.651700 0.669306 0.756912
0.681600 0.701075 0.790550
0.711500 0.732844 0.824187
0.531000 0.541063 0.621125
0.560900 0.572831 0.654763
0.590800 0.604600 0.688400
0.620700 0.636369 0.722037
0.650600 0.668137 0.755675
0.680500 0.699906 0.789312
0.710400 0.731675 0.822950
0.740300 0.763444 0.856587
0.770200 0.795212 0.890225
0.072800 0.054225 0.105650
0.102700 0.085994 0.139288
0.132600 0.117762 0.172925
0.162500 0.149531 0.206562
0.192400 0.181300 0.240200
0.222300 0.213069 0.273838
0.252200 0.244838 0.307475
0.282100 0.276606 0.341113
0.312000 0.308375 0.374750
0.131500 0.116594 0.171687
0.161400 0.148362 0.205325
0.191300 0.180131 0.238963
0.221200 0.211900 0.272600
0.251100 0.243669 0.306237
0.281000 0.275438 0.339875
0.310900 0.307206 0.373513
0.340800 0.338975 0.407150
0.370700 0.370744 0.440788
0.190200 0.178962 0.237725
0.220100 0.210731 0.271363
0.250000 0.242500 0.305000
0.279900 0.274269 0.338638
0.309800 0.306038 0.372275
0.339700 0.337806 0.405913
0.369600 0.369575 0.439550
0.399500 0.401344 0.473188
0.429400 0.433113 0.506825
0.248900 0.241331 0.303762
0.278800 0.273100 0.337400
0.308700 0.304869 0.371038
0.338600 0.336638 0.404675
0.368500 0.368406 0.438313
0.398400 0.400175 0.471950
0.428300 0.431944 0.505587
0.458200 0.463712 0.539225
0.488100 0.495481 0.572862
0.307600 0.303700 0.369800
0.337500 0.335469 0.403438
0.367400 0.367237 0.437075
0.397300 0.399006 0.470713
0.427200 0.430775 0.504350
0.457100 0.462544 0.537987
0.487000 0.494312 0.571625
0.516900 0.526081 0.605262
0.546800 0.557850 0.638900
0.366300 0.366069 0.435837
0.396200 0.397837 0.469475
0.426100 0.429606 0.503112
0.456000 0.461375 0.536750
0.485900 0.493144 0.570387
0.515800 0.524912 0.604025
0.545700 0.556681 0.637662
0.575600 0.588450 0.671300
0.605500 0.620219 0.704937
0.425000 0.428438 0.501875
0.454900 0.460206 0.535512
0.484800 0.491975 0.569150
0.514700 0.523744 0.602787
0.544600 0.555512 0.636425
0.574500 0.587281 0.670062
0.604400 0.619050 0.703700
0.634300 0.650819 0.737337
0.664200 0.682587 0.770975
0.483700 0.490806 0.567912
0.513600 0.522575 0.601550
0.543500 0.554344 0.635187
0.573400 0.586113 0.668825
0.603300 0.617881 0.702462
0.633200 0.649650 0.736100
0.663100 0.681419 0.769737
0.693000 0.713187 0.803375
0.722900 0.744956 0.837012
0.542400 0.553175 0.633950
0.572300 0.584944 0.667588
0.602200 0.616712 0.701225
0.632100 0.648481 0.734862
0.662000 0.680250 0.768500
0.691900 0.712019 0.802137
0.721800 0.743788 0.835775
0.751700 0.775556 0.869412
0.781600 0.807325 0.903050
0.084200 0.066337 0.118475
0.114100 0.098106 0.152113
0.144000 0.129875 0.185750
0.173900 0.161644 0.219388
0.203800 0.193412 0.253025
0.233700 0.225181 0.286662
0.263600 0.256950 0.320300
0.293500 0.288719 0.353938
0.323400 0.320488 0.387575
0.142900 0.128706 0.184513
0.172800 0.160475 0.218150
0.202700 0.192244 0.251787
0.232600 0.224013 0.285425
0.262500 0.255781 0.319063
0.292400 0.287550 0.352700
0.322300 0.319319 0.386338
0.352200 0.351087 0.419975
0.382100 0.382856 0.453613
0.201600 0.191075 0.250550
0.231500 0.222844 0.284187
0.261400 0.254613 0.317825
0.291300 0.286381 0.351463
0.321200 0.318150 0.385100
0.351100 0.349919 0.418737
0.381000 0.381687 0.452375
0.410900 0.413456 0.486013
0.440800 0.445225 0.519650
0.260300 0.253444 0.316587
0.290200 0.285212 0.350225
0.320100 0.316981 0.383863
0.350000 0.348750 0.417500
0.379900 0.380519 0.451138
0.409800 0.412288 0.484775
0.439700 0.444056 0.518412
0.469600 0.475825 0.552050
0.499500 0.507594 0.585687
0.319000 0.315812 0.382625
0.348900 0.347581 0.416263
0.378800 0.379350 0.449900
0.408700 0.411119 0.483538
0.438600 0.442887 0.517175
0.468500 0.474656 0.550812
0.498400 0.506425 0.584450
0.528300 0.538194 0.618087
0.558200 0.569963 0.651725
0.377700 0.378181 0.448662
0.407600 0.409950 0.482300
0.437500 0.441719 0.515937
0.467400 0.473487 0.549575
0.497300 0.505256 0.583212
0.527200 0.537025 0.616850
0.557100 0.568794 0.650487
0.587000 0.600562 0.684125
0.616900 0.632331 0.717762
0.436400 0.440550 0.514700
0.466300 0.472319 0.548337
0.496200 0.504087 0.581975
0.526100 0.535856 0.615612
0.556000 0.567625 0.649250
0.585900 0.599394 0.682887
0.615800 0.631162 0.716525
0.645700 0.662931 0.750162
0.675600 0.694700 0.783800
0.495100 0.502919 0.580737
0.525000 0.534687 0.614375
0.554900 0.566456 0.648012
0.584800 0.598225 0.681650
0.614700 0.629994 0.715287
0.644600 0.661763 0.748925
0.674500 0.693531 0.782562
0.704400 0.725300 0.816200
0.734300 0.757069 0.849837
0.553800 0.565287 0.646775
0.583700 0.597056 0.680412
0.613600 0.628825 0.714050
0.643500 0.660594 0.747687
0.673400 0.692362 0.781325
0.703300 0.724131 0.814962
0.733200 0.755900 0.848600
0.763100 0.787669 0.882237
0.793000 0.819437 0.915875
0.095600 0.078450 0.131300
0.125500 0.110219 0.164938
0.155400 0.141987 0.198575
0.185300 0.173756 0.232212
0.215200 0.205525 0.265850
0.245100 0.237294 0.299487
0.275000 0.269062 0.333125
0.304900 0.300831 0.366762
0.334800 0.332600 0.400400
0.154300 0.140819 0.197337
0.184200 0.172587 0.230975
0.214100 0.204356 0.264613
0.244000 0.236125 0.298250
0.273900 0.267894 0.331888
0.303800 0.299662 0.365525
0.333700 0.331431 0.399163
0.363600 0.363200 0.432800
0.393500 0.394969 0.466438
0.213000 0.203187 0.263375
0.242900 0.234956 0.297013
0.272800 0.266725 0.330650
0.302700 0.298494 0.364287
0.332600 0.330263 0.397925
0.362500 0.362031 0.431562
0.392400 0.393800 0.465200
0.422300 0.425569 0.498837
0.452200 0.457338 0.532475
0.271700 0.265556 0.329412
0.301600 0.297325 0.363050
0.331500 0.329094 0.396688
0.361400 0.360862 0.430325
0.391300 0.392631 0.463962
0.421200 0.424400 0.497600
0.451100 0.456169 0.531238
0.481000 0.487938 0.564875
0.510900 0.519706 0.598513
0.330400 0.327925 0.395450
0.360300 0.359694 0.429088
0.390200 0.391462 0.462725
0.420100 0.423231 0.496363
0.450000 0.455000 0.530000
0.479900 0.486769 0.563638
0.509800 0.518537 0.597275
0.539700 0.550306 0.630912
0.569600 0.582075 0.664550
0.389100 0.390294 0.461487
0.419000 0.422062 0.495125
0.448900 0.453831 0.528762
0.478800 0.485600 0.562400
0.508700 0.517369 0.596037
0.538600 0.549138 0.629675
0.568500 0.580906 0.663312
0.598400 0.612675 0.696950
0.628300 0.644444 0.730588
0.447800 0.452662 0.527525
0.477700 0.484431 0.561163
0.507600 0.516200 0.594800
0.537500 0.547969 0.628437
0.567400 0.579738 0.662075
0.597300 0.611506 0.695712
0.627200 0.643275 0.729350
0.657100 0.675044 0.762988
0.687000 0.706813 0.796625
0.506500 0.515031 0.593562
0.536400 0.546800 0.627200
0.566300 0.578569 0.660837
0.596200 0.610338 0.694475
0.626100 0.642106 0.728112
0.656000 0.673875 0.761750
0.685900 0.705644 0.795388
0.715800 0.737413 0.829025
0.745700 0.769181 0.862662
0.565200 0.577400 0.659600
0.595100 0.609169 0.693238
0.625000 0.640938 0.726875
0.654900 0.672706 0.760513
0.684800 0.704475 0.794150
0.714700 0.736244 0.827788
0.744600 0.768013 0.861425
0.774500 0.799781 0.895062
0.804400 0.831550 0.928700
0.107000 0.090563 0.144125
0.136900 0.122331 0.177762
0.166800 0.154100 0.211400
0.196700 0.185869 0.245038
0.226600 0.217637 0.278675
0.256500 0.249406 0.312312
0.286400 0.281175 0.345950
0.316300 0.312944 0.379588
0.346200 0.344712 0.413225
0.165700 0.152931 0.210163
0.195600 0.184700 0.243800
0.225500 0.216469 0.277438
0.255400 0.248238 0.311075
0.285300 0.280006 0.344712
0.315200 0.311775 0.378350
0.345100 0.343544 0.411988
0.375000 0.375312 0.445625
0.404900 0.407081 0.479263
0.224400 0.215300 0.276200
0.254300 0.247069 0.309838
0.284200 0.278837 0.343475
0.314100 0.310606 0.377113
0.344000 0.342375 0.410750
0.373900 0.374144 0.444387
0.403800 0.405913 0.478025
0.433700 0.437681 0.511663
0.463600 0.469450 0.545300
0.283100 0.277669 0.342238
0.313000 0.309438 0.375875
0.342900 0.341206 0.409513
0.372800 0.372975 0.443150
0.402700 0.404744 0.476788
0.432600 0.436512 0.510425
0.462500 0.468281 0.544063
0.492400 0.500050 0.577700
0.522300 0.531819 0.611337
0.341800 0.340037 0.408275
0.371700 0.371806 0.441912
0.401600 0.403575 0.475550
0.431500 0.435344 0.509188
0.461400 0.467112 0.542825
0.491300 0.498881 0.576462
0.521200 0.530650 0.610100
0.551100 0.562419 0.643737
0.581000 0.594188 0.677375
0.400500 0.402406 0.474313
0.430400 0.434175 0.507950
0.460300 0.465944 0.541587
0.490200 0.497713 0.575225
0.520100 0.529481 0.608862
0.550000 0.561250 0.642500
0.579900 0.593019 0.676137
0.609800 0.624788 0.709775
0.639700 0.656556 0.743413
0.459200 0.464775 0.540350
0.489100 0.496544 0.573987
0.519000 0.528313 0.607625
0.548900 0.560081 0.641262
0.578800 0.591850 0.674900
0.608700 0.623619 0.708537
0.638600 0.655388 0.742175
0.668500 0.687156 0.775813
0.698400 0.718925 0.809450
0.517900 0.527144 0.606387
0.547800 0.558913 0.640025
0.577700 0.590681 0.673662
0.607600 0.622450 0.707300
0.637500 0.654219 0.740938
0.667400 0.685988 0.774575
0.697300 0.717756 0.808213
0.727200 0.749525 0.841850
0.757100 0.781294 0.875487
0.576600 0.589512 0.672425
0.606500 0.621281 0.706063
0.636400 0.653050 0.739700
0.666300 0.684819 0.773338
0.696200 0.716587 0.806975
0.726100 0.748356 0.840612
0.756000 0.780125 0.874250
0.785900 0.811894 0.907887
0.815800 0.843662 0.941525
0.118400 0.102675 0.156950
0.148300 0.134444 0.190588
0.178200 0.166212 0.224225
0.208100 0.197981 0.257862
0.238000 0.229750 0.291500
0.267900 0.261519 0.325137
0.297800 0.293288 0.358775
0.327700 0.325056 0.392413
0.357600 0.356825 0.426050
0.177100 0.165044 0.222988
0.207000 0.196812 0.256625
0.236900 0.228581 0.290263
0.266800 0.260350 0.323900
0.296700 0.292119 0.357538
0.326600 0.323887 0.391175
0.356500 0.355656 0.424813
0.386400 0.387425 0.458450
0.416300 0.419194 0.492088
0.235800 0.227413 0.289025
0.265700 0.259181 0.322663
0.295600 0.290950 0.356300
0.325500 0.322719 0.389937
0.355400 0.354488 0.423575
0.385300 0.386256 0.457213
0.415200 0.418025 0.490850
0.445100 0.449794 0.524487
0.475000 0.481563 0.558125
0.294500 0.289781 0.355063
0.324400 0.321550 0.388700
0.354300 0.353319 0.422338
0.384200 0.385088 0.455975
0.414100 0.416856 0.489613
0.444000 0.448625 0.523250
0.473900 0.480394 0.556887
0.503800 0.512162 0.590525
0.533700 0.543931 0.624162
0.353200 0.352150 0.421100
0.383100 0.383919 0.454738
0.413000 0.415687 0.488375
0.442900 0.447456 0.522012
0.472800 0.479225 0.555650
0.502700 0.510994 0.589287
0.532600 0.542762 0.622925
0.562500 0.574531 0.656562
0.592400 0.606300 0.690200
0.411900 0.414519 0.487138
0.441800 0.446287 0.520775
0.471700 0.478056 0.554412
0.501600 0.509825 0.588050
0.531500 0.541594 0.621687
0.561400 0.573362 0.655325
0.591300 0.605131 0.688962
0.621200 0.636900 0.722600
0.651100 0.668669 0.756238
0.470600 0.476887 0.553175
0.500500 0.508656 0.586812
0.530400 0.540425 0.620450
0.560300 0.572194 0.654087
0.590200 0.603963 0.687725
0.620100 0.635731 0.721362
0.650000 0.667500 0.755000
0.679900 0.699269 0.788637
0.709800 0.731038 0.822275
0.529300 0.539256 0.619212
0.559200 0.571025 0.652850
0.589100 0.602794 0.686488
0.619000 0.634563 0.720125
0.648900 0.666331 0.753763
0.678800 0.698100 0.787400
0.708700 0.729869 0.821038
0.738600 0.761637 0.854675
0.768500 0.793406 0.888312
0.588000 0.601625 0.685250
0.617900 0.633394 0.718888
0.647800 0.665162 0.752525
0.677700 0.696931 0.786162
0.707600 0.728700 0.819800
0.737500 0.760469 0.853437
0.767400 0.792238 0.887075
0.797300 0.824006 0.920712
0.827200 0.855775 0.954350
0.129800 0.114788 0.169775
0.159700 0.146556 0.203412
0.189600 0.178325 0.237050
0.219500 0.210094 0.270688
0.249400 0.241862 0.304325
0.279300 0.273631 0.337963
0.309200 0.305400 0.371600
0.339100 0.337169 0.405238
0.369000 0.368938 0.438875
0.188500 0.177156 0.235812
0.218400 0.208925 0.269450
0.248300 0.240694 0.303088
0.278200 0.272462 0.336725
0.308100 0.304231 0.370363
0.338000 0.336000 0.404000
0.367900 0.367769 0.437638
0.397800 0.399537 0.471275
0.427700 0.431306 0.504912
0.247200 0.239525 0.301850
0.277100 0.271294 0.335487
0.307000 0.303063 0.369125
0.336900 0.334831 0.402763
0.366800 0.366600 0.436400
0.396700 0.398369 0.470037
0.426600 0.430137 0.503675
0.456500 0.461906 0.537312
0.486400 0.493675 0.570950
0.305900 0.301894 0.367888
0.335800 0.333662 0.401525
0.365700 0.365431 0.435163
0.395600 0.397200 0.468800
0.425500 0.428969 0.502437
0.455400 0.460738 0.536075
0.485300 0.492506 0.569712
0.515200 0.524275 0.603350
0.545100 0.556044 0.636987
0.364600 0.364262 0.433925
0.394500 0.396031 0.467562
0.424400 0.427800 0.501200
0.454300 0.459569 0.534837
0.484200 0.491337 0.568475
0.514100 0.523106 0.602112
0.544000 0.554875 0.635750
0.573900 0.586644 0.669387
0.603800 0.618413 0.703025
0.423300 0.426631 0.499962
0.453200 0.458400 0.533600
0.483100 0.490169 0.567237
0.513000 0.521937 0.600875
0.542900 0.553706 0.634512
0.572800 0.585475 0.668150
0.602700 0.617244 0.701787
0.632600 0.649012 0.735425
0.662500 0.680781 0.769062
0.482000 0.489000 0.566000
0.511900 0.520769 0.599637
0.541800 0.552538 0.633275
0.571700 0.584306 0.666912
0.601600 0.616075 0.700550
0.631500 0.647844 0.734187
0.661400 0.679612 0.767825
0.691300 0.711381 0.801462
0.721200 0.743150 0.835100
0.540700 0.551369 0.632038
0.570600 0.583138 0.665675
0.600500 0.614906 0.699313
0.630400 0.646675 0.732950
0.660300 0.678444 0.766587
0.690200 0.710213 0.800225
0.720100 0.741981 0.833863
0.750000 0.773750 0.867500
0.779900 0.805519 0.901137
0.599400 0.613737 0.698075
0.629300 0.645506 0.731712
0.659200 0.677275 0.765350
0.689100 0.709044 0.798987
0.719000 0.740812 0.832625
0.748900 0.772581 0.866262
0.778800 0.804350 0.899900
0.808700 0.836119 0.933537
0.838600 0.867887 0.967175
0.141200 0.126900 0.182600
0.171100 0.158669 0.216238
0.201000 0.190437 0.249875
0.230900 0.222206 0.283513
0.260800 0.253975 0.317150
0.290700 0.285744 0.350788
0.320600 0.317512 0.384425
0.350500 0.349281 0.418063
0.380400 0.381050 0.451700
0.199900 0.189269 0.248638
0.229800 0.221037 0.282275
0.259700 0.252806 0.315912
0.289600 0.284575 0.349550
0.319500 0.316344 0.383188
0.349400 0.348112 0.416825
0.379300 0.379881 0.450463
0.409200 0.411650 0.484100
0.439100 0.443419 0.517737
0.258600 0.251637 0.314675
0.288500 0.283406 0.348313
0.318400 0.315175 0.381950
0.348300 0.346944 0.415587
0.378200 0.378713 0.449225
0.408100 0.410481 0.482862
0.438000 0.442250 0.516500
0.467900 0.474019 0.550138
0.497800 0.505787 0.583775
0.317300 0.314006 0.380713
0.347200 0.345775 0.414350
0.377100 0.377544 0.447988
0.407000 0.409312 0.481625
0.436900 0.441081 0.515262
0.466800 0.472850 0.548900
0.496700 0.504619 0.582537
0.526600 0.536388 0.616175
0.556500 0.568156 0.649812
0.376000 0.376375 0.446750
0.405900 0.408144 0.480387
0.435800 0.439912 0.514025
0.465700 0.471681 0.547663
0.495600 0.503450 0.581300
0.525500 0.535219 0.614937
0.555400 0.566987 0.648575
0.585300 0.598756 0.682212
0.615200 0.630525 0.715850
0.434700 0.438744 0.512787
0.464600 0.470513 0.546425
0.494500 0.502281 0.580062
0.524400 0.534050 0.613700
0.554300 0.565819 0.647337
0.584200 0.597587 0.680975
0.614100 0.629356 0.714612
0.644000 0.661125 0.748250
0.673900 0.692894 0.781887
0.493400 0.501112 0.578825
0.523300 0.532881 0.612462
0.553200 0.564650 0.646100
0.583100 0.596419 0.679737
0.613000 0.628188 0.713375
0.642900 0.659956 0.747012
0.672800 0.691725 0.780650
0.702700 0.723494 0.814287
0.732600 0.755262 0.847925
0.552100 0.563481 0.644863
0.582000 0.595250 0.678500
0.611900 0.627019 0.712137
0.641800 0.658788 0.745775
0.671700 0.690556 0.779412
0.701600 0.722325 0.813050
0.731500 0.754094 0.846688
0.761400 0.785863 0.880325
0.791300 0.817631 0.913962
0.610800 0.625850 0.710900
0.640700 0.657619 0.744537
0.670600 0.689387 0.778175
0.700500 0.721156 0.811812
0.730400 0.752925 0.845450
0.760300 0.784694 0.879087
0.790200 0.816462 0.912725
0.820100 0.848231 0.946362
0.850000 0.880000 0.980000
