assets/luts/film_noir_bw.cube
TITLE "Film Noir B&W"
LUT_3D_SIZE 17
DOMAIN_MIN 0.0 0.0 0.0
DOMAIN_MAX 1.0 1.0 1.0
-0.150000 -0.150000 -0.150000
-0.125706 -0.125706 -0.125706
-0.101413 -0.101413 -0.101413
-0.077119 -0.077119 -0.077119
-0.052825 -0.052825 -0.052825
-0.028531 -0.028531 -0.028531
-0.004238 -0.004238 -0.004238
0.020056 0.020056 0.020056
0.044350 0.044350 0.044350
0.068644 0.068644 0.068644
0.092938 0.092938 0.092938
0.117231 0.117231 0.117231
0.141525 0.141525 0.141525
0.165819 0.165819 0.165819
0.190112 0.190112 0.190112
0.214406 0.214406 0.214406
0.238700 0.238700 0.238700
-0.102306 -0.102306 -0.102306
-0.078013 -0.078013 -0.078013
-0.053719 -0.053719 -0.053719
-0.029425 -0.029425 -0.029425
-0.005131 -0.005131 -0.005131
0.019162 0.019162 0.019162
0.043456 0.043456 0.043456
0.067750 0.067750 0.067750
0.092044 0.092044 0.092044
0.116337 0.116337 0.116337
0.140631 0.140631 0.140631
0.164925 0.164925 0.164925
0.189219 0.189219 0.189219
0.213512 0.213512 0.213512
0.237806 0.237806 0.237806
0.262100 0.262100 0.262100
0.286394 0.286394 0.286394
-0.054613 -0.054613 -0.054613
-0.030319 -0.030319 -0.030319
-0.006025 -0.006025 -0.006025
0.018269 0.018269 0.018269
0.042563 0.042563 0.042563
0.066856 0.066856 0.066856
0.091150 0.091150 0.091150
0.115444 0.115444 0.115444
0.139737 0.139737 0.139737
0.164031 0.164031 0.164031
0.188325 0.188325 0.188325
0.212619 0.212619 0.212619
0.236913 0.236913 0.236913
0.261206 0.261206 0.261206
0.285500 0.285500 0.285500
0.309794 0.309794 0.309794
0.334087 0.334087 0.334087
-0.006919 -0.006919 -0.006919
0.017375 0.017375 0.017375
0.041669 0.041669 0.041669
0.065962 0.065962 0.065962
0.090256 0.090256 0.090256
0.114550 0.114550 0.114550
0.138844 0.138844 0.138844
0.163137 0.163137 0.163137
0.187431 0.187431 0.187431
0.211725 0.211725 0.211725
0.236019 0.236019 0.236019
0.260312 0.260312 0.260312
0.284606 0.284606 0.284606
0.308900 0.308900 0.308900
0.333194 0.333194 0.333194
0.357487 0.357487 0.357487
0.381781 0.381781 0.381781
0.040775 0.040775 0.040775
0.065069 0.065069 0.065069
0.089362 0.089362 0.089362
0.113656 0.113656 0.113656
0.137950 0.137950 0.137950
0.162244 0.162244 0.162244
0.186537 0.186537 0.186537
0.210831 0.210831 0.210831
0.235125 0.235125 0.235125
0.259419 0.259419 0.259419
0.283712 0.283712 0.283712
0.308006 0.308006 0.308006
0.332300 0.332300 0.332300
0.356594 0.356594 0.356594
0.380887 0.380887 0.380887
0.405181 0.405181 0.405181
0.429475 0.429475 0.429475
0.088469 0.088469 0.088469
0.112762 0.112762 0.112762
0.137056 0.137056 0.137056
0.161350 0.161350 0.161350
0.185644 0.185644 0.185644
0.209937 0.209937 0.209937
0.234231 0.234231 0.234231
0.258525 0.258525 0.258525
0.282819 0.282819 0.282819
0.307112 0.307112 0.307112
0.331406 0.331406 0.331406
0.355700 0.355700 0.355700
0.379994 0.379994 0.379994
0.404287 0.404287 0.404287
0.428581 0.428581 0.428581
0.452875 0.452875 0.452875
0.477169 0.477169 0.477169
0.136163 0.136163 0.136163
0.160456 0.160456 0.160456
0.184750 0.184750 0.184750
0.209044 0.209044 0.209044
0.233337 0.233337 0.233337
0.257631 0.257631 0.257631
0.281925 0.281925 0.281925
0.306219 0.306219 0.306219
0.330512 0.330512 0.330512
0.354806 0.354806 0.354806
0.379100 0.379100 0.379100
0.403394 0.403394 0.403394
0.427687 0.427687 0.427687
0.451981 0.451981 0.451981
0.476275 0.476275 0.476275
0.500569 0.500569 0.500569
0.524862 0.524862 0.524862
0.183856 0.183856 0.183856
0.208150 0.208150 0.208150
0.232444 0.232444 0.232444
0.256738 0.256738 0.256738
0.281031 0.281031 0.281031
0.305325 0.305325 0.305325
0.329619 0.329619 0.329619
0.353912 0.353912 0.353912
0.378206 0.378206 0.378206
0.402500 0.402500 0.402500
0.426794 0.426794 0.426794
0.451087 0.451087 0.451087
0.475381 0.475381 0.475381
0.499675 0.499675 0.499675
0.523969 0.523969 0.523969
0.548262 0.548262 0.548262
0.572556 0.572556 0.572556
0.231550 0.231550 0.231550
0.255844 0.255844 0.255844
0.280137 0.280137 0.280137
0.304431 0.304431 0.304431
0.328725 0.328725 0.328725
0.353019 0.353019 0.353019
0.377312 0.377312 0.377312
0.401606 0.401606 0.401606
0.425900 0.425900 0.425900
0.450194 0.450194 0.450194
0.474488 0.474488 0.474488
0.498781 0.498781 0.498781
0.523075 0.523075 0.523075
0.547369 0.547369 0.547369
0.571662 0.571662 0.571662
0.595956 0.595956 0.595956
0.620250 0.620250 0.620250
0.279244 0.279244 0.279244
0.303538 0.303538 0.303538
0.327831 0.327831 0.327831
0.352125 0.352125 0.352125
0.376419 0.376419 0.376419
0.400712 0.400712 0.400712
0.425006 0.425006 0.425006
0.449300 0.449300 0.449300
0.473594 0.473594 0.473594
0.497887 0.497887 0.497887
0.522181 0.522181 0.522181
0.546475 0.546475 0.546475
0.570769 0.570769 0.570769
0.595063 0.595063 0.595063
0.619356 0.619356 0.619356
0.643650 0.643650 0.643650
0.667944 0.667944 0.667944
0.326937 0.326937 0.326937
0.351231 0.351231 0.351231
0.375525 0.375525 0.375525
0.399819 0.399819 0.399819
0.424112 0.424112 0.424112
0.448406 0.448406 0.448406
0.472700 0.472700 0.472700
0.496994 0.496994 0.496994
0.521287 0.521287 0.521287
0.545581 0.545581 0.545581
0.569875 0.569875 0.569875
0.594169 0.594169 0.594169
0.618462 0.618462 0.618462
0.642756 0.642756 0.642756
0.667050 0.667050 0.667050
0.691344 0.691344 0.691344
0.715638 0.715638 0.715638
0.374631 0.374631 0.374631
0.398925 0.398925 0.398925
0.423219 0.423219 0.423219
0.447512 0.447512 0.447512
0.471806 0.471806 0.471806
0.496100 0.496100 0.496100
0.520394 0.520394 0.520394
0.544688 0.544688 0.544688
0.568981 0.568981 0.568981
0.593275 0.593275 0.593275
0.617569 0.617569 0.617569
0.641862 0.641862 0.641862
0.666156 0.666156 0.666156
0.690450 0.690450 0.690450
0.714744 0.714744 0.714744
0.739038 0.739038 0.739038
0.763331 0.763331 0.763331
0.422325 0.422325 0.422325
0.446619 0.446619 0.446619
0.470912 0.470912 0.470912
0.495206 0.495206 0.495206
0.519500 0.519500 0.519500
0.543794 0.543794 0.543794
0.568087 0.568087 0.568087
0.592381 0.592381 0.592381
0.616675 0.616675 0.616675
0.640969 0.640969 0.640969
0.665262 0.665262 0.665262
0.689556 0.689556 0.689556
0.713850 0.713850 0.713850
0.738144 0.738144 0.738144
0.762438 0.762438 0.762438
0.786731 0.786731 0.786731
0.811025 0.811025 0.811025
0.470019 0.470019 0.470019
0.494312 0.494312 0.494312
0.518606 0.518606 0.518606
0.542900 0.542900 0.542900
0.567194 0.567194 0.567194
0.591487 0.591487 0.591487
0.615781 0.615781 0.615781
0.640075 0.640075 0.640075
0.664369 0.664369 0.664369
0.688662 0.688662 0.688662
0.712956 0.712956 0.712956
0.737250 0.737250 0.737250
0.761544 0.761544 0.761544
0.785837 0.785837 0.785837
0.810131 0.810131 0.810131
0.834425 0.834425 0.834425
0.858719 0.858719 0.858719
0.517713 0.517713 0.517713
0.542006 0.542006 0.542006
0.566300 0.566300 0.566300
0.590594 0.590594 0.590594
0.614888 0.614888 0.614888
0.639181 0.639181 0.639181
0.663475 0.663475 0.663475
0.687769 0.687769 0.687769
0.712062 0.712062 0.712062
0.736356 0.736356 0.736356
0.760650 0.760650 0.760650
0.784944 0.784944 0.784944
0.809238 0.809238 0.809238
0.833531 0.833531 0.833531
0.857825 0.857825 0.857825
0.882119 0.882119 0.882119
0.906412 0.906412 0.906412
0.565406 0.565406 0.565406
0.589700 0.589700 0.589700
0.613994 0.613994 0.613994
0.638288 0.638288 0.638288
0.662581 0.662581 0.662581
0.686875 0.686875 0.686875
0.711169 0.711169 0.711169
0.735463 0.735463 0.735463
0.759756 0.759756 0.759756
0.784050 0.784050 0.784050
0.808344 0.808344 0.808344
0.832637 0.832637 0.832637
0.856931 0.856931 0.856931
0.881225 0.881225 0.881225
0.905519 0.905519 0.905519
0.929812 0.929812 0.929812
0.954106 0.954106 0.954106
0.613100 0.613100 0.613100
0.637394 0.637394 0.637394
0.661687 0.661687 0.661687
0.685981 0.685981 0.685981
0.710275 0.710275 0.710275
0.734569 0.734569 0.734569
0.758862 0.758862 0.758862
0.783156 0.783156 0.783156
0.807450 0.807450 0.807450
0.831744 0.831744 0.831744
0.856038 0.856038 0.856038
0.880331 0.880331 0.880331
0.904625 0.904625 0.904625
0.928919 0.928919 0.928919
0.953213 0.953213 0.953213
0.977506 0.977506 0.977506
1.001800 1.001800 1.001800
-0.140738 -0.140738 -0.140738
-0.116444 -0.116444 -0.116444
-0.092150 -0.092150 -0.092150
-0.067856 -0.067856 -0.067856
-0.043562 -0.043562 -0.043562
-0.019269 -0.019269 -0.019269
0.005025 0.005025 0.005025
0.029319 0.029319 0.029319
0.053613 0.053613 0.053613
0.077906 0.077906 0.077906
0.102200 0.102200 0.102200
0.126494 0.126494 0.126494
0.150787 0.150787 0.150787
0.175081 0.175081 0.175081
0.199375 0.199375 0.199375
0.223669 0.223669 0.223669
0.247962 0.247962 0.247962
-0.093044 -0.093044 -0.093044
-0.068750 -0.068750 -0.068750
-0.044456 -0.044456 -0.044456
-0.020163 -0.020163 -0.020163
0.004131 0.004131 0.004131
0.028425 0.028425 0.028425
0.052719 0.052719 0.052719
0.077012 0.077012 0.077012
0.101306 0.101306 0.101306
0.125600 0.125600 0.125600
0.149894 0.149894 0.149894
0.174187 0.174187 0.174187
0.198481 0.198481 0.198481
0.222775 0.222775 0.222775
0.247069 0.247069 0.247069
0.271362 0.271362 0.271362
0.295656 0.295656 0.295656
-0.045350 -0.045350 -0.045350
-0.021056 -0.021056 -0.021056
0.003238 0.003238 0.003238
0.027531 0.027531 0.027531
0.051825 0.051825 0.051825
0.076119 0.076119 0.076119
0.100412 0.100412 0.100412
0.124706 0.124706 0.124706
0.149000 0.149000 0.149000
0.173294 0.173294 0.173294
0.197587 0.197587 0.197587
0.221881 0.221881 0.221881
0.246175 0.246175 0.246175
0.270469 0.270469 0.270469
0.294762 0.294762 0.294762
0.319056 0.319056 0.319056
0.343350 0.343350 0.343350
0.002344 0.002344 0.002344
0.026637 0.026637 0.026637
0.050931 0.050931 0.050931
0.075225 0.075225 0.075225
0.099519 0.099519 0.099519
0.123812 0.123812 0.123812
0.148106 0.148106 0.148106
0.172400 0.172400 0.172400
0.196694 0.196694 0.196694
0.220988 0.220988 0.220988
0.245281 0.245281 0.245281
0.269575 0.269575 0.269575
0.293869 0.293869 0.293869
0.318162 0.318162 0.318162
0.342456 0.342456 0.342456
0.366750 0.366750 0.366750
0.391044 0.391044 0.391044
0.050037 0.050037 0.050037
0.074331 0.074331 0.074331
0.098625 0.098625 0.098625
0.122919 0.122919 0.122919
0.147212 0.147212 0.147212
0.171506 0.171506 0.171506
0.195800 0.195800 0.195800
0.220094 0.220094 0.220094
0.244387 0.244387 0.244387
0.268681 0.268681 0.268681
0.292975 0.292975 0.292975
0.317269 0.317269 0.317269
0.341562 0.341562 0.341562
0.365856 0.365856 0.365856
0.390150 0.390150 0.390150
0.414444 0.414444 0.414444
0.438737 0.438737 0.438737
0.097731 0.097731 0.097731
0.122025 0.122025 0.122025
0.146319 0.146319 0.146319
0.170612 0.170612 0.170612
0.194906 0.194906 0.194906
0.219200 0.219200 0.219200
0.243494 0.243494 0.243494
0.267787 0.267787 0.267787
0.292081 0.292081 0.292081
0.316375 0.316375 0.316375
0.340669 0.340669 0.340669
0.364962 0.364962 0.364962
0.389256 0.389256 0.389256
0.413550 0.413550 0.413550
0.437844 0.437844 0.437844
0.462137 0.462137 0.462137
0.486431 0.486431 0.486431
0.145425 0.145425 0.145425
0.169719 0.169719 0.169719
0.194012 0.194012 0.194012
0.218306 0.218306 0.218306
0.242600 0.242600 0.242600
0.266894 0.266894 0.266894
0.291187 0.291187 0.291187
0.315481 0.315481 0.315481
0.339775 0.339775 0.339775
0.364069 0.364069 0.364069
0.388362 0.388362 0.388362
0.412656 0.412656 0.412656
0.436950 0.436950 0.436950
0.461244 0.461244 0.461244
0.485538 0.485538 0.485538
0.509831 0.509831 0.509831
0.534125 0.534125 0.534125
0.193119 0.193119 0.193119
0.217413 0.217413 0.217413
0.241706 0.241706 0.241706
0.266000 0.266000 0.266000
0.290294 0.290294 0.290294
0.314588 0.314588 0.314588
0.338881 0.338881 0.338881
0.363175 0.363175 0.363175
0.387469 0.387469 0.387469
0.411762 0.411762 0.411762
0.436056 0.436056 0.436056
0.460350 0.460350 0.460350
0.484644 0.484644 0.484644
0.508938 0.508938 0.508938
0.533231 0.533231 0.533231
0.557525 0.557525 0.557525
0.581819 0.581819 0.581819
0.240812 0.240812 0.240812
0.265106 0.265106 0.265106
0.289400 0.289400 0.289400
0.313694 0.313694 0.313694
0.337987 0.337987 0.337987
0.362281 0.362281 0.362281
0.386575 0.386575 0.386575
0.410869 0.410869 0.410869
0.435162 0.435162 0.435162
0.459456 0.459456 0.459456
0.483750 0.483750 0.483750
0.508044 0.508044 0.508044
0.532338 0.532338 0.532338
0.556631 0.556631 0.556631
0.580925 0.580925 0.580925
0.605219 0.605219 0.605219
0.629513 0.629513 0.629513
0.288506 0.288506 0.288506
0.312800 0.312800 0.312800
0.337094 0.337094 0.337094
0.361387 0.361387 0.361387
0.385681 0.385681 0.385681
0.409975 0.409975 0.409975
0.434269 0.434269 0.434269
0.458562 0.458562 0.458562
0.482856 0.482856 0.482856
0.507150 0.507150 0.507150
0.531444 0.531444 0.531444
0.555737 0.555737 0.555737
0.580031 0.580031 0.580031
0.604325 0.604325 0.604325
0.628619 0.628619 0.628619
0.652913 0.652913 0.652913
0.677206 0.677206 0.677206
0.336200 0.336200 0.336200
0.360494 0.360494 0.360494
0.384787 0.384787 0.384787
0.409081 0.409081 0.409081
0.433375 0.433375 0.433375
0.457669 0.457669 0.457669
0.481962 0.481962 0.481962
0.506256 0.506256 0.506256
0.530550 0.530550 0.530550
0.554844 0.554844 0.554844
0.579137 0.579137 0.579137
0.603431 0.603431 0.603431
0.627725 0.627725 0.627725
0.652019 0.652019 0.652019
0.676312 0.676312 0.676312
0.700606 0.700606 0.700606
0.724900 0.724900 0.724900
0.383894 0.383894 0.383894
0.408188 0.408188 0.408188
0.432481 0.432481 0.432481
0.456775 0.456775 0.456775
0.481069 0.481069 0.481069
0.505363 0.505363 0.505363
0.529656 0.529656 0.529656
0.553950 0.553950 0.553950
0.578244 0.578244 0.578244
0.602538 0.602538 0.602538
0.626831 0.626831 0.626831
0.651125 0.651125 0.651125
0.675419 0.675419 0.675419
0.699712 0.699712 0.699712
0.724006 0.724006 0.724006
0.748300 0.748300 0.748300
0.772594 0.772594 0.772594
0.431587 0.431587 0.431587
0.455881 0.455881 0.455881
0.480175 0.480175 0.480175
0.504469 0.504469 0.504469
0.528763 0.528763 0.528763
0.553056 0.553056 0.553056
0.577350 0.577350 0.577350
0.601644 0.601644 0.601644
0.625938 0.625938 0.625938
0.650231 0.650231 0.650231
0.674525 0.674525 0.674525
0.698819 0.698819 0.698819
0.723113 0.723113 0.723113
0.747406 0.747406 0.747406
0.771700 0.771700 0.771700
0.795994 0.795994 0.795994
0.820288 0.820288 0.820288
0.479281 0.479281 0.479281
0.503575 0.503575 0.503575
0.527869 0.527869 0.527869
0.552163 0.552163 0.552163
0.576456 0.576456 0.576456
0.600750 0.600750 0.600750
0.625044 0.625044 0.625044
0.649338 0.649338 0.649338
0.673631 0.673631 0.673631
0.697925 0.697925 0.697925
0.722219 0.722219 0.722219
0.746512 0.746512 0.746512
0.770806 0.770806 0.770806
0.795100 0.795100 0.795100
0.819394 0.819394 0.819394
0.843688 0.843688 0.843688
0.867981 0.867981 0.867981
0.526975 0.526975 0.526975
0.551269 0.551269 0.551269
0.575563 0.575563 0.575563
0.599856 0.599856 0.599856
0.624150 0.624150 0.624150
0.648444 0.648444 0.648444
0.672738 0.672738 0.672738
0.697031 0.697031 0.697031
0.721325 0.721325 0.721325
0.745619 0.745619 0.745619
0.769913 0.769913 0.769913
0.794206 0.794206 0.794206
0.818500 0.818500 0.818500
0.842794 0.842794 0.842794
0.867088 0.867088 0.867088
0.891381 0.891381 0.891381
0.915675 0.915675 0.915675
0.574669 0.574669 0.574669
0.598962 0.598962 0.598962
0.623256 0.623256 0.623256
0.647550 0.647550 0.647550
0.671844 0.671844 0.671844
0.696137 0.696137 0.696137
0.720431 0.720431 0.720431
0.744725 0.744725 0.744725
0.769019 0.769019 0.769019
0.793312 0.793312 0.793312
0.817606 0.817606 0.817606
0.841900 0.841900 0.841900
0.866194 0.866194 0.866194
0.890488 0.890488 0.890488
0.914781 0.914781 0.914781
0.939075 0.939075 0.939075
0.963369 0.963369 0.963369
0.622363 0.622363 0.622363
0.646656 0.646656 0.646656
0.670950 0.670950 0.670950
0.695244 0.695244 0.695244
0.719537 0.719537 0.719537
0.743831 0.743831 0.743831
0.768125 0.768125 0.768125
0.792419 0.792419 0.792419
0.816712 0.816712 0.816712
0.841006 0.841006 0.841006
0.865300 0.865300 0.865300
0.889594 0.889594 0.889594
0.913888 0.913888 0.913888
0.938181 0.938181 0.938181
0.962475 0.962475 0.962475
0.986769 0.986769 0.986769
1.011062 1.011062 1.011062
-0.131475 -0.131475 -0.131475
-0.107181 -0.107181 -0.107181
-0.082888 -0.082888 -0.082888
-0.058594 -0.058594 -0.058594
-0.034300 -0.034300 -0.034300
-0.010006 -0.010006 -0.010006
0.014288 0.014288 0.014288
0.038581 0.038581 0.038581
0.062875 0.062875 0.062875
0.087169 0.087169 0.087169
0.111462 0.111462 0.111462
0.135756 0.135756 0.135756
0.160050 0.160050 0.160050
0.184344 0.184344 0.184344
0.208637 0.208637 0.208637
0.232931 0.232931 0.232931
0.257225 0.257225 0.257225
-0.083781 -0.083781 -0.083781
-0.059488 -0.059488 -0.059488
-0.035194 -0.035194 -0.035194
-0.010900 -0.010900 -0.010900
0.013394 0.013394 0.013394
0.037688 0.037688 0.037688
0.061981 0.061981 0.061981
0.086275 0.086275 0.086275
0.110569 0.110569 0.110569
0.134862 0.134862 0.134862
0.159156 0.159156 0.159156
0.183450 0.183450 0.183450
0.207744 0.207744 0.207744
0.232038 0.232038 0.232038
0.256331 0.256331 0.256331
0.280625 0.280625 0.280625
0.304919 0.304919 0.304919
-0.036088 -0.036088 -0.036088
-0.011794 -0.011794 -0.011794
0.012500 0.012500 0.012500
0.036794 0.036794 0.036794
0.061088 0.061088 0.061088
0.085381 0.085381 0.085381
0.109675 0.109675 0.109675
0.133969 0.133969 0.133969
0.158263 0.158263 0.158263
0.182556 0.182556 0.182556
0.206850 0.206850 0.206850
0.231144 0.231144 0.231144
0.255437 0.255437 0.255437
0.279731 0.279731 0.279731
0.304025 0.304025 0.304025
0.328319 0.328319 0.328319
0.352612 0.352612 0.352612
0.011606 0.011606 0.011606
0.035900 0.035900 0.035900
0.060194 0.060194 0.060194
0.084487 0.084487 0.084487
0.108781 0.108781 0.108781
0.133075 0.133075 0.133075
0.157369 0.157369 0.157369
0.181663 0.181663 0.181663
0.205956 0.205956 0.205956
0.230250 0.230250 0.230250
0.254544 0.254544 0.254544
0.278837 0.278837 0.278837
0.303131 0.303131 0.303131
0.327425 0.327425 0.327425
0.351719 0.351719 0.351719
0.376012 0.376012 0.376012
0.400306 0.400306 0.400306
0.059300 0.059300 0.059300
0.083594 0.083594 0.083594
0.107887 0.107887 0.107887
0.132181 0.132181 0.132181
0.156475 0.156475 0.156475
0.180769 0.180769 0.180769
0.205062 0.205062 0.205062
0.229356 0.229356 0.229356
0.253650 0.253650 0.253650
0.277944 0.277944 0.277944
0.302237 0.302237 0.302237
0.326531 0.326531 0.326531
0.350825 0.350825 0.350825
0.375119 0.375119 0.375119
0.399412 0.399412 0.399412
0.423706 0.423706 0.423706
0.448000 0.448000 0.448000
0.106994 0.106994 0.106994
0.131287 0.131287 0.131287
0.155581 0.155581 0.155581
0.179875 0.179875 0.179875
0.204169 0.204169 0.204169
0.228462 0.228462 0.228462
0.252756 0.252756 0.252756
0.277050 0.277050 0.277050
0.301344 0.301344 0.301344
0.325637 0.325637 0.325637
0.349931 0.349931 0.349931
0.374225 0.374225 0.374225
0.398519 0.398519 0.398519
0.422812 0.422812 0.422812
0.447106 0.447106 0.447106
0.471400 0.471400 0.471400
0.495694 0.495694 0.495694
0.154687 0.154687 0.154687
0.178981 0.178981 0.178981
0.203275 0.203275 0.203275
0.227569 0.227569 0.227569
0.251862 0.251862 0.251862
0.276156 0.276156 0.276156
0.300450 0.300450 0.300450
0.324744 0.324744 0.324744
0.349037 0.349037 0.349037
0.373331 0.373331 0.373331
0.397625 0.397625 0.397625
0.421919 0.421919 0.421919
0.446212 0.446212 0.446212
0.470506 0.470506 0.470506
0.494800 0.494800 0.494800
0.519094 0.519094 0.519094
0.543387 0.543387 0.543387
0.202381 0.202381 0.202381
0.226675 0.226675 0.226675
0.250969 0.250969 0.250969
0.275262 0.275262 0.275262
0.299556 0.299556 0.299556
0.323850 0.323850 0.323850
0.348144 0.348144 0.348144
0.372437 0.372437 0.372437
0.396731 0.396731 0.396731
0.421025 0.421025 0.421025
0.445319 0.445319 0.445319
0.469612 0.469612 0.469612
0.493906 0.493906 0.493906
0.518200 0.518200 0.518200
0.542494 0.542494 0.542494
0.566787 0.566787 0.566787
0.591081 0.591081 0.591081
0.250075 0.250075 0.250075
0.274369 0.274369 0.274369
0.298662 0.298662 0.298662
0.322956 0.322956 0.322956
0.347250 0.347250 0.347250
0.371544 0.371544 0.371544
0.395838 0.395838 0.395838
0.420131 0.420131 0.420131
0.444425 0.444425 0.444425
0.468719 0.468719 0.468719
0.493012 0.493012 0.493012
0.517306 0.517306 0.517306
0.541600 0.541600 0.541600
0.565894 0.565894 0.565894
0.590187 0.590187 0.590187
0.614481 0.614481 0.614481
0.638775 0.638775 0.638775
0.297769 0.297769 0.297769
0.322062 0.322062 0.322062
0.346356 0.346356 0.346356
0.370650 0.370650 0.370650
0.394944 0.394944 0.394944
0.419237 0.419237 0.419237
0.443531 0.443531 0.443531
0.467825 0.467825 0.467825
0.492119 0.492119 0.492119
0.516412 0.516412 0.516412
0.540706 0.540706 0.540706
0.565000 0.565000 0.565000
0.589294 0.589294 0.589294
0.613587 0.613587 0.613587
0.637881 0.637881 0.637881
0.662175 0.662175 0.662175
0.686469 0.686469 0.686469
0.345462 0.345462 0.345462
0.369756 0.369756 0.369756
0.394050 0.394050 0.394050
0.418344 0.418344 0.418344
0.442637 0.442637 0.442637
0.466931 0.466931 0.466931
0.491225 0.491225 0.491225
0.515519 0.515519 0.515519
0.539812 0.539812 0.539812
0.564106 0.564106 0.564106
0.588400 0.588400 0.588400
0.612694 0.612694 0.612694
0.636987 0.636987 0.636987
0.661281 0.661281 0.661281
0.685575 0.685575 0.685575
0.709869 0.709869 0.709869
0.734162 0.734162 0.734162
0.393156 0.393156 0.393156
0.417450 0.417450 0.417450
0.441744 0.441744 0.441744
0.466037 0.466037 0.466037
0.490331 0.490331 0.490331
0.514625 0.514625 0.514625
0.538919 0.538919 0.538919
0.563213 0.563213 0.563213
0.587506 0.587506 0.587506
0.611800 0.611800 0.611800
0.636094 0.636094 0.636094
0.660387 0.660387 0.660387
0.684681 0.684681 0.684681
0.708975 0.708975 0.708975
0.733269 0.733269 0.733269
0.757563 0.757563 0.757563
0.781856 0.781856 0.781856
0.440850 0.440850 0.440850
0.465144 0.465144 0.465144
0.489437 0.489437 0.489437
0.513731 0.513731 0.513731
0.538025 0.538025 0.538025
0.562319 0.562319 0.562319
0.586612 0.586612 0.586612
0.610906 0.610906 0.610906
0.635200 0.635200 0.635200
0.659494 0.659494 0.659494
0.683787 0.683787 0.683787
0.708081 0.708081 0.708081
0.732375 0.732375 0.732375
0.756669 0.756669 0.756669
0.780963 0.780963 0.780963
0.805256 0.805256 0.805256
0.829550 0.829550 0.829550
0.488544 0.488544 0.488544
0.512837 0.512837 0.512837
0.537131 0.537131 0.537131
0.561425 0.561425 0.561425
0.585719 0.585719 0.585719
0.610012 0.610012 0.610012
0.634306 0.634306 0.634306
0.658600 0.658600 0.658600
0.682894 0.682894 0.682894
0.707187 0.707187 0.707187
0.731481 0.731481 0.731481
0.755775 0.755775 0.755775
0.780069 0.780069 0.780069
0.804362 0.804362 0.804362
0.828656 0.828656 0.828656
0.852950 0.852950 0.852950
0.877244 0.877244 0.877244
0.536237 0.536237 0.536237
0.560531 0.560531 0.560531
0.584825 0.584825 0.584825
0.609119 0.609119 0.609119
0.633412 0.633412 0.633412
0.657706 0.657706 0.657706
0.682000 0.682000 0.682000
0.706294 0.706294 0.706294
0.730587 0.730587 0.730587
0.754881 0.754881 0.754881
0.779175 0.779175 0.779175
0.803469 0.803469 0.803469
0.827763 0.827763 0.827763
0.852056 0.852056 0.852056
0.876350 0.876350 0.876350
0.900644 0.900644 0.900644
0.924937 0.924937 0.924937
0.583931 0.583931 0.583931
0.608225 0.608225 0.608225
0.632519 0.632519 0.632519
0.656813 0.656813 0.656813
0.681106 0.681106 0.681106
0.705400 0.705400 0.705400
0.729694 0.729694 0.729694
0.753988 0.753988 0.753988
0.778281 0.778281 0.778281
0.802575 0.802575 0.802575
0.826869 0.826869 0.826869
0.851162 0.851162 0.851162
0.875456 0.875456 0.875456
0.899750 0.899750 0.899750
0.924044 0.924044 0.924044
0.948337 0.948337 0.948337
0.972631 0.972631 0.972631
0.631625 0.631625 0.631625
0.655919 0.655919 0.655919
0.680212 0.680212 0.680212
0.704506 0.704506 0.704506
0.728800 0.728800 0.728800
0.753094 0.753094 0.753094
0.777388 0.777388 0.777388
0.801681 0.801681 0.801681
0.825975 0.825975 0.825975
0.850269 0.850269 0.850269
0.874562 0.874562 0.874562
0.898856 0.898856 0.898856
0.923150 0.923150 0.923150
0.947444 0.947444 0.947444
0.971737 0.971737 0.971737
0.996031 0.996031 0.996031
1.020325 1.020325 1.020325
-0.122213 -0.122213 -0.122213
-0.097919 -0.097919 -0.097919
-0.073625 -0.073625 -0.073625
-0.049331 -0.049331 -0.049331
-0.025038 -0.025038 -0.025038
-0.000744 -0.000744 -0.000744
0.023550 0.023550 0.023550
0.047844 0.047844 0.047844
0.072137 0.072137 0.072137
0.096431 0.096431 0.096431
0.120725 0.120725 0.120725
0.145019 0.145019 0.145019
0.169312 0.169312 0.169312
