assets/luts/industrial_steel.cube
TITLE "Industrial Steel"
LUT_3D_SIZE 9
DOMAIN_MIN 0.0 0.0 0.0
DOMAIN_MAX 1.0 1.0 1.0
0.000000 0.000000 0.000000
0.050519 0.033638 0.032890
0.101038 0.067275 0.065780
0.151556 0.100913 0.098670
0.202075 0.134550 0.131560
0.252594 0.168187 0.164450
0.303113 0.201825 0.197340
0.353631 0.235462 0.230230
0.404150 0.269100 0.263120
0.062369 0.078537 0.064570
0.112887 0.112175 0.097460
0.163406 0.145813 0.130350
0.213925 0.179450 0.163240
0.264444 0.213088 0.196130
0.314962 0.246725 0.229020
0.365481 0.280363 0.261910
0.416000 0.314000 0.294800
0.466519 0.347638 0.327690
0.124737 0.157075 0.129140
0.175256 0.190712 0.162030
0.225775 0.224350 0.194920
0.276294 0.257987 0.227810
0.326813 0.291625 0.260700
0.377331 0.325263 0.293590
0.427850 0.358900 0.326480
0.478369 0.392538 0.359370
0.528887 0.426175 0.392260
0.187106 0.235613 0.193710
0.237625 0.269250 0.226600
0.288144 0.302887 0.259490
0.338662 0.336525 0.292380
0.389181 0.370162 0.325270
0.439700 0.403800 0.358160
0.490219 0.437438 0.391050
0.540737 0.471075 0.423940
0.591256 0.504713 0.456830
0.249475 0.314150 0.258280
0.299994 0.347787 0.291170
0.350512 0.381425 0.324060
0.401031 0.415063 0.356950
0.451550 0.448700 0.389840
0.502069 0.482337 0.422730
0.552587 0.515975 0.455620
0.603106 0.549613 0.488510
0.653625 0.583250 0.521400
0.311844 0.392687 0.322850
0.362362 0.426325 0.355740
0.412881 0.459962 0.388630
0.463400 0.493600 0.421520
0.513919 0.527237 0.454410
0.564437 0.560875 0.487300
0.614956 0.594512 0.520190
0.665475 0.628150 0.553080
0.715994 0.661787 0.585970
0.374212 0.471225 0.387420
0.424731 0.504862 0.420310
0.475250 0.538500 0.453200
0.525769 0.572137 0.486090
0.576287 0.605775 0.518980
0.626806 0.639412 0.551870
0.677325 0.673050 0.584760
0.727844 0.706688 0.617650
0.778362 0.740325 0.650540
0.436581 0.549763 0.451990
0.487100 0.583400 0.484880
0.537619 0.617038 0.517770
0.588137 0.650675 0.550660
0.638656 0.684312 0.583550
0.689175 0.717950 0.616440
0.739694 0.751588 0.649330
0.790212 0.785225 0.682220
0.840731 0.818862 0.715110
0.498950 0.628300 0.516560
0.549469 0.661937 0.549450
0.599987 0.695575 0.582340
0.650506 0.729213 0.615230
0.701025 0.762850 0.648120
0.751544 0.796488 0.681010
0.802062 0.830125 0.713900
0.852581 0.863762 0.746790
0.903100 0.897400 0.779680
0.012113 0.012825 0.027540
0.062631 0.046462 0.060430
0.113150 0.080100 0.093320
0.163669 0.113738 0.126210
0.214187 0.147375 0.159100
0.264706 0.181012 0.191990
0.315225 0.214650 0.224880
0.365744 0.248287 0.257770
0.416262 0.281925 0.290660
0.074481 0.091362 0.092110
0.125000 0.125000 0.125000
0.175519 0.158638 0.157890
0.226038 0.192275 0.190780
0.276556 0.225913 0.223670
0.327075 0.259550 0.256560
0.377594 0.293188 0.289450
0.428113 0.326825 0.322340
0.478631 0.360463 0.355230
0.136850 0.169900 0.156680
0.187369 0.203537 0.189570
0.237888 0.237175 0.222460
0.288406 0.270812 0.255350
0.338925 0.304450 0.288240
0.389444 0.338087 0.321130
0.439962 0.371725 0.354020
0.490481 0.405363 0.386910
0.541000 0.439000 0.419800
0.199219 0.248438 0.221250
0.249737 0.282075 0.254140
0.300256 0.315712 0.287030
0.350775 0.349350 0.319920
0.401294 0.382988 0.352810
0.451812 0.416625 0.385700
0.502331 0.450263 0.418590
0.552850 0.483900 0.451480
0.603369 0.517537 0.484370
0.261587 0.326975 0.285820
0.312106 0.360612 0.318710
0.362625 0.394250 0.351600
0.413144 0.427887 0.384490
0.463662 0.461525 0.417380
0.514181 0.495163 0.450270
0.564700 0.528800 0.483160
0.615219 0.562438 0.516050
0.665737 0.596075 0.548940
0.323956 0.405512 0.350390
0.374475 0.439150 0.383280
0.424994 0.472787 0.416170
0.475513 0.506425 0.449060
0.526031 0.540062 0.481950
0.576550 0.573700 0.514840
0.627069 0.607337 0.547730
0.677587 0.640975 0.580620
0.728106 0.674612 0.613510
0.386325 0.484050 0.414960
0.436844 0.517687 0.447850
0.487362 0.551325 0.480740
0.537881 0.584963 0.513630
0.588400 0.618600 0.546520
0.638919 0.652238 0.579410
0.689437 0.685875 0.612300
0.739956 0.719512 0.645190
0.790475 0.753150 0.678080
0.448694 0.562588 0.479530
0.499213 0.596225 0.512420
0.549731 0.629862 0.545310
0.600250 0.663500 0.578200
0.650769 0.697137 0.611090
0.701287 0.730775 0.643980
0.751806 0.764413 0.676870
0.802325 0.798050 0.709760
0.852844 0.831687 0.742650
0.511062 0.641125 0.544100
0.561581 0.674763 0.576990
0.612100 0.708400 0.609880
0.662619 0.742038 0.642770
0.713137 0.775675 0.675660
0.763656 0.809312 0.708550
0.814175 0.842950 0.741440
0.864694 0.876587 0.774330
0.915212 0.910225 0.807220
0.024225 0.025650 0.055080
0.074744 0.059288 0.087970
0.125262 0.092925 0.120860
0.175781 0.126562 0.153750
0.226300 0.160200 0.186640
0.276819 0.193837 0.219530
0.327338 0.227475 0.252420
0.377856 0.261113 0.285310
0.428375 0.294750 0.318200
0.086594 0.104187 0.119650
0.137112 0.137825 0.152540
0.187631 0.171463 0.185430
0.238150 0.205100 0.218320
0.288669 0.238738 0.251210
0.339187 0.272375 0.284100
0.389706 0.306013 0.316990
0.440225 0.339650 0.349880
0.490744 0.373288 0.382770
0.148962 0.182725 0.184220
0.199481 0.216362 0.217110
0.250000 0.250000 0.250000
0.300519 0.283638 0.282890
0.351038 0.317275 0.315780
0.401556 0.350913 0.348670
0.452075 0.384550 0.381560
0.502594 0.418188 0.414450
0.553113 0.451825 0.447340
0.211331 0.261263 0.248790
0.261850 0.294900 0.281680
0.312369 0.328538 0.314570
0.362888 0.362175 0.347460
0.413406 0.395813 0.380350
0.463925 0.429450 0.413240
0.514444 0.463087 0.446130
0.564962 0.496725 0.479020
0.615481 0.530362 0.511910
0.273700 0.339800 0.313360
0.324219 0.373437 0.346250
0.374737 0.407075 0.379140
0.425256 0.440713 0.412030
0.475775 0.474350 0.444920
0.526294 0.507988 0.477810
0.576812 0.541625 0.510700
0.627331 0.575263 0.543590
0.677850 0.608900 0.576480
0.336069 0.418337 0.377930
0.386587 0.451975 0.410820
0.437106 0.485612 0.443710
0.487625 0.519250 0.476600
0.538144 0.552887 0.509490
0.588662 0.586525 0.542380
0.639181 0.620162 0.575270
0.689700 0.653800 0.608160
0.740219 0.687438 0.641050
0.398438 0.496875 0.442500
0.448956 0.530512 0.475390
0.499475 0.564150 0.508280
0.549994 0.597787 0.541170
0.600512 0.631425 0.574060
0.651031 0.665062 0.606950
0.701550 0.698700 0.639840
0.752069 0.732338 0.672730
0.802587 0.765975 0.705620
0.460806 0.575412 0.507070
0.511325 0.609050 0.539960
0.561844 0.642687 0.572850
0.612363 0.676325 0.605740
0.662881 0.709962 0.638630
0.713400 0.743600 0.671520
0.763919 0.777238 0.704410
0.814437 0.810875 0.737300
0.864956 0.844512 0.770190
0.523175 0.653950 0.571640
0.573694 0.687588 0.604530
0.624212 0.721225 0.637420
0.674731 0.754862 0.670310
0.725250 0.788500 0.703200
0.775769 0.822137 0.736090
0.826288 0.855775 0.768980
0.876806 0.889412 0.801870
0.927325 0.923050 0.834760
0.036338 0.038475 0.082620
0.086856 0.072113 0.115510
0.137375 0.105750 0.148400
0.187894 0.139388 0.181290
0.238412 0.173025 0.214180
0.288931 0.206662 0.247070
0.339450 0.240300 0.279960
0.389969 0.273938 0.312850
0.440488 0.307575 0.345740
0.098706 0.117013 0.147190
0.149225 0.150650 0.180080
0.199744 0.184288 0.212970
0.250262 0.217925 0.245860
0.300781 0.251563 0.278750
0.351300 0.285200 0.311640
0.401819 0.318838 0.344530
0.452337 0.352475 0.377420
0.502856 0.386113 0.410310
0.161075 0.195550 0.211760
0.211594 0.229187 0.244650
0.262112 0.262825 0.277540
0.312631 0.296463 0.310430
0.363150 0.330100 0.343320
0.413669 0.363737 0.376210
0.464187 0.397375 0.409100
0.514706 0.431013 0.441990
0.565225 0.464650 0.474880
0.223444 0.274087 0.276330
0.273962 0.307725 0.309220
0.324481 0.341363 0.342110
0.375000 0.375000 0.375000
0.425519 0.408637 0.407890
0.476038 0.442275 0.440780
0.526556 0.475912 0.473670
0.577075 0.509550 0.506560
0.627594 0.543187 0.539450
0.285812 0.352625 0.340900
0.336331 0.386263 0.373790
0.386850 0.419900 0.406680
0.437369 0.453538 0.439570
0.487887 0.487175 0.472460
0.538406 0.520813 0.505350
0.588925 0.554450 0.538240
0.639444 0.588087 0.571130
0.689963 0.621725 0.604020
0.348181 0.431162 0.405470
0.398700 0.464800 0.438360
0.449219 0.498437 0.471250
0.499737 0.532075 0.504140
0.550256 0.565712 0.537030
0.600775 0.599350 0.569920
0.651294 0.632987 0.602810
0.701812 0.666625 0.635700
0.752331 0.700263 0.668590
0.410550 0.509700 0.470040
0.461069 0.543338 0.502930
0.511587 0.576975 0.535820
0.562106 0.610613 0.568710
0.612625 0.644250 0.601600
0.663144 0.677887 0.634490
0.713662 0.711525 0.667380
0.764181 0.745162 0.700270
0.814700 0.778800 0.733160
0.472919 0.588237 0.534610
0.523438 0.621875 0.567500
0.573956 0.655512 0.600390
0.624475 0.689150 0.633280
0.674994 0.722787 0.666170
0.725513 0.756425 0.699060
0.776031 0.790063 0.731950
0.826550 0.823700 0.764840
0.877069 0.857337 0.797730
0.535287 0.666775 0.599180
0.585806 0.700412 0.632070
0.636325 0.734050 0.664960
0.686844 0.767687 0.697850
0.737362 0.801325 0.730740
0.787881 0.834962 0.763630
0.838400 0.868600 0.796520
0.888919 0.902237 0.829410
0.939437 0.935875 0.862300
0.048450 0.051300 0.110160
0.098969 0.084937 0.143050
0.149487 0.118575 0.175940
0.200006 0.152213 0.208830
0.250525 0.185850 0.241720
0.301044 0.219487 0.274610
0.351562 0.253125 0.307500
0.402081 0.286762 0.340390
0.452600 0.320400 0.373280
0.110819 0.129837 0.174730
0.161337 0.163475 0.207620
0.211856 0.197113 0.240510
0.262375 0.230750 0.273400
0.312894 0.264387 0.306290
0.363412 0.298025 0.339180
0.413931 0.331663 0.372070
0.464450 0.365300 0.404960
0.514969 0.398938 0.437850
0.173187 0.208375 0.239300
0.223706 0.242012 0.272190
0.274225 0.275650 0.305080
0.324744 0.309287 0.337970
0.375262 0.342925 0.370860
0.425781 0.376562 0.403750
0.476300 0.410200 0.436640
0.526819 0.443837 0.469530
0.577338 0.477475 0.502420
0.235556 0.286913 0.303870
0.286075 0.320550 0.336760
0.336594 0.354187 0.369650
0.387112 0.387825 0.402540
0.437631 0.421462 0.435430
0.488150 0.455100 0.468320
0.538669 0.488738 0.501210
0.589188 0.522375 0.534100
0.639706 0.556013 0.566990
0.297925 0.365450 0.368440
0.348444 0.399087 0.401330
0.398962 0.432725 0.434220
0.449481 0.466363 0.467110
0.500000 0.500000 0.500000
0.550519 0.533638 0.532890
0.601037 0.567275 0.565780
0.651556 0.600913 0.598670
0.702075 0.634550 0.631560
0.360294 0.443987 0.433010
0.410812 0.477625 0.465900
0.461331 0.511262 0.498790
0.511850 0.544900 0.531680
0.562369 0.578538 0.564570
0.612888 0.612175 0.597460
0.663406 0.645813 0.630350
0.713925 0.679450 0.663240
0.764444 0.713088 0.696130
0.422662 0.522525 0.497580
0.473181 0.556163 0.530470
0.523700 0.589800 0.563360
0.574219 0.623438 0.596250
0.624737 0.657075 0.629140
0.675256 0.690713 0.662030
0.725775 0.724350 0.694920
0.776294 0.757988 0.727810
0.826813 0.791625 0.760700
0.485031 0.601063 0.562150
0.535550 0.634700 0.595040
0.586069 0.668338 0.627930
0.636588 0.701975 0.660820
0.687106 0.735613 0.693710
0.737625 0.769250 0.726600
0.788144 0.802888 0.759490
0.838662 0.836525 0.792380
0.889181 0.870163 0.825270
0.547400 0.679600 0.626720
0.597919 0.713238 0.659610
0.648438 0.746875 0.692500
0.698956 0.780513 0.725390
0.749475 0.814150 0.758280
0.799994 0.847788 0.791170
0.850513 0.881425 0.824060
0.901031 0.915063 0.856950
0.951550 0.948700 0.889840
0.060563 0.064125 0.137700
0.111081 0.097763 0.170590
0.161600 0.131400 0.203480
0.212119 0.165038 0.236370
0.262637 0.198675 0.269260
0.313156 0.232313 0.302150
0.363675 0.265950 0.335040
0.414194 0.299588 0.367930
0.464712 0.333225 0.400820
0.122931 0.142663 0.202270
0.173450 0.176300 0.235160
0.223969 0.209938 0.268050
0.274487 0.243575 0.300940
0.325006 0.277212 0.333830
0.375525 0.310850 0.366720
0.426044 0.344488 0.399610
0.476562 0.378125 0.432500
0.527081 0.411763 0.465390
0.185300 0.221200 0.266840
0.235819 0.254838 0.299730
0.286337 0.288475 0.332620
0.336856 0.322113 0.365510
0.387375 0.355750 0.398400
0.437894 0.389387 0.431290
0.488413 0.423025 0.464180
0.538931 0.456663 0.497070
0.589450 0.490300 0.529960
0.247669 0.299737 0.331410
0.298187 0.333375 0.364300
0.348706 0.367013 0.397190
0.399225 0.400650 0.430080
0.449744 0.434288 0.462970
0.500262 0.467925 0.495860
0.550781 0.501563 0.528750
0.601300 0.535200 0.561640
0.651819 0.568837 0.594530
0.310038 0.378275 0.395980
0.360556 0.411912 0.428870
0.411075 0.445550 0.461760
0.461594 0.479188 0.494650
0.512112 0.512825 0.527540
0.562631 0.546463 0.560430
0.613150 0.580100 0.593320
0.663669 0.613738 0.626210
0.714188 0.647375 0.659100
0.372406 0.456813 0.460550
0.422925 0.490450 0.493440
0.473444 0.524088 0.526330
0.523962 0.557725 0.559220
0.574481 0.591363 0.592110
0.625000 0.625000 0.625000
0.675519 0.658637 0.657890
0.726038 0.692275 0.690780
0.776556 0.725913 0.723670
0.434775 0.535350 0.525120
0.485294 0.568987 0.558010
0.535813 0.602625 0.590900
0.586331 0.636262 0.623790
0.636850 0.669900 0.656680
0.687369 0.703537 0.689570
0.737888 0.737175 0.722460
0.788406 0.770813 0.755350
0.838925 0.804450 0.788240
0.497144 0.613888 0.589690
0.547663 0.647525 0.622580
0.598181 0.681163 0.655470
0.648700 0.714800 0.688360
0.699219 0.748438 0.721250
0.749738 0.782075 0.754140
0.800256 0.815713 0.787030
0.850775 0.849350 0.819920
0.901294 0.882988 0.852810
0.559512 0.692425 0.654260
0.610031 0.726063 0.687150
0.660550 0.759700 0.720040
0.711069 0.793338 0.752930
0.761587 0.826975 0.785820
0.812106 0.860613 0.818710
0.862625 0.894250 0.851600
0.913144 0.927887 0.884490
0.963662 0.961525 0.917380
0.072675 0.076950 0.165240
0.123194 0.110588 0.198130
0.173712 0.144225 0.231020
0.224231 0.177863 0.263910
0.274750 0.211500 0.296800
0.325269 0.245137 0.329690
0.375787 0.278775 0.362580
0.426306 0.312413 0.395470
0.476825 0.346050 0.428360
0.135044 0.155488 0.229810
0.185562 0.189125 0.262700
0.236081 0.222763 0.295590
0.286600 0.256400 0.328480
0.337119 0.290038 0.361370
0.387637 0.323675 0.394260
0.438156 0.357313 0.427150
0.488675 0.390950 0.460040
0.539194 0.424588 0.492930
0.197413 0.234025 0.294380
0.247931 0.267663 0.327270
0.298450 0.301300 0.360160
0.348969 0.334937 0.393050
0.399488 0.368575 0.425940
0.450006 0.402213 0.458830
0.500525 0.435850 0.491720
0.551044 0.469488 0.524610
0.601562 0.503125 0.557500
0.259781 0.312562 0.358950
0.310300 0.346200 0.391840
0.360819 0.379838 0.424730
0.411338 0.413475 0.457620
0.461856 0.447113 0.490510
0.512375 0.480750 0.523400
0.562894 0.514387 0.556290
0.613413 0.548025 0.589180
0.663931 0.581662 0.622070
0.322150 0.391100 0.423520
0.372669 0.424737 0.456410
0.423187 0.458375 0.489300
0.473706 0.492013 0.522190
0.524225 0.525650 0.555080
0.574744 0.559288 0.587970
0.625262 0.592925 0.620860
0.675781 0.626563 0.653750
0.726300 0.660200 0.686640
0.384519 0.469637 0.488090
0.435037 0.503275 0.520980
0.485556 0.536912 0.553870
0.536075 0.570550 0.586760
0.586594 0.604187 0.619650
0.637112 0.637825 0.652540
0.687631 0.671462 0.685430
0.738150 0.705100 0.718320
0.788669 0.738738 0.751210
0.446887 0.548175 0.552660
0.497406 0.581813 0.585550
0.547925 0.615450 0.618440
0.598444 0.649088 0.651330
0.648962 0.682725 0.684220
0.699481 0.716363 0.717110
0.750000 0.750000 0.750000
0.800519 0.783637 0.782890
0.851038 0.817275 0.815780
0.509256 0.626713 0.617230
0.559775 0.660350 0.650120
0.610294 0.693988 0.683010
0.660813 0.727625 0.715900
0.711331 0.761263 0.748790
0.761850 0.794900 0.781680
0.812369 0.828538 0.814570
0.862887 0.862175 0.847460
0.913406 0.895813 0.880350
0.571625 0.705250 0.681800
0.622144 0.738888 0.714690
0.672662 0.772525 0.747580
0.723181 0.806163 0.780470
0.773700 0.839800 0.813360
0.824219 0.873437 0.846250
0.874737 0.907075 0.879140
0.925256 0.940712 0.912030
0.975775 0.974350 0.944920
0.084788 0.089775 0.192780
0.135306 0.123412 0.225670
0.185825 0.157050 0.258560
0.236344 0.190688 0.291450
0.286862 0.224325 0.324340
0.337381 0.257963 0.357230
0.387900 0.291600 0.390120
0.438419 0.325238 0.423010
0.488938 0.358875 0.455900
0.147156 0.168313 0.257350
0.197675 0.201950 0.290240
0.248194 0.235588 0.323130
0.298712 0.269225 0.356020
0.349231 0.302863 0.388910
0.399750 0.336500 0.421800
0.450269 0.370138 0.454690
0.500787 0.403775 0.487580
0.551306 0.437413 0.520470
0.209525 0.246850 0.321920
0.260044 0.280488 0.354810
0.310562 0.314125 0.387700
0.361081 0.347763 0.420590
0.411600 0.381400 0.453480
0.462119 0.415038 0.486370
0.512637 0.448675 0.519260
0.563156 0.482312 0.552150
0.613675 0.515950 0.585040
0.271894 0.325388 0.386490
0.322412 0.359025 0.419380
0.372931 0.392663 0.452270
0.423450 0.426300 0.485160
0.473969 0.459937 0.518050
0.524487 0.493575 0.550940
0.575006 0.527212 0.583830
0.625525 0.560850 0.616720
0.676044 0.594487 0.649610
0.334262 0.403925 0.451060
0.384781 0.437562 0.483950
0.435300 0.471200 0.516840
0.485819 0.504838 0.549730
0.536337 0.538475 0.582620
0.586856 0.572113 0.615510
0.637375 0.605750 0.648400
0.687894 0.639387 0.681290
0.738413 0.673025 0.714180
0.396631 0.482462 0.515630
0.447150 0.516100 0.548520
0.497669 0.549737 0.581410
0.548187 0.583375 0.614300
0.598706 0.617012 0.647190
0.649225 0.650650 0.680080
0.699744 0.684287 0.712970
0.750262 0.717925 0.745860
0.800781 0.751563 0.778750
0.459000 0.561000 0.580200
0.509519 0.594637 0.613090
0.560037 0.628275 0.645980
0.610556 0.661912 0.678870
0.661075 0.695550 0.711760
0.711594 0.729187 0.744650
0.762112 0.762825 0.777540
0.812631 0.796463 0.810430
0.863150 0.830100 0.843320
0.521369 0.639538 0.644770
0.571888 0.673175 0.677660
0.622406 0.706813 0.710550
0.672925 0.740450 0.743440
0.723444 0.774088 0.776330
0.773962 0.807725 0.809220
0.824481 0.841363 0.842110
0.875000 0.875000 0.875000
0.925519 0.908637 0.907890
0.583737 0.718075 0.709340
0.634256 0.751713 0.742230
0.684775 0.785350 0.775120
0.735294 0.818987 0.808010
0.785812 0.852625 0.840900
0.836331 0.886262 0.873790
0.886850 0.919900 0.906680
0.937369 0.953537 0.939570
0.987887 0.987175 0.972460
0.096900 0.102600 0.220320
0.147419 0.136238 0.253210
0.197937 0.169875 0.286100
0.248456 0.203513 0.318990
0.298975 0.237150 0.351880
0.349494 0.270788 0.384770
0.400012 0.304425 0.417660
0.450531 0.338062 0.450550
0.501050 0.371700 0.483440
0.159269 0.181138 0.284890
0.209787 0.214775 0.317780
0.260306 0.248413 0.350670
0.310825 0.282050 0.383560
0.361344 0.315688 0.416450
0.411862 0.349325 0.449340
0.462381 0.382963 0.482230
0.512900 0.416600 0.515120
0.563419 0.450238 0.548010
0.221637 0.259675 0.349460
0.272156 0.293313 0.382350
0.322675 0.326950 0.415240
0.373194 0.360588 0.448130
0.423712 0.394225 0.481020
0.474231 0.427862 0.513910
0.524750 0.461500 0.546800
0.575269 0.495138 0.579690
0.625787 0.528775 0.612580
0.284006 0.338213 0.414030
0.334525 0.371850 0.446920
0.385044 0.405488 0.479810
0.435562 0.439125 0.512700
0.486081 0.472762 0.545590
0.536600 0.506400 0.578480
0.587119 0.540037 0.611370
0.637637 0.573675 0.644260
0.688156 0.607312 0.677150
0.346375 0.416750 0.478600
0.396894 0.450387 0.511490
0.447412 0.484025 0.544380
0.497931 0.517663 0.577270
0.548450 0.551300 0.610160
0.598969 0.584937 0.643050
0.649487 0.618575 0.675940
0.700006 0.652213 0.708830
0.750525 0.685850 0.741720
0.408744 0.495287 0.543170
0.459262 0.528925 0.576060
0.509781 0.562562 0.608950
0.560300 0.596200 0.641840
0.610819 0.629837 0.674730
0.661337 0.663475 0.707620
0.711856 0.697112 0.740510
0.762375 0.730750 0.773400
0.812894 0.764387 0.806290
0.471112 0.573825 0.607740
0.521631 0.607463 0.640630
0.572150 0.641100 0.673520
0.622669 0.674737 0.706410
0.673187 0.708375 0.739300
0.723706 0.742012 0.772190
0.774225 0.775650 0.805080
0.824744 0.809287 0.837970
0.875262 0.842925 0.870860
0.533481 0.652363 0.672310
0.584000 0.686000 0.705200
0.634519 0.719638 0.738090
0.685038 0.753275 0.770980
0.735556 0.786913 0.803870
0.786075 0.820550 0.836760
0.836594 0.854188 0.869650
0.887112 0.887825 0.902540
0.937631 0.921462 0.935430
0.595850 0.730900 0.736880
0.646369 0.764537 0.769770
0.696887 0.798175 0.802660
0.747406 0.831812 0.835550
0.797925 0.865450 0.868440
0.848444 0.899087 0.901330
0.898962 0.932725 0.934220
0.949481 0.966362 0.967110
1.000000 1.000000 1.000000
