assets/luts/industrial_steel.cube
TITLE "Industrial Steel"
LUT_3D_SIZE 5
DOMAIN_MIN 0.0 0.0 0.0
DOMAIN_MAX 1.0 1.0 1.0
0.000000 0.000000 0.000000
0.101038 0.067275 0.065780
0.202075 0.134550 0.131560
0.303113 0.201825 0.197340
0.404150 0.269100 0.263120
0.124737 0.157075 0.129140
0.225775 0.224350 0.194920
0.326813 0.291625 0.260700
0.427850 0.358900 0.326480
0.528887 0.426175 0.392260
0.249475 0.314150 0.258280
0.350512 0.381425 0.324060
0.451550 0.448700 0.389840
0.552587 0.515975 0.455620
0.653625 0.583250 0.521400
0.374212 0.471225 0.387420
0.475250 0.538500 0.453200
0.576287 0.605775 0.518980
0.677325 0.673050 0.584760
0.778362 0.740325 0.650540
0.498950 0.628300 0.516560
0.599987 0.695575 0.582340
0.701025 0.762850 0.648120
0.802062 0.830125 0.713900
0.903100 0.897400 0.779680
0.024225 0.025650 0.055080
0.125262 0.092925 0.120860
0.226300 0.160200 0.186640
0.327338 0.227475 0.252420
0.428375 0.294750 0.318200
0.148962 0.182725 0.184220
0.250000 0.250000 0.250000
0.351038 0.317275 0.315780
0.452075 0.384550 0.381560
0.553113 0.451825 0.447340
0.273700 0.339800 0.313360
0.374737 0.407075 0.379140
0.475775 0.474350 0.444920
0.576812 0.541625 0.510700
0.677850 0.608900 0.576480
0.398438 0.496875 0.442500
0.499475 0.564150 0.508280
0.600512 0.631425 0.574060
0.701550 0.698700 0.639840
0.802587 0.765975 0.705620
0.523175 0.653950 0.571640
0.624212 0.721225 0.637420
0.725250 0.788500 0.703200
0.826288 0.855775 0.768980
0.927325 0.923050 0.834760
0.048450 0.051300 0.110160
0.149487 0.118575 0.175940
0.250525 0.185850 0.241720
0.351562 0.253125 0.307500
0.452600 0.320400 0.373280
0.173187 0.208375 0.239300
0.274225 0.275650 0.305080
0.375262 0.342925 0.370860
0.476300 0.410200 0.436640
0.577338 0.477475 0.502420
0.297925 0.365450 0.368440
0.398962 0.432725 0.434220
0.500000 0.500000 0.500000
0.601037 0.567275 0.565780
0.702075 0.634550 0.631560
0.422662 0.522525 0.497580
0.523700 0.589800 0.563360
0.624737 0.657075 0.629140
0.725775 0.724350 0.694920
0.826813 0.791625 0.760700
0.547400 0.679600 0.626720
0.648438 0.746875 0.692500
0.749475 0.814150 0.758280
0.850513 0.881425 0.824060
0.951550 0.948700 0.889840
0.072675 0.076950 0.165240
0.173712 0.144225 0.231020
0.274750 0.211500 0.296800
0.375787 0.278775 0.362580
0.476825 0.346050 0.428360
0.197413 0.234025 0.294380
0.298450 0.301300 0.360160
0.399488 0.368575 0.425940
0.500525 0.435850 0.491720
0.601562 0.503125 0.557500
0.322150 0.391100 0.423520
0.423187 0.458375 0.489300
0.524225 0.525650 0.555080
0.625262 0.592925 0.620860
0.726300 0.660200 0.686640
0.446887 0.548175 0.552660
0.547925 0.615450 0.618440
0.648962 0.682725 0.684220
0.750000 0.750000 0.750000
0.851038 0.817275 0.815780
0.571625 0.705250 0.681800
0.672662 0.772525 0.747580
0.773700 0.839800 0.813360
0.874737 0.907075 0.879140
0.975775 0.974350 0.944920
0.096900 0.102600 0.220320
0.197937 0.169875 0.286100
0.298975 0.237150 0.351880
0.400012 0.304425 0.417660
0.501050 0.371700 0.483440
0.221637 0.259675 0.349460
0.322675 0.326950 0.415240
0.423712 0.394225 0.481020
0.524750 0.461500 0.546800
0.625787 0.528775 0.612580
0.346375 0.416750 0.478600
0.447412 0.484025 0.544380
0.548450 0.551300 0.610160
0.649487 0.618575 0.675940
0.750525 0.685850 0.741720
0.471112 0.573825 0.607740
0.572150 0.641100 0.673520
0.673187 0.708375 0.739300
0.774225 0.775650 0.805080
0.875262 0.842925 0.870860
0.595850 0.730900 0.736880
0.696887 0.798175 0.802660
0.797925 0.865450 0.868440
0.898962 0.932725 0.934220
1.000000 1.000000 1.000000
