assets/luts/industrial_steel.cube
TITLE "Industrial Steel"
LUT_3D_SIZE 17
DOMAIN_MIN 0.0 0.0 0.0
DOMAIN_MAX 1.0 1.0 1.0
0.000000 0.000000 0.000000
0.025259 0.016819 0.016445
0.050519 0.033638 0.032890
0.075778 0.050456 0.049335
0.101038 0.067275 0.065780
0.126297 0.084094 0.082225
0.151556 0.100913 0.098670
0.176816 0.117731 0.115115
0.202075 0.134550 0.131560
0.227334 0.151369 0.148005
0.252594 0.168187 0.164450
0.277853 0.185006 0.180895
0.303113 0.201825 0.197340
0.328372 0.218644 0.213785
0.353631 0.235462 0.230230
0.378891 0.252281 0.246675
0.404150 0.269100 0.263120
0.031184 0.039269 0.032285
0.056444 0.056087 0.048730
0.081703 0.072906 0.065175
0.106962 0.089725 0.081620
0.132222 0.106544 0.098065
0.157481 0.123362 0.114510
0.182741 0.140181 0.130955
0.208000 0.157000 0.147400
0.233259 0.173819 0.163845
0.258519 0.190637 0.180290
0.283778 0.207456 0.196735
0.309037 0.224275 0.213180
0.334297 0.241094 0.229625
0.359556 0.257912 0.246070
0.384816 0.274731 0.262515
0.410075 0.291550 0.278960
0.435334 0.308369 0.295405
0.062369 0.078537 0.064570
0.087628 0.095356 0.081015
0.112887 0.112175 0.097460
0.138147 0.128994 0.113905
0.163406 0.145813 0.130350
0.188666 0.162631 0.146795
0.213925 0.179450 0.163240
0.239184 0.196269 0.179685
0.264444 0.213088 0.196130
0.289703 0.229906 0.212575
0.314962 0.246725 0.229020
0.340222 0.263544 0.245465
0.365481 0.280363 0.261910
0.390741 0.297181 0.278355
0.416000 0.314000 0.294800
0.441259 0.330819 0.311245
0.466519 0.347638 0.327690
0.093553 0.117806 0.096855
0.118812 0.134625 0.113300
0.144072 0.151444 0.129745
0.169331 0.168262 0.146190
0.194591 0.185081 0.162635
0.219850 0.201900 0.179080
0.245109 0.218719 0.195525
0.270369 0.235538 0.211970
0.295628 0.252356 0.228415
0.320887 0.269175 0.244860
0.346147 0.285994 0.261305
0.371406 0.302812 0.277750
0.396666 0.319631 0.294195
0.421925 0.336450 0.310640
0.447184 0.353269 0.327085
0.472444 0.370087 0.343530
0.497703 0.386906 0.359975
0.124737 0.157075 0.129140
0.149997 0.173894 0.145585
0.175256 0.190712 0.162030
0.200516 0.207531 0.178475
0.225775 0.224350 0.194920
0.251034 0.241169 0.211365
0.276294 0.257987 0.227810
0.301553 0.274806 0.244255
0.326813 0.291625 0.260700
0.352072 0.308444 0.277145
0.377331 0.325263 0.293590
0.402591 0.342081 0.310035
0.427850 0.358900 0.326480
0.453109 0.375719 0.342925
0.478369 0.392538 0.359370
0.503628 0.409356 0.375815
0.528887 0.426175 0.392260
0.155922 0.196344 0.161425
0.181181 0.213162 0.177870
0.206441 0.229981 0.194315
0.231700 0.246800 0.210760
0.256959 0.263619 0.227205
0.282219 0.280438 0.243650
0.307478 0.297256 0.260095
0.332737 0.314075 0.276540
0.357997 0.330894 0.292985
0.383256 0.347712 0.309430
0.408516 0.364531 0.325875
0.433775 0.381350 0.342320
0.459034 0.398169 0.358765
0.484294 0.414987 0.375210
0.509553 0.431806 0.391655
0.534812 0.448625 0.408100
0.560072 0.465444 0.424545
0.187106 0.235613 0.193710
0.212366 0.252431 0.210155
0.237625 0.269250 0.226600
0.262884 0.286069 0.243045
0.288144 0.302887 0.259490
0.313403 0.319706 0.275935
0.338662 0.336525 0.292380
0.363922 0.353344 0.308825
0.389181 0.370162 0.325270
0.414441 0.386981 0.341715
0.439700 0.403800 0.358160
0.464959 0.420619 0.374605
0.490219 0.437438 0.391050
0.515478 0.454256 0.407495
0.540737 0.471075 0.423940
0.565997 0.487894 0.440385
0.591256 0.504713 0.456830
0.218291 0.274881 0.225995
0.243550 0.291700 0.242440
0.268809 0.308519 0.258885
0.294069 0.325338 0.275330
0.319328 0.342156 0.291775
0.344587 0.358975 0.308220
0.369847 0.375794 0.324665
0.395106 0.392613 0.341110
0.420366 0.409431 0.357555
0.445625 0.426250 0.374000
0.470884 0.443069 0.390445
0.496144 0.459888 0.406890
0.521403 0.476706 0.423335
0.546663 0.493525 0.439780
0.571922 0.510344 0.456225
0.597181 0.527162 0.472670
0.622441 0.543981 0.489115
0.249475 0.314150 0.258280
0.274734 0.330969 0.274725
0.299994 0.347787 0.291170
0.325253 0.364606 0.307615
0.350512 0.381425 0.324060
0.375772 0.398244 0.340505
0.401031 0.415063 0.356950
0.426291 0.431881 0.373395
0.451550 0.448700 0.389840
0.476809 0.465519 0.406285
0.502069 0.482337 0.422730
0.527328 0.499156 0.439175
0.552587 0.515975 0.455620
0.577847 0.532794 0.472065
0.603106 0.549613 0.488510
0.628366 0.566431 0.504955
0.653625 0.583250 0.521400
0.280659 0.353419 0.290565
0.305919 0.370237 0.307010
0.331178 0.387056 0.323455
0.356437 0.403875 0.339900
0.381697 0.420694 0.356345
0.406956 0.437513 0.372790
0.432216 0.454331 0.389235
0.457475 0.471150 0.405680
0.482734 0.487969 0.422125
0.507994 0.504787 0.438570
0.533253 0.521606 0.455015
0.558512 0.538425 0.471460
0.583772 0.555244 0.487905
0.609031 0.572063 0.504350
0.634291 0.588881 0.520795
0.659550 0.605700 0.537240
0.684809 0.622519 0.553685
0.311844 0.392687 0.322850
0.337103 0.409506 0.339295
0.362362 0.426325 0.355740
0.387622 0.443144 0.372185
0.412881 0.459962 0.388630
0.438141 0.476781 0.405075
0.463400 0.493600 0.421520
0.488659 0.510419 0.437965
0.513919 0.527237 0.454410
0.539178 0.544056 0.470855
0.564437 0.560875 0.487300
0.589697 0.577694 0.503745
0.614956 0.594512 0.520190
0.640216 0.611331 0.536635
0.665475 0.628150 0.553080
0.690734 0.644969 0.569525
0.715994 0.661787 0.585970
0.343028 0.431956 0.355135
0.368288 0.448775 0.371580
0.393547 0.465594 0.388025
0.418806 0.482413 0.404470
0.444066 0.499231 0.420915
0.469325 0.516050 0.437360
0.494584 0.532869 0.453805
0.519844 0.549688 0.470250
0.545103 0.566506 0.486695
0.570362 0.583325 0.503140
0.595622 0.600144 0.519585
0.620881 0.616962 0.536030
0.646141 0.633781 0.552475
0.671400 0.650600 0.568920
0.696659 0.667419 0.585365
0.721919 0.684238 0.601810
0.747178 0.701056 0.618255
0.374212 0.471225 0.387420
0.399472 0.488044 0.403865
0.424731 0.504862 0.420310
0.449991 0.521681 0.436755
0.475250 0.538500 0.453200
0.500509 0.555319 0.469645
0.525769 0.572137 0.486090
0.551028 0.588956 0.502535
0.576287 0.605775 0.518980
0.601547 0.622594 0.535425
0.626806 0.639412 0.551870
0.652066 0.656231 0.568315
0.677325 0.673050 0.584760
0.702584 0.689869 0.601205
0.727844 0.706688 0.617650
0.753103 0.723506 0.634095
0.778362 0.740325 0.650540
0.405397 0.510494 0.419705
0.430656 0.527312 0.436150
0.455916 0.544131 0.452595
0.481175 0.560950 0.469040
0.506434 0.577769 0.485485
0.531694 0.594588 0.501930
0.556953 0.611406 0.518375
0.582213 0.628225 0.534820
0.607472 0.645044 0.551265
0.632731 0.661863 0.567710
0.657991 0.678681 0.584155
0.683250 0.695500 0.600600
0.708509 0.712319 0.617045
0.733769 0.729137 0.633490
0.759028 0.745956 0.649935
0.784287 0.762775 0.666380
0.809547 0.779594 0.682825
0.436581 0.549763 0.451990
0.461841 0.566581 0.468435
0.487100 0.583400 0.484880
0.512359 0.600219 0.501325
0.537619 0.617038 0.517770
0.562878 0.633856 0.534215
0.588137 0.650675 0.550660
0.613397 0.667494 0.567105
0.638656 0.684312 0.583550
0.663916 0.701131 0.599995
0.689175 0.717950 0.616440
0.714434 0.734769 0.632885
0.739694 0.751588 0.649330
0.764953 0.768406 0.665775
0.790212 0.785225 0.682220
0.815472 0.802044 0.698665
0.840731 0.818862 0.715110
0.467766 0.589031 0.484275
0.493025 0.605850 0.500720
0.518284 0.622669 0.517165
0.543544 0.639487 0.533610
0.568803 0.656306 0.550055
0.594062 0.673125 0.566500
0.619322 0.689944 0.582945
0.644581 0.706762 0.599390
0.669841 0.723581 0.615835
0.695100 0.740400 0.632280
0.720359 0.757219 0.648725
0.745619 0.774037 0.665170
0.770878 0.790856 0.681615
0.796137 0.807675 0.698060
0.821397 0.824494 0.714505
0.846656 0.841313 0.730950
0.871916 0.858131 0.747395
0.498950 0.628300 0.516560
0.524209 0.645119 0.533005
0.549469 0.661937 0.549450
0.574728 0.678756 0.565895
0.599987 0.695575 0.582340
0.625247 0.712394 0.598785
0.650506 0.729213 0.615230
0.675766 0.746031 0.631675
0.701025 0.762850 0.648120
0.726284 0.779669 0.664565
0.751544 0.796488 0.681010
0.776803 0.813306 0.697455
0.802062 0.830125 0.713900
0.827322 0.846944 0.730345
0.852581 0.863762 0.746790
0.877841 0.880581 0.763235
0.903100 0.897400 0.779680
0.006056 0.006413 0.013770
0.031316 0.023231 0.030215
0.056575 0.040050 0.046660
0.081834 0.056869 0.063105
0.107094 0.073688 0.079550
0.132353 0.090506 0.095995
0.157612 0.107325 0.112440
0.182872 0.124144 0.128885
0.208131 0.140962 0.145330
0.233391 0.157781 0.161775
0.258650 0.174600 0.178220
0.283909 0.191419 0.194665
0.309169 0.208237 0.211110
0.334428 0.225056 0.227555
0.359687 0.241875 0.244000
0.384947 0.258694 0.260445
0.410206 0.275512 0.276890
0.037241 0.045681 0.046055
0.062500 0.062500 0.062500
0.087759 0.079319 0.078945
0.113019 0.096138 0.095390
0.138278 0.112956 0.111835
0.163538 0.129775 0.128280
0.188797 0.146594 0.144725
0.214056 0.163412 0.161170
0.239316 0.180231 0.177615
0.264575 0.197050 0.194060
0.289834 0.213869 0.210505
0.315094 0.230687 0.226950
0.340353 0.247506 0.243395
0.365613 0.264325 0.259840
0.390872 0.281144 0.276285
0.416131 0.297962 0.292730
0.441391 0.314781 0.309175
0.068425 0.084950 0.078340
0.093684 0.101769 0.094785
0.118944 0.118587 0.111230
0.144203 0.135406 0.127675
0.169462 0.152225 0.144120
0.194722 0.169044 0.160565
0.219981 0.185863 0.177010
0.245241 0.202681 0.193455
0.270500 0.219500 0.209900
0.295759 0.236319 0.226345
0.321019 0.253137 0.242790
0.346278 0.269956 0.259235
0.371538 0.286775 0.275680
0.396797 0.303594 0.292125
0.422056 0.320412 0.308570
0.447316 0.337231 0.325015
0.472575 0.354050 0.341460
0.099609 0.124219 0.110625
0.124869 0.141037 0.127070
0.150128 0.157856 0.143515
0.175387 0.174675 0.159960
0.200647 0.191494 0.176405
0.225906 0.208313 0.192850
0.251166 0.225131 0.209295
0.276425 0.241950 0.225740
0.301684 0.258769 0.242185
0.326944 0.275587 0.258630
0.352203 0.292406 0.275075
0.377462 0.309225 0.291520
0.402722 0.326044 0.307965
0.427981 0.342862 0.324410
0.453241 0.359681 0.340855
0.478500 0.376500 0.357300
0.503759 0.393319 0.373745
0.130794 0.163487 0.142910
0.156053 0.180306 0.159355
0.181312 0.197125 0.175800
0.206572 0.213944 0.192245
0.231831 0.230762 0.208690
0.257091 0.247581 0.225135
0.282350 0.264400 0.241580
0.307609 0.281219 0.258025
0.332869 0.298038 0.274470
0.358128 0.314856 0.290915
0.383387 0.331675 0.307360
0.408647 0.348494 0.323805
0.433906 0.365313 0.340250
0.459166 0.382131 0.356695
0.484425 0.398950 0.373140
0.509684 0.415769 0.389585
0.534944 0.432588 0.406030
0.161978 0.202756 0.175195
0.187237 0.219575 0.191640
0.212497 0.236394 0.208085
0.237756 0.253212 0.224530
0.263016 0.270031 0.240975
0.288275 0.286850 0.257420
0.313534 0.303669 0.273865
0.338794 0.320487 0.290310
0.364053 0.337306 0.306755
0.389312 0.354125 0.323200
0.414572 0.370944 0.339645
0.439831 0.387762 0.356090
0.465091 0.404581 0.372535
0.490350 0.421400 0.388980
0.515609 0.438219 0.405425
0.540869 0.455037 0.421870
0.566128 0.471856 0.438315
0.193162 0.242025 0.207480
0.218422 0.258844 0.223925
0.243681 0.275663 0.240370
0.268941 0.292481 0.256815
0.294200 0.309300 0.273260
0.319459 0.326119 0.289705
0.344719 0.342938 0.306150
0.369978 0.359756 0.322595
0.395237 0.376575 0.339040
0.420497 0.393394 0.355485
0.445756 0.410212 0.371930
0.471016 0.427031 0.388375
0.496275 0.443850 0.404820
0.521534 0.460669 0.421265
0.546794 0.477488 0.437710
0.572053 0.494306 0.454155
0.597313 0.511125 0.470600
0.224347 0.281294 0.239765
0.249606 0.298113 0.256210
0.274866 0.314931 0.272655
0.300125 0.331750 0.289100
0.325384 0.348569 0.305545
0.350644 0.365388 0.321990
0.375903 0.382206 0.338435
0.401162 0.399025 0.354880
0.426422 0.415844 0.371325
0.451681 0.432663 0.387770
0.476941 0.449481 0.404215
0.502200 0.466300 0.420660
0.527459 0.483119 0.437105
0.552719 0.499938 0.453550
0.577978 0.516756 0.469995
0.603237 0.533575 0.486440
0.628497 0.550394 0.502885
0.255531 0.320562 0.272050
0.280791 0.337381 0.288495
0.306050 0.354200 0.304940
0.331309 0.371019 0.321385
0.356569 0.387837 0.337830
0.381828 0.404656 0.354275
0.407087 0.421475 0.370720
0.432347 0.438294 0.387165
0.457606 0.455112 0.403610
0.482866 0.471931 0.420055
0.508125 0.488750 0.436500
0.533384 0.505569 0.452945
0.558644 0.522388 0.469390
0.583903 0.539206 0.485835
0.609163 0.556025 0.502280
0.634422 0.572844 0.518725
0.659681 0.589663 0.535170
0.286716 0.359831 0.304335
0.311975 0.376650 0.320780
0.337234 0.393469 0.337225
0.362494 0.410288 0.353670
0.387753 0.427106 0.370115
0.413012 0.443925 0.386560
0.438272 0.460744 0.403005
0.463531 0.477563 0.419450
0.488791 0.494381 0.435895
0.514050 0.511200 0.452340
0.539309 0.528019 0.468785
0.564569 0.544837 0.485230
0.589828 0.561656 0.501675
0.615088 0.578475 0.518120
0.640347 0.595294 0.534565
0.665606 0.612113 0.551010
0.690866 0.628931 0.567455
0.317900 0.399100 0.336620
0.343159 0.415919 0.353065
0.368419 0.432737 0.369510
0.393678 0.449556 0.385955
0.418937 0.466375 0.402400
0.444197 0.483194 0.418845
0.469456 0.500012 0.435290
0.494716 0.516831 0.451735
0.519975 0.533650 0.468180
0.545234 0.550469 0.484625
0.570494 0.567288 0.501070
0.595753 0.584106 0.517515
0.621012 0.600925 0.533960
0.646272 0.617744 0.550405
0.671531 0.634563 0.566850
0.696791 0.651381 0.583295
0.722050 0.668200 0.599740
0.349084 0.438369 0.368905
0.374344 0.455187 0.385350
0.399603 0.472006 0.401795
0.424862 0.488825 0.418240
0.450122 0.505644 0.434685
0.475381 0.522463 0.451130
0.500641 0.539281 0.467575
0.525900 0.556100 0.484020
0.551159 0.572919 0.500465
0.576419 0.589738 0.516910
0.601678 0.606556 0.533355
0.626937 0.623375 0.549800
0.652197 0.640194 0.566245
0.677456 0.657012 0.582690
0.702716 0.673831 0.599135
0.727975 0.690650 0.615580
0.753234 0.707469 0.632025
0.380269 0.477637 0.401190
0.405528 0.494456 0.417635
0.430787 0.511275 0.434080
0.456047 0.528094 0.450525
0.481306 0.544913 0.466970
0.506566 0.561731 0.483415
0.531825 0.578550 0.499860
0.557084 0.595369 0.516305
0.582344 0.612188 0.532750
0.607603 0.629006 0.549195
0.632862 0.645825 0.565640
0.658122 0.662644 0.582085
0.683381 0.679463 0.598530
0.708641 0.696281 0.614975
0.733900 0.713100 0.631420
0.759159 0.729919 0.647865
0.784419 0.746738 0.664310
0.411453 0.516906 0.433475
0.436713 0.533725 0.449920
0.461972 0.550544 0.466365
0.487231 0.567362 0.482810
0.512491 0.584181 0.499255
0.537750 0.601000 0.515700
0.563009 0.617819 0.532145
0.588269 0.634638 0.548590
0.613528 0.651456 0.565035
0.638787 0.668275 0.581480
0.664047 0.685094 0.597925
0.689306 0.701913 0.614370
0.714566 0.718731 0.630815
0.739825 0.735550 0.647260
0.765084 0.752369 0.663705
0.790344 0.769188 0.680150
0.815603 0.786006 0.696595
0.442638 0.556175 0.465760
0.467897 0.572994 0.482205
0.493156 0.589813 0.498650
0.518416 0.606631 0.515095
0.543675 0.623450 0.531540
0.568934 0.640269 0.547985
0.594194 0.657088 0.564430
0.619453 0.673906 0.580875
0.644712 0.690725 0.597320
0.669972 0.707544 0.613765
0.695231 0.724363 0.630210
0.720491 0.741181 0.646655
0.745750 0.758000 0.663100
0.771009 0.774819 0.679545
0.796269 0.791638 0.695990
0.821528 0.808456 0.712435
0.846788 0.825275 0.728880
0.473822 0.595444 0.498045
0.499081 0.612263 0.514490
0.524341 0.629081 0.530935
0.549600 0.645900 0.547380
0.574859 0.662719 0.563825
0.600119 0.679538 0.580270
0.625378 0.696356 0.596715
0.650638 0.713175 0.613160
0.675897 0.729994 0.629605
0.701156 0.746812 0.646050
0.726416 0.763631 0.662495
0.751675 0.780450 0.678940
0.776934 0.797269 0.695385
0.802194 0.814088 0.711830
0.827453 0.830906 0.728275
0.852712 0.847725 0.744720
0.877972 0.864544 0.761165
0.505006 0.634713 0.530330
0.530266 0.651531 0.546775
0.555525 0.668350 0.563220
0.580784 0.685169 0.579665
0.606044 0.701987 0.596110
0.631303 0.718806 0.612555
0.656563 0.735625 0.629000
0.681822 0.752444 0.645445
0.707081 0.769262 0.661890
0.732341 0.786081 0.678335
0.757600 0.802900 0.694780
0.782859 0.819719 0.711225
0.808119 0.836538 0.727670
0.833378 0.853356 0.744115
0.858637 0.870175 0.760560
0.883897 0.886994 0.777005
0.909156 0.903812 0.793450
0.012113 0.012825 0.027540
0.037372 0.029644 0.043985
0.062631 0.046462 0.060430
0.087891 0.063281 0.076875
0.113150 0.080100 0.093320
0.138409 0.096919 0.109765
0.163669 0.113738 0.126210
0.188928 0.130556 0.142655
0.214187 0.147375 0.159100
0.239447 0.164194 0.175545
0.264706 0.181012 0.191990
0.289966 0.197831 0.208435
0.315225 0.214650 0.224880
0.340484 0.231469 0.241325
0.365744 0.248287 0.257770
0.391003 0.265106 0.274215
0.416262 0.281925 0.290660
0.043297 0.052094 0.059825
0.068556 0.068913 0.076270
0.093816 0.085731 0.092715
0.119075 0.102550 0.109160
0.144334 0.119369 0.125605
0.169594 0.136188 0.142050
0.194853 0.153006 0.158495
0.220112 0.169825 0.174940
0.245372 0.186644 0.191385
0.270631 0.203462 0.207830
0.295891 0.220281 0.224275
0.321150 0.237100 0.240720
0.346409 0.253919 0.257165
0.371669 0.270737 0.273610
0.396928 0.287556 0.290055
0.422187 0.304375 0.306500
0.447447 0.321194 0.322945
0.074481 0.091362 0.092110
0.099741 0.108181 0.108555
0.125000 0.125000 0.125000
0.150259 0.141819 0.141445
0.175519 0.158638 0.157890
0.200778 0.175456 0.174335
0.226038 0.192275 0.190780
0.251297 0.209094 0.207225
0.276556 0.225913 0.223670
0.301816 0.242731 0.240115
0.327075 0.259550 0.256560
0.352334 0.276369 0.273005
0.377594 0.293188 0.289450
0.402853 0.310006 0.305895
0.428113 0.326825 0.322340
0.453372 0.343644 0.338785
0.478631 0.360463 0.355230
0.105666 0.130631 0.124395
0.130925 0.147450 0.140840
0.156184 0.164269 0.157285
0.181444 0.181088 0.173730
0.206703 0.197906 0.190175
0.231962 0.214725 0.206620
0.257222 0.231544 0.223065
0.282481 0.248362 0.239510
0.307741 0.265181 0.255955
0.333000 0.282000 0.272400
0.358259 0.298819 0.288845
0.383519 0.315637 0.305290
0.408778 0.332456 0.321735
0.434037 0.349275 0.338180
0.459297 0.366094 0.354625
0.484556 0.382912 0.371070
0.509816 0.399731 0.387515
0.136850 0.169900 0.156680
0.162109 0.186719 0.173125
0.187369 0.203537 0.189570
0.212628 0.220356 0.206015
0.237888 0.237175 0.222460
0.263147 0.253994 0.238905
0.288406 0.270812 0.255350
0.313666 0.287631 0.271795
0.338925 0.304450 0.288240
0.364184 0.321269 0.304685
0.389444 0.338087 0.321130
0.414703 0.354906 0.337575
0.439962 0.371725 0.354020
0.465222 0.388544 0.370465
0.490481 0.405363 0.386910
0.515741 0.422181 0.403355
0.541000 0.439000 0.419800
0.168034 0.209169 0.188965
0.193294 0.225987 0.205410
0.218553 0.242806 0.221855
0.243812 0.259625 0.238300
0.269072 0.276444 0.254745
0.294331 0.293262 0.271190
0.319591 0.310081 0.287635
0.344850 0.326900 0.304080
0.370109 0.343719 0.320525
0.395369 0.360537 0.336970
0.420628 0.377356 0.353415
0.445887 0.394175 0.369860
0.471147 0.410994 0.386305
0.496406 0.427812 0.402750
0.521666 0.444631 0.419195
0.546925 0.461450 0.435640
0.572184 0.478269 0.452085
0.199219 0.248438 0.221250
0.224478 0.265256 0.237695
0.249737 0.282075 0.254140
0.274997 0.298894 0.270585
0.300256 0.315712 0.287030
0.325516 0.332531 0.303475
0.350775 0.349350 0.319920
0.376034 0.366169 0.336365
0.401294 0.382988 0.352810
0.426553 0.399806 0.369255
0.451812 0.416625 0.385700
0.477072 0.433444 0.402145
0.502331 0.450263 0.418590
0.527591 0.467081 0.435035
0.552850 0.483900 0.451480
0.578109 0.500719 0.467925
0.603369 0.517537 0.484370
0.230403 0.287706 0.253535
0.255663 0.304525 0.269980
0.280922 0.321344 0.286425
0.306181 0.338163 0.302870
0.331441 0.354981 0.319315
0.356700 0.371800 0.335760
0.381959 0.388619 0.352205
0.407219 0.405438 0.368650
0.432478 0.422256 0.385095
0.457737 0.439075 0.401540
0.482997 0.455894 0.417985
0.508256 0.472712 0.434430
0.533516 0.489531 0.450875
0.558775 0.506350 0.467320
0.584034 0.523169 0.483765
0.609294 0.539987 0.500210
0.634553 0.556806 0.516655
0.261587 0.326975 0.285820
0.286847 0.343794 0.302265
0.312106 0.360612 0.318710
0.337366 0.377431 0.335155
0.362625 0.394250 0.351600
0.387884 0.411069 0.368045
0.413144 0.427887 0.384490
0.438403 0.444706 0.400935
0.463662 0.461525 0.417380
0.488922 0.478344 0.433825
0.514181 0.495163 0.450270
0.539441 0.511981 0.466715
0.564700 0.528800 0.483160
0.589959 0.545619 0.499605
0.615219 0.562438 0.516050
0.640478 0.579256 0.532495
0.665737 0.596075 0.548940
0.292772 0.366244 0.318105
0.318031 0.383063 0.334550
0.343291 0.399881 0.350995
0.368550 0.416700 0.367440
0.393809 0.433519 0.383885
0.419069 0.450338 0.400330
0.444328 0.467156 0.416775
0.469587 0.483975 0.433220
0.494847 0.500794 0.449665
0.520106 0.517613 0.466110
0.545366 0.534431 0.482555
0.570625 0.551250 0.499000
0.595884 0.568069 0.515445
0.621144 0.584888 0.531890
0.646403 0.601706 0.548335
0.671662 0.618525 0.564780
0.696922 0.635344 0.581225
0.323956 0.405512 0.350390
0.349216 0.422331 0.366835
0.374475 0.439150 0.383280
0.399734 0.455969 0.399725
0.424994 0.472787 0.416170
0.450253 0.489606 0.432615
0.475513 0.506425 0.449060
0.500772 0.523244 0.465505
0.526031 0.540062 0.481950
0.551291 0.556881 0.498395
0.576550 0.573700 0.514840
0.601809 0.590519 0.531285
0.627069 0.607337 0.547730
0.652328 0.624156 0.564175
0.677587 0.640975 0.580620
0.702847 0.657794 0.597065
0.728106 0.674612 0.613510
0.355141 0.444781 0.382675
0.380400 0.461600 0.399120
0.405659 0.478419 0.415565
0.430919 0.495237 0.432010
0.456178 0.512056 0.448455
0.481437 0.528875 0.464900
0.506697 0.545694 0.481345
0.531956 0.562513 0.497790
0.557216 0.579331 0.514235
0.582475 0.596150 0.530680
0.607734 0.612969 0.547125
0.632994 0.629787 0.563570
0.658253 0.646606 0.580015
0.683512 0.663425 0.596460
0.708772 0.680244 0.612905
0.734031 0.697063 0.629350
0.759291 0.713881 0.645795
0.386325 0.484050 0.414960
0.411584 0.500869 0.431405
0.436844 0.517687 0.447850
0.462103 0.534506 0.464295
0.487362 0.551325 0.480740
0.512622 0.568144 0.497185
0.537881 0.584963 0.513630
0.563141 0.601781 0.530075
0.588400 0.618600 0.546520
0.613659 0.635419 0.562965
0.638919 0.652238 0.579410
0.664178 0.669056 0.595855
0.689437 0.685875 0.612300
0.714697 0.702694 0.628745
0.739956 0.719512 0.645190
0.765216 0.736331 0.661635
0.790475 0.753150 0.678080
0.417509 0.523319 0.447245
0.442769 0.540138 0.463690
0.468028 0.556956 0.480135
0.493287 0.573775 0.496580
0.518547 0.590594 0.513025
0.543806 0.607413 0.529470
0.569066 0.624231 0.545915
0.594325 0.641050 0.562360
0.619584 0.657869 0.578805
0.644844 0.674687 0.595250
0.670103 0.691506 0.611695
0.695362 0.708325 0.628140
0.720622 0.725144 0.644585
0.745881 0.741962 0.661030
0.771141 0.758781 0.677475
0.796400 0.775600 0.693920
0.821659 0.792419 0.710365
0.448694 0.562588 0.479530
0.473953 0.579406 0.495975
0.499213 0.596225 0.512420
0.524472 0.613044 0.528865
0.549731 0.629862 0.545310
0.574991 0.646681 0.561755
0.600250 0.663500 0.578200
0.625509 0.680319 0.594645
0.650769 0.697137 0.611090
0.676028 0.713956 0.627535
0.701287 0.730775 0.643980
0.726547 0.747594 0.660425
0.751806 0.764413 0.676870
0.777066 0.781231 0.693315
0.802325 0.798050 0.709760
0.827584 0.814869 0.726205
0.852844 0.831687 0.742650
0.479878 0.601856 0.511815
0.505137 0.618675 0.528260
0.530397 0.635494 0.544705
0.555656 0.652312 0.561150
0.580916 0.669131 0.577595
0.606175 0.685950 0.594040
0.631434 0.702769 0.610485
0.656694 0.719587 0.626930
0.681953 0.736406 0.643375
0.707212 0.753225 0.659820
0.732472 0.770044 0.676265
0.757731 0.786863 0.692710
0.782991 0.803681 0.709155
0.808250 0.820500 0.725600
0.833509 0.837319 0.742045
0.858769 0.854137 0.758490
0.884028 0.870956 0.774935
0.511062 0.641125 0.544100
0.536322 0.657944 0.560545
0.561581 0.674763 0.576990
0.586841 0.691581 0.593435
0.612100 0.708400 0.609880
0.637359 0.725219 0.626325
0.662619 0.742038 0.642770
0.687878 0.758856 0.659215
0.713137 0.775675 0.675660
0.738397 0.792494 0.692105
0.763656 0.809312 0.708550
0.788916 0.826131 0.724995
0.814175 0.842950 0.741440
0.839434 0.859769 0.757885
0.864694 0.876587 0.774330
0.889953 0.893406 0.790775
0.915212 0.910225 0.807220
0.018169 0.019238 0.041310
0.043428 0.036056 0.057755
0.068687 0.052875 0.074200
0.093947 0.069694 0.090645
0.119206 0.086513 0.107090
0.144466 0.103331 0.123535
0.169725 0.120150 0.139980
0.194984 0.136969 0.156425
0.220244 0.153787 0.172870
0.245503 0.170606 0.189315
0.270763 0.187425 0.205760
0.296022 0.204244 0.222205
0.321281 0.221063 0.238650
0.346541 0.237881 0.255095
0.371800 0.254700 0.271540
0.397059 0.271519 0.287985
0.422319 0.288337 0.304430
0.049353 0.058506 0.073595
