assets/luts/neutral_grade.cube
TITLE "Neutral Grade"
LUT_3D_SIZE 17
DOMAIN_MIN 0.0 0.0 0.0
DOMAIN_MAX 1.0 1.0 1.0
0.000000 0.000000 0.000000
0.063750 0.000000 0.000000
0.127500 0.000000 0.000000
0.191250 0.000000 0.000000
0.255000 0.000000 0.000000
0.318750 0.000000 0.000000
0.382500 0.000000 0.000000
0.446250 0.000000 0.000000
0.510000 0.000000 0.000000
0.573750 0.000000 0.000000
0.637500 0.000000 0.000000
0.701250 0.000000 0.000000
0.765000 0.000000 0.000000
0.828750 0.000000 0.000000
0.892500 0.000000 0.000000
0.956250 0.000000 0.000000
1.020000 0.000000 0.000000
0.000000 0.063750 0.000000
0.063750 0.063750 0.000000
0.127500 0.063750 0.000000
0.191250 0.063750 0.000000
0.255000 0.063750 0.000000
0.318750 0.063750 0.000000
0.382500 0.063750 0.000000
0.446250 0.063750 0.000000
0.510000 0.063750 0.000000
0.573750 0.063750 0.000000
0.637500 0.063750 0.000000
0.701250 0.063750 0.000000
0.765000 0.063750 0.000000
0.828750 0.063750 0.000000
0.892500 0.063750 0.000000
0.956250 0.063750 0.000000
1.020000 0.063750 0.000000
0.000000 0.127500 0.000000
0.063750 0.127500 0.000000
0.127500 0.127500 0.000000
0.191250 0.127500 0.000000
0.255000 0.127500 0.000000
0.318750 0.127500 0.000000
0.382500 0.127500 0.000000
0.446250 0.127500 0.000000
0.510000 0.127500 0.000000
0.573750 0.127500 0.000000
0.637500 0.127500 0.000000
0.701250 0.127500 0.000000
0.765000 0.127500 0.000000
0.828750 0.127500 0.000000
0.892500 0.127500 0.000000
0.956250 0.127500 0.000000
1.020000 0.127500 0.000000
0.000000 0.191250 0.000000
0.063750 0.191250 0.000000
0.127500 0.191250 0.000000
0.191250 0.191250 0.000000
0.255000 0.191250 0.000000
0.318750 0.191250 0.000000
0.382500 0.191250 0.000000
0.446250 0.191250 0.000000
0.510000 0.191250 0.000000
0.573750 0.191250 0.000000
0.637500 0.191250 0.000000
0.701250 0.191250 0.000000
0.765000 0.191250 0.000000
0.828750 0.191250 0.000000
0.892500 0.191250 0.000000
0.956250 0.191250 0.000000
1.020000 0.191250 0.000000
0.000000 0.255000 0.000000
0.063750 0.255000 0.000000
0.127500 0.255000 0.000000
0.191250 0.255000 0.000000
0.255000 0.255000 0.000000
0.318750 0.255000 0.000000
0.382500 0.255000 0.000000
0.446250 0.255000 0.000000
0.510000 0.255000 0.000000
0.573750 0.255000 0.000000
0.637500 0.255000 0.000000
0.701250 0.255000 0.000000
0.765000 0.255000 0.000000
0.828750 0.255000 0.000000
0.892500 0.255000 0.000000
0.956250 0.255000 0.000000
1.020000 0.255000 0.000000
0.000000 0.318750 0.000000
0.063750 0.318750 0.000000
0.127500 0.318750 0.000000
0.191250 0.318750 0.000000
0.255000 0.318750 0.000000
0.318750 0.318750 0.000000
0.382500 0.318750 0.000000
0.446250 0.318750 0.000000
0.510000 0.318750 0.000000
0.573750 0.318750 0.000000
0.637500 0.318750 0.000000
0.701250 0.318750 0.000000
0.765000 0.318750 0.000000
0.828750 0.318750 0.000000
0.892500 0.318750 0.000000
0.956250 0.318750 0.000000
1.020000 0.318750 0.000000
0.000000 0.382500 0.000000
0.063750 0.382500 0.000000
0.127500 0.382500 0.000000
0.191250 0.382500 0.000000
0.255000 0.382500 0.000000
0.318750 0.382500 0.000000
0.382500 0.382500 0.000000
0.446250 0.382500 0.000000
0.510000 0.382500 0.000000
0.573750 0.382500 0.000000
0.637500 0.382500 0.000000
0.701250 0.382500 0.000000
0.765000 0.382500 0.000000
0.828750 0.382500 0.000000
0.892500 0.382500 0.000000
0.956250 0.382500 0.000000
1.020000 0.382500 0.000000
0.000000 0.446250 0.000000
0.063750 0.446250 0.000000
0.127500 0.446250 0.000000
0.191250 0.446250 0.000000
0.255000 0.446250 0.000000
0.318750 0.446250 0.000000
0.382500 0.446250 0.000000
0.446250 0.446250 0.000000
0.510000 0.446250 0.000000
0.573750 0.446250 0.000000
0.637500 0.446250 0.000000
0.701250 0.446250 0.000000
0.765000 0.446250 0.000000
0.828750 0.446250 0.000000
0.892500 0.446250 0.000000
0.956250 0.446250 0.000000
1.020000 0.446250 0.000000
0.000000 0.510000 0.000000
0.063750 0.510000 0.000000
0.127500 0.510000 0.000000
0.191250 0.510000 0.000000
0.255000 0.510000 0.000000
0.318750 0.510000 0.000000
0.382500 0.510000 0.000000
0.446250 0.510000 0.000000
0.510000 0.510000 0.000000
0.573750 0.510000 0.000000
0.637500 0.510000 0.000000
0.701250 0.510000 0.000000
0.765000 0.510000 0.000000
0.828750 0.510000 0.000000
0.892500 0.510000 0.000000
0.956250 0.510000 0.000000
1.020000 0.510000 0.000000
0.000000 0.573750 0.000000
0.063750 0.573750 0.000000
0.127500 0.573750 0.000000
0.191250 0.573750 0.000000
0.255000 0.573750 0.000000
0.318750 0.573750 0.000000
0.382500 0.573750 0.000000
0.446250 0.573750 0.000000
0.510000 0.573750 0.000000
0.573750 0.573750 0.000000
0.637500 0.573750 0.000000
0.701250 0.573750 0.000000
0.765000 0.573750 0.000000
0.828750 0.573750 0.000000
0.892500 0.573750 0.000000
0.956250 0.573750 0.000000
1.020000 0.573750 0.000000
0.000000 0.637500 0.000000
0.063750 0.637500 0.000000
0.127500 0.637500 0.000000
0.191250 0.637500 0.000000
0.255000 0.637500 0.000000
0.318750 0.637500 0.000000
0.382500 0.637500 0.000000
0.446250 0.637500 0.000000
0.510000 0.637500 0.000000
0.573750 0.637500 0.000000
0.637500 0.637500 0.000000
0.701250 0.637500 0.000000
0.765000 0.637500 0.000000
0.828750 0.637500 0.000000
0.892500 0.637500 0.000000
0.956250 0.637500 0.000000
1.020000 0.637500 0.000000
0.000000 0.701250 0.000000
0.063750 0.701250 0.000000
0.127500 0.701250 0.000000
0.191250 0.701250 0.000000
0.255000 0.701250 0.000000
0.318750 0.701250 0.000000
0.382500 0.701250 0.000000
0.446250 0.701250 0.000000
0.510000 0.701250 0.000000
0.573750 0.701250 0.000000
0.637500 0.701250 0.000000
0.701250 0.701250 0.000000
0.765000 0.701250 0.000000
0.828750 0.701250 0.000000
0.892500 0.701250 0.000000
0.956250 0.701250 0.000000
1.020000 0.701250 0.000000
0.000000 0.765000 0.000000
0.063750 0.765000 0.000000
0.127500 0.765000 0.000000
0.191250 0.765000 0.000000
0.255000 0.765000 0.000000
0.318750 0.765000 0.000000
0.382500 0.765000 0.000000
0.446250 0.765000 0.000000
0.510000 0.765000 0.000000
0.573750 0.765000 0.000000
0.637500 0.765000 0.000000
0.701250 0.765000 0.000000
0.765000 0.765000 0.000000
0.828750 0.765000 0.000000
0.892500 0.765000 0.000000
0.956250 0.765000 0.000000
1.020000 0.765000 0.000000
0.000000 0.828750 0.000000
0.063750 0.828750 0.000000
0.127500 0.828750 0.000000
0.191250 0.828750 0.000000
0.255000 0.828750 0.000000
0.318750 0.828750 0.000000
0.382500 0.828750 0.000000
0.446250 0.828750 0.000000
0.510000 0.828750 0.000000
0.573750 0.828750 0.000000
0.637500 0.828750 0.000000
0.701250 0.828750 0.000000
0.765000 0.828750 0.000000
0.828750 0.828750 0.000000
0.892500 0.828750 0.000000
0.956250 0.828750 0.000000
1.020000 0.828750 0.000000
0.000000 0.892500 0.000000
0.063750 0.892500 0.000000
0.127500 0.892500 0.000000
0.191250 0.892500 0.000000
0.255000 0.892500 0.000000
0.318750 0.892500 0.000000
0.382500 0.892500 0.000000
0.446250 0.892500 0.000000
0.510000 0.892500 0.000000
0.573750 0.892500 0.000000
0.637500 0.892500 0.000000
0.701250 0.892500 0.000000
0.765000 0.892500 0.000000
0.828750 0.892500 0.000000
0.892500 0.892500 0.000000
0.956250 0.892500 0.000000
1.020000 0.892500 0.000000
0.000000 0.956250 0.000000
0.063750 0.956250 0.000000
0.127500 0.956250 0.000000
0.191250 0.956250 0.000000
0.255000 0.956250 0.000000
0.318750 0.956250 0.000000
0.382500 0.956250 0.000000
0.446250 0.956250 0.000000
0.510000 0.956250 0.000000
0.573750 0.956250 0.000000
0.637500 0.956250 0.000000
0.701250 0.956250 0.000000
0.765000 0.956250 0.000000
0.828750 0.956250 0.000000
0.892500 0.956250 0.000000
0.956250 0.956250 0.000000
1.020000 0.956250 0.000000
0.000000 1.020000 0.000000
0.063750 1.020000 0.000000
0.127500 1.020000 0.000000
0.191250 1.020000 0.000000
0.255000 1.020000 0.000000
0.318750 1.020000 0.000000
0.382500 1.020000 0.000000
0.446250 1.020000 0.000000
0.510000 1.020000 0.000000
0.573750 1.020000 0.000000
0.637500 1.020000 0.000000
0.701250 1.020000 0.000000
0.765000 1.020000 0.000000
0.828750 1.020000 0.000000
0.892500 1.020000 0.000000
0.956250 1.020000 0.000000
1.020000 1.020000 0.000000
0.000000 0.000000 0.063750
0.063750 0.000000 0.063750
0.127500 0.000000 0.063750
0.191250 0.000000 0.063750
0.255000 0.000000 0.063750
0.318750 0.000000 0.063750
0.382500 0.000000 0.063750
0.446250 0.000000 0.063750
0.510000 0.000000 0.063750
0.573750 0.000000 0.063750
0.637500 0.000000 0.063750
0.701250 0.000000 0.063750
0.765000 0.000000 0.063750
0.828750 0.000000 0.063750
0.892500 0.000000 0.063750
0.956250 0.000000 0.063750
1.020000 0.000000 0.063750
0.000000 0.063750 0.063750
0.063750 0.063750 0.063750
0.127500 0.063750 0.063750
0.191250 0.063750 0.063750
0.255000 0.063750 0.063750
0.318750 0.063750 0.063750
0.382500 0.063750 0.063750
0.446250 0.063750 0.063750
0.510000 0.063750 0.063750
0.573750 0.063750 0.063750
0.637500 0.063750 0.063750
0.701250 0.063750 0.063750
0.765000 0.063750 0.063750
0.828750 0.063750 0.063750
0.892500 0.063750 0.063750
0.956250 0.063750 0.063750
1.020000 0.063750 0.063750
0.000000 0.127500 0.063750
0.063750 0.127500 0.063750
0.127500 0.127500 0.063750
0.191250 0.127500 0.063750
0.255000 0.127500 0.063750
0.318750 0.127500 0.063750
0.382500 0.127500 0.063750
0.446250 0.127500 0.063750
0.510000 0.127500 0.063750
0.573750 0.127500 0.063750
0.637500 0.127500 0.063750
0.701250 0.127500 0.063750
0.765000 0.127500 0.063750
0.828750 0.127500 0.063750
0.892500 0.127500 0.063750
0.956250 0.127500 0.063750
1.020000 0.127500 0.063750
0.000000 0.191250 0.063750
0.063750 0.191250 0.063750
0.127500 0.191250 0.063750
0.191250 0.191250 0.063750
0.255000 0.191250 0.063750
0.318750 0.191250 0.063750
0.382500 0.191250 0.063750
0.446250 0.191250 0.063750
0.510000 0.191250 0.063750
0.573750 0.191250 0.063750
0.637500 0.191250 0.063750
0.701250 0.191250 0.063750
0.765000 0.191250 0.063750
0.828750 0.191250 0.063750
0.892500 0.191250 0.063750
0.956250 0.191250 0.063750
1.020000 0.191250 0.063750
0.000000 0.255000 0.063750
0.063750 0.255000 0.063750
0.127500 0.255000 0.063750
0.191250 0.255000 0.063750
0.255000 0.255000 0.063750
0.318750 0.255000 0.063750
0.382500 0.255000 0.063750
0.446250 0.255000 0.063750
0.510000 0.255000 0.063750
0.573750 0.255000 0.063750
0.637500 0.255000 0.063750
0.701250 0.255000 0.063750
0.765000 0.255000 0.063750
0.828750 0.255000 0.063750
0.892500 0.255000 0.063750
0.956250 0.255000 0.063750
1.020000 0.255000 0.063750
0.000000 0.318750 0.063750
0.063750 0.318750 0.063750
0.127500 0.318750 0.063750
0.191250 0.318750 0.063750
0.255000 0.318750 0.063750
0.318750 0.318750 0.063750
0.382500 0.318750 0.063750
0.446250 0.318750 0.063750
0.510000 0.318750 0.063750
0.573750 0.318750 0.063750
0.637500 0.318750 0.063750
0.701250 0.318750 0.063750
0.765000 0.318750 0.063750
0.828750 0.318750 0.063750
0.892500 0.318750 0.063750
0.956250 0.318750 0.063750
1.020000 0.318750 0.063750
0.000000 0.382500 0.063750
0.063750 0.382500 0.063750
0.127500 0.382500 0.063750
0.191250 0.382500 0.063750
0.255000 0.382500 0.063750
0.318750 0.382500 0.063750
0.382500 0.382500 0.063750
0.446250 0.382500 0.063750
0.510000 0.382500 0.063750
0.573750 0.382500 0.063750
0.637500 0.382500 0.063750
0.701250 0.382500 0.063750
0.765000 0.382500 0.063750
0.828750 0.382500 0.063750
0.892500 0.382500 0.063750
0.956250 0.382500 0.063750
1.020000 0.382500 0.063750
0.000000 0.446250 0.063750
0.063750 0.446250 0.063750
0.127500 0.446250 0.063750
0.191250 0.446250 0.063750
0.255000 0.446250 0.063750
0.318750 0.446250 0.063750
0.382500 0.446250 0.063750
0.446250 0.446250 0.063750
0.510000 0.446250 0.063750
0.573750 0.446250 0.063750
0.637500 0.446250 0.063750
0.701250 0.446250 0.063750
0.765000 0.446250 0.063750
0.828750 0.446250 0.063750
0.892500 0.446250 0.063750
0.956250 0.446250 0.063750
1.020000 0.446250 0.063750
0.000000 0.510000 0.063750
0.063750 0.510000 0.063750
0.127500 0.510000 0.063750
0.191250 0.510000 0.063750
0.255000 0.510000 0.063750
0.318750 0.510000 0.063750
0.382500 0.510000 0.063750
0.446250 0.510000 0.063750
0.510000 0.510000 0.063750
0.573750 0.510000 0.063750
0.637500 0.510000 0.063750
0.701250 0.510000 0.063750
0.765000 0.510000 0.063750
0.828750 0.510000 0.063750
0.892500 0.510000 0.063750
0.956250 0.510000 0.063750
1.020000 0.510000 0.063750
0.000000 0.573750 0.063750
0.063750 0.573750 0.063750
0.127500 0.573750 0.063750
0.191250 0.573750 0.063750
0.255000 0.573750 0.063750
0.318750 0.573750 0.063750
0.382500 0.573750 0.063750
0.446250 0.573750 0.063750
0.510000 0.573750 0.063750
0.573750 0.573750 0.063750
0.637500 0.573750 0.063750
0.701250 0.573750 0.063750
0.765000 0.573750 0.063750
0.828750 0.573750 0.063750
0.892500 0.573750 0.063750
0.956250 0.573750 0.063750
1.020000 0.573750 0.063750
0.000000 0.637500 0.063750
0.063750 0.637500 0.063750
0.127500 0.637500 0.063750
0.191250 0.637500 0.063750
0.255000 0.637500 0.063750
0.318750 0.637500 0.063750
0.382500 0.637500 0.063750
0.446250 0.637500 0.063750
0.510000 0.637500 0.063750
0.573750 0.637500 0.063750
0.637500 0.637500 0.063750
0.701250 0.637500 0.063750
0.765000 0.637500 0.063750
0.828750 0.637500 0.063750
0.892500 0.637500 0.063750
0.956250 0.637500 0.063750
1.020000 0.637500 0.063750
0.000000 0.701250 0.063750
0.063750 0.701250 0.063750
0.127500 0.701250 0.063750
0.191250 0.701250 0.063750
0.255000 0.701250 0.063750
0.318750 0.701250 0.063750
0.382500 0.701250 0.063750
0.446250 0.701250 0.063750
0.510000 0.701250 0.063750
0.573750 0.701250 0.063750
0.637500 0.701250 0.063750
0.701250 0.701250 0.063750
0.765000 0.701250 0.063750
0.828750 0.701250 0.063750
0.892500 0.701250 0.063750
0.956250 0.701250 0.063750
1.020000 0.701250 0.063750
0.000000 0.765000 0.063750
0.063750 0.765000 0.063750
0.127500 0.765000 0.063750
0.191250 0.765000 0.063750
0.255000 0.765000 0.063750
0.318750 0.765000 0.063750
0.382500 0.765000 0.063750
0.446250 0.765000 0.063750
0.510000 0.765000 0.063750
0.573750 0.765000 0.063750
0.637500 0.765000 0.063750
0.701250 0.765000 0.063750
0.765000 0.765000 0.063750
0.828750 0.765000 0.063750
0.892500 0.765000 0.063750
0.956250 0.765000 0.063750
1.020000 0.765000 0.063750
0.000000 0.828750 0.063750
0.063750 0.828750 0.063750
0.127500 0.828750 0.063750
0.191250 0.828750 0.063750
0.255000 0.828750 0.063750
0.318750 0.828750 0.063750
0.382500 0.828750 0.063750
0.446250 0.828750 0.063750
0.510000 0.828750 0.063750
0.573750 0.828750 0.063750
0.637500 0.828750 0.063750
0.701250 0.828750 0.063750
0.765000 0.828750 0.063750
0.828750 0.828750 0.063750
0.892500 0.828750 0.063750
0.956250 0.828750 0.063750
1.020000 0.828750 0.063750
0.000000 0.892500 0.063750
0.063750 0.892500 0.063750
0.127500 0.892500 0.063750
0.191250 0.892500 0.063750
0.255000 0.892500 0.063750
0.318750 0.892500 0.063750
0.382500 0.892500 0.063750
0.446250 0.892500 0.063750
0.510000 0.892500 0.063750
0.573750 0.892500 0.063750
0.637500 0.892500 0.063750
0.701250 0.892500 0.063750
0.765000 0.892500 0.063750
0.828750 0.892500 0.063750
0.892500 0.892500 0.063750
0.956250 0.892500 0.063750
1.020000 0.892500 0.063750
0.000000 0.956250 0.063750
0.063750 0.956250 0.063750
0.127500 0.956250 0.063750
0.191250 0.956250 0.063750
0.255000 0.956250 0.063750
0.318750 0.956250 0.063750
0.382500 0.956250 0.063750
0.446250 0.956250 0.063750
0.510000 0.956250 0.063750
0.573750 0.956250 0.063750
0.637500 0.956250 0.063750
0.701250 0.956250 0.063750
0.765000 0.956250 0.063750
0.828750 0.956250 0.063750
0.892500 0.956250 0.063750
0.956250 0.956250 0.063750
1.020000 0.956250 0.063750
0.000000 1.020000 0.063750
0.063750 1.020000 0.063750
0.127500 1.020000 0.063750
0.191250 1.020000 0.063750
0.255000 1.020000 0.063750
0.318750 1.020000 0.063750
0.382500 1.020000 0.063750
0.446250 1.020000 0.063750
0.510000 1.020000 0.063750
0.573750 1.020000 0.063750
0.637500 1.020000 0.063750
0.701250 1.020000 0.063750
0.765000 1.020000 0.063750
0.828750 1.020000 0.063750
0.892500 1.020000 0.063750
0.956250 1.020000 0.063750
1.020000 1.020000 0.063750
0.000000 0.000000 0.127500
0.063750 0.000000 0.127500
0.127500 0.000000 0.127500
0.191250 0.000000 0.127500
0.255000 0.000000 0.127500
0.318750 0.000000 0.127500
0.382500 0.000000 0.127500
0.446250 0.000000 0.127500
0.510000 0.000000 0.127500
0.573750 0.000000 0.127500
0.637500 0.000000 0.127500
0.701250 0.000000 0.127500
0.765000 0.000000 0.127500
0.828750 0.000000 0.127500
0.892500 0.000000 0.127500
0.956250 0.000000 0.127500
1.020000 0.000000 0.127500
0.000000 0.063750 0.127500
0.063750 0.063750 0.127500
0.127500 0.063750 0.127500
0.191250 0.063750 0.127500
0.255000 0.063750 0.127500
0.318750 0.063750 0.127500
0.382500 0.063750 0.127500
0.446250 0.063750 0.127500
0.510000 0.063750 0.127500
0.573750 0.063750 0.127500
0.637500 0.063750 0.127500
0.701250 0.063750 0.127500
0.765000 0.063750 0.127500
0.828750 0.063750 0.127500
0.892500 0.063750 0.127500
0.956250 0.063750 0.127500
1.020000 0.063750 0.127500
0.000000 0.127500 0.127500
0.063750 0.127500 0.127500
0.127500 0.127500 0.127500
0.191250 0.127500 0.127500
0.255000 0.127500 0.127500
0.318750 0.127500 0.127500
0.382500 0.127500 0.127500
0.446250 0.127500 0.127500
0.510000 0.127500 0.127500
0.573750 0.127500 0.127500
0.637500 0.127500 0.127500
0.701250 0.127500 0.127500
0.765000 0.127500 0.127500
0.828750 0.127500 0.127500
0.892500 0.127500 0.127500
0.956250 0.127500 0.127500
1.020000 0.127500 0.127500
0.000000 0.191250 0.127500
0.063750 0.191250 0.127500
0.127500 0.191250 0.127500
0.191250 0.191250 0.127500
0.255000 0.191250 0.127500
0.318750 0.191250 0.127500
0.382500 0.191250 0.127500
0.446250 0.191250 0.127500
0.510000 0.191250 0.127500
0.573750 0.191250 0.127500
0.637500 0.191250 0.127500
0.701250 0.191250 0.127500
0.765000 0.191250 0.127500
0.828750 0.191250 0.127500
0.892500 0.191250 0.127500
0.956250 0.191250 0.127500
1.020000 0.191250 0.127500
0.000000 0.255000 0.127500
0.063750 0.255000 0.127500
0.127500 0.255000 0.127500
0.191250 0.255000 0.127500
0.255000 0.255000 0.127500
0.318750 0.255000 0.127500
0.382500 0.255000 0.127500
0.446250 0.255000 0.127500
0.510000 0.255000 0.127500
0.573750 0.255000 0.127500
0.637500 0.255000 0.127500
0.701250 0.255000 0.127500
0.765000 0.255000 0.127500
0.828750 0.255000 0.127500
0.892500 0.255000 0.127500
0.956250 0.255000 0.127500
1.020000 0.255000 0.127500
0.000000 0.318750 0.127500
0.063750 0.318750 0.127500
0.127500 0.318750 0.127500
0.191250 0.318750 0.127500
0.255000 0.318750 0.127500
0.318750 0.318750 0.127500
0.382500 0.318750 0.127500
0.446250 0.318750 0.127500
0.510000 0.318750 0.127500
0.573750 0.318750 0.127500
0.637500 0.318750 0.127500
0.701250 0.318750 0.127500
0.765000 0.318750 0.127500
0.828750 0.318750 0.127500
0.892500 0.318750 0.127500
0.956250 0.318750 0.127500
1.020000 0.318750 0.127500
0.000000 0.382500 0.127500
0.063750 0.382500 0.127500
0.127500 0.382500 0.127500
0.191250 0.382500 0.127500
0.255000 0.382500 0.127500
0.318750 0.382500 0.127500
0.382500 0.382500 0.127500
0.446250 0.382500 0.127500
0.510000 0.382500 0.127500
0.573750 0.382500 0.127500
0.637500 0.382500 0.127500
0.701250 0.382500 0.127500
0.765000 0.382500 0.127500
0.828750 0.382500 0.127500
0.892500 0.382500 0.127500
0.956250 0.382500 0.127500
1.020000 0.382500 0.127500
0.000000 0.446250 0.127500
0.063750 0.446250 0.127500
0.127500 0.446250 0.127500
0.191250 0.446250 0.127500
0.255000 0.446250 0.127500
0.318750 0.446250 0.127500
0.382500 0.446250 0.127500
0.446250 0.446250 0.127500
0.510000 0.446250 0.127500
0.573750 0.446250 0.127500
0.637500 0.446250 0.127500
0.701250 0.446250 0.127500
0.765000 0.446250 0.127500
0.828750 0.446250 0.127500
0.892500 0.446250 0.127500
0.956250 0.446250 0.127500
1.020000 0.446250 0.127500
0.000000 0.510000 0.127500
0.063750 0.510000 0.127500
0.127500 0.510000 0.127500
0.191250 0.510000 0.127500
0.255000 0.510000 0.127500
0.318750 0.510000 0.127500
0.382500 0.510000 0.127500
0.446250 0.510000 0.127500
0.510000 0.510000 0.127500
0.573750 0.510000 0.127500
0.637500 0.510000 0.127500
0.701250 0.510000 0.127500
0.765000 0.510000 0.127500
0.828750 0.510000 0.127500
0.892500 0.510000 0.127500
0.956250 0.510000 0.127500
1.020000 0.510000 0.127500
0.000000 0.573750 0.127500
0.063750 0.573750 0.127500
0.127500 0.573750 0.127500
0.191250 0.573750 0.127500
0.255000 0.573750 0.127500
0.318750 0.573750 0.127500
0.382500 0.573750 0.127500
0.446250 0.573750 0.127500
0.510000 0.573750 0.127500
0.573750 0.573750 0.127500
0.637500 0.573750 0.127500
0.701250 0.573750 0.127500
0.765000 0.573750 0.127500
0.828750 0.573750 0.127500
0.892500 0.573750 0.127500
0.956250 0.573750 0.127500
1.020000 0.573750 0.127500
0.000000 0.637500 0.127500
0.063750 0.637500 0.127500
0.127500 0.637500 0.127500
0.191250 0.637500 0.127500
0.255000 0.637500 0.127500
0.318750 0.637500 0.127500
0.382500 0.637500 0.127500
0.446250 0.637500 0.127500
0.510000 0.637500 0.127500
0.573750 0.637500 0.127500
0.637500 0.637500 0.127500
0.701250 0.637500 0.127500
0.765000 0.637500 0.127500
0.828750 0.637500 0.127500
0.892500 0.637500 0.127500
0.956250 0.637500 0.127500
1.020000 0.637500 0.127500
0.000000 0.701250 0.127500
0.063750 0.701250 0.127500
0.127500 0.701250 0.127500
0.191250 0.701250 0.127500
0.255000 0.701250 0.127500
0.318750 0.701250 0.127500
0.382500 0.701250 0.127500
0.446250 0.701250 0.127500
0.510000 0.701250 0.127500
0.573750 0.701250 0.127500
0.637500 0.701250 0.127500
0.701250 0.701250 0.127500
0.765000 0.701250 0.127500
0.828750 0.701250 0.127500
0.892500 0.701250 0.127500
0.956250 0.701250 0.127500
1.020000 0.701250 0.127500
0.000000 0.765000 0.127500
0.063750 0.765000 0.127500
0.127500 0.765000 0.127500
0.191250 0.765000 0.127500
0.255000 0.765000 0.127500
0.318750 0.765000 0.127500
0.382500 0.765000 0.127500
0.446250 0.765000 0.127500
0.510000 0.765000 0.127500
0.573750 0.765000 0.127500
0.637500 0.765000 0.127500
0.701250 0.765000 0.127500
0.765000 0.765000 0.127500
0.828750 0.765000 0.127500
0.892500 0.765000 0.127500
0.956250 0.765000 0.127500
1.020000 0.765000 0.127500
0.000000 0.828750 0.127500
0.063750 0.828750 0.127500
0.127500 0.828750 0.127500
0.191250 0.828750 0.127500
0.255000 0.828750 0.127500
0.318750 0.828750 0.127500
0.382500 0.828750 0.127500
0.446250 0.828750 0.127500
0.510000 0.828750 0.127500
0.573750 0.828750 0.127500
0.637500 0.828750 0.127500
0.701250 0.828750 0.127500
0.765000 0.828750 0.127500
0.828750 0.828750 0.127500
0.892500 0.828750 0.127500
0.956250 0.828750 0.127500
1.020000 0.828750 0.127500
0.000000 0.892500 0.127500
0.063750 0.892500 0.127500
0.127500 0.892500 0.127500
0.191250 0.892500 0.127500
0.255000 0.892500 0.127500
0.318750 0.892500 0.127500
0.382500 0.892500 0.127500
0.446250 0.892500 0.127500
0.510000 0.892500 0.127500
0.573750 0.892500 0.127500
0.637500 0.892500 0.127500
0.701250 0.892500 0.127500
0.765000 0.892500 0.127500
0.828750 0.892500 0.127500
0.892500 0.892500 0.127500
0.956250 0.892500 0.127500
1.020000 0.892500 0.127500
0.000000 0.956250 0.127500
0.063750 0.956250 0.127500
0.127500 0.956250 0.127500
0.191250 0.956250 0.127500
0.255000 0.956250 0.127500
0.318750 0.956250 0.127500
0.382500 0.956250 0.127500
0.446250 0.956250 0.127500
0.510000 0.956250 0.127500
0.573750 0.956250 0.127500
0.637500 0.956250 0.127500
0.701250 0.956250 0.127500
0.765000 0.956250 0.127500
0.828750 0.956250 0.127500
0.892500 0.956250 0.127500
0.956250 0.956250 0.127500
1.020000 0.956250 0.127500
0.000000 1.020000 0.127500
0.063750 1.020000 0.127500
0.127500 1.020000 0.127500
0.191250 1.020000 0.127500
0.255000 1.020000 0.127500
0.318750 1.020000 0.127500
0.382500 1.020000 0.127500
0.446250 1.020000 0.127500
0.510000 1.020000 0.127500
0.573750 1.020000 0.127500
0.637500 1.020000 0.127500
0.701250 1.020000 0.127500
0.765000 1.020000 0.127500
0.828750 1.020000 0.127500
0.892500 1.020000 0.127500
0.956250 1.020000 0.127500
1.020000 1.020000 0.127500
0.000000 0.000000 0.191250
0.063750 0.000000 0.191250
0.127500 0.000000 0.191250
0.191250 0.000000 0.191250
0.255000 0.000000 0.191250
0.318750 0.000000 0.191250
0.382500 0.000000 0.191250
0.446250 0.000000 0.191250
0.510000 0.000000 0.191250
0.573750 0.000000 0.191250
0.637500 0.000000 0.191250
0.701250 0.000000 0.191250
0.765000 0.000000 0.191250
0.828750 0.000000 0.191250
0.892500 0.000000 0.191250
0.956250 0.000000 0.191250
1.020000 0.000000 0.191250
0.000000 0.063750 0.191250
