assets/luts/neutral_grade.cube
TITLE "Neutral Grade"
LUT_3D_SIZE 9
DOMAIN_MIN 0.0 0.0 0.0
DOMAIN_MAX 1.0 1.0 1.0
0.000000 0.000000 0.000000
0.127500 0.000000 0.000000
0.255000 0.000000 0.000000
0.382500 0.000000 0.000000
0.510000 0.000000 0.000000
0.637500 0.000000 0.000000
0.765000 0.000000 0.000000
0.892500 0.000000 0.000000
1.020000 0.000000 0.000000
0.000000 0.127500 0.000000
0.127500 0.127500 0.000000
0.255000 0.127500 0.000000
0.382500 0.127500 0.000000
0.510000 0.127500 0.000000
0.637500 0.127500 0.000000
0.765000 0.127500 0.000000
0.892500 0.127500 0.000000
1.020000 0.127500 0.000000
0.000000 0.255000 0.000000
0.127500 0.255000 0.000000
0.255000 0.255000 0.000000
0.382500 0.255000 0.000000
0.510000 0.255000 0.000000
0.637500 0.255000 0.000000
0.765000 0.255000 0.000000
0.892500 0.255000 0.000000
1.020000 0.255000 0.000000
0.000000 0.382500 0.000000
0.127500 0.382500 0.000000
0.255000 0.382500 0.000000
0.382500 0.382500 0.000000
0.510000 0.382500 0.000000
0.637500 0.382500 0.000000
0.765000 0.382500 0.000000
0.892500 0.382500 0.000000
1.020000 0.382500 0.000000
0.000000 0.510000 0.000000
0.127500 0.510000 0.000000
0.255000 0.510000 0.000000
0.382500 0.510000 0.000000
0.510000 0.510000 0.000000
0.637500 0.510000 0.000000
0.765000 0.510000 0.000000
0.892500 0.510000 0.000000
1.020000 0.510000 0.000000
0.000000 0.637500 0.000000
0.127500 0.637500 0.000000
0.255000 0.637500 0.000000
0.382500 0.637500 0.000000
0.510000 0.637500 0.000000
0.637500 0.637500 0.000000
0.765000 0.637500 0.000000
0.892500 0.637500 0.000000
1.020000 0.637500 0.000000
0.000000 0.765000 0.000000
0.127500 0.765000 0.000000
0.255000 0.765000 0.000000
0.382500 0.765000 0.000000
0.510000 0.765000 0.000000
0.637500 0.765000 0.000000
0.765000 0.765000 0.000000
0.892500 0.765000 0.000000
1.020000 0.765000 0.000000
0.000000 0.892500 0.000000
0.127500 0.892500 0.000000
0.255000 0.892500 0.000000
0.382500 0.892500 0.000000
0.510000 0.892500 0.000000
0.637500 0.892500 0.000000
0.765000 0.892500 0.000000
0.892500 0.892500 0.000000
1.020000 0.892500 0.000000
0.000000 1.020000 0.000000
0.127500 1.020000 0.000000
0.255000 1.020000 0.000000
0.382500 1.020000 0.000000
0.510000 1.020000 0.000000
0.637500 1.020000 0.000000
0.765000 1.020000 0.000000
0.892500 1.020000 0.000000
1.020000 1.020000 0.000000
0.000000 0.000000 0.127500
0.127500 0.000000 0.127500
0.255000 0.000000 0.127500
0.382500 0.000000 0.127500
0.510000 0.000000 0.127500
0.637500 0.000000 0.127500
0.765000 0.000000 0.127500
0.892500 0.000000 0.127500
1.020000 0.000000 0.127500
0.000000 0.127500 0.127500
0.127500 0.127500 0.127500
0.255000 0.127500 0.127500
0.382500 0.127500 0.127500
0.510000 0.127500 0.127500
0.637500 0.127500 0.127500
0.765000 0.127500 0.127500
0.892500 0.127500 0.127500
1.020000 0.127500 0.127500
0.000000 0.255000 0.127500
0.127500 0.255000 0.127500
0.255000 0.255000 0.127500
0.382500 0.255000 0.127500
0.510000 0.255000 0.127500
0.637500 0.255000 0.127500
0.765000 0.255000 0.127500
0.892500 0.255000 0.127500
1.020000 0.255000 0.127500
0.000000 0.382500 0.127500
0.127500 0.382500 0.127500
0.255000 0.382500 0.127500
0.382500 0.382500 0.127500
0.510000 0.382500 0.127500
0.637500 0.382500 0.127500
0.765000 0.382500 0.127500
0.892500 0.382500 0.127500
1.020000 0.382500 0.127500
0.000000 0.510000 0.127500
0.127500 0.510000 0.127500
0.255000 0.510000 0.127500
0.382500 0.510000 0.127500
0.510000 0.510000 0.127500
0.637500 0.510000 0.127500
0.765000 0.510000 0.127500
0.892500 0.510000 0.127500
1.020000 0.510000 0.127500
0.000000 0.637500 0.127500
0.127500 0.637500 0.127500
0.255000 0.637500 0.127500
0.382500 0.637500 0.127500
0.510000 0.637500 0.127500
0.637500 0.637500 0.127500
0.765000 0.637500 0.127500
0.892500 0.637500 0.127500
1.020000 0.637500 0.127500
0.000000 0.765000 0.127500
0.127500 0.765000 0.127500
0.255000 0.765000 0.127500
0.382500 0.765000 0.127500
0.510000 0.765000 0.127500
0.637500 0.765000 0.127500
0.765000 0.765000 0.127500
0.892500 0.765000 0.127500
1.020000 0.765000 0.127500
0.000000 0.892500 0.127500
0.127500 0.892500 0.127500
0.255000 0.892500 0.127500
0.382500 0.892500 0.127500
0.510000 0.892500 0.127500
0.637500 0.892500 0.127500
0.765000 0.892500 0.127500
0.892500 0.892500 0.127500
1.020000 0.892500 0.127500
0.000000 1.020000 0.127500
0.127500 1.020000 0.127500
0.255000 1.020000 0.127500
0.382500 1.020000 0.127500
0.510000 1.020000 0.127500
0.637500 1.020000 0.127500
0.765000 1.020000 0.127500
0.892500 1.020000 0.127500
1.020000 1.020000 0.127500
0.000000 0.000000 0.255000
0.127500 0.000000 0.255000
0.255000 0.000000 0.255000
0.382500 0.000000 0.255000
0.510000 0.000000 0.255000
0.637500 0.000000 0.255000
0.765000 0.000000 0.255000
0.892500 0.000000 0.255000
1.020000 0.000000 0.255000
0.000000 0.127500 0.255000
0.127500 0.127500 0.255000
0.255000 0.127500 0.255000
0.382500 0.127500 0.255000
0.510000 0.127500 0.255000
0.637500 0.127500 0.255000
0.765000 0.127500 0.255000
0.892500 0.127500 0.255000
1.020000 0.127500 0.255000
0.000000 0.255000 0.255000
0.127500 0.255000 0.255000
0.255000 0.255000 0.255000
0.382500 0.255000 0.255000
0.510000 0.255000 0.255000
0.637500 0.255000 0.255000
0.765000 0.255000 0.255000
0.892500 0.255000 0.255000
1.020000 0.255000 0.255000
0.000000 0.382500 0.255000
0.127500 0.382500 0.255000
0.255000 0.382500 0.255000
0.382500 0.382500 0.255000
0.510000 0.382500 0.255000
0.637500 0.382500 0.255000
0.765000 0.382500 0.255000
0.892500 0.382500 0.255000
1.020000 0.382500 0.255000
0.000000 0.510000 0.255000
0.127500 0.510000 0.255000
0.255000 0.510000 0.255000
0.382500 0.510000 0.255000
0.510000 0.510000 0.255000
0.637500 0.510000 0.255000
0.765000 0.510000 0.255000
0.892500 0.510000 0.255000
1.020000 0.510000 0.255000
0.000000 0.637500 0.255000
0.127500 0.637500 0.255000
0.255000 0.637500 0.255000
0.382500 0.637500 0.255000
0.510000 0.637500 0.255000
0.637500 0.637500 0.255000
0.765000 0.637500 0.255000
0.892500 0.637500 0.255000
1.020000 0.637500 0.255000
0.000000 0.765000 0.255000
0.127500 0.765000 0.255000
0.255000 0.765000 0.255000
0.382500 0.765000 0.255000
0.510000 0.765000 0.255000
0.637500 0.765000 0.255000
0.765000 0.765000 0.255000
0.892500 0.765000 0.255000
1.020000 0.765000 0.255000
0.000000 0.892500 0.255000
0.127500 0.892500 0.255000
0.255000 0.892500 0.255000
0.382500 0.892500 0.255000
0.510000 0.892500 0.255000
0.637500 0.892500 0.255000
0.765000 0.892500 0.255000
0.892500 0.892500 0.255000
1.020000 0.892500 0.255000
0.000000 1.020000 0.255000
0.127500 1.020000 0.255000
0.255000 1.020000 0.255000
0.382500 1.020000 0.255000
0.510000 1.020000 0.255000
0.637500 1.020000 0.255000
0.765000 1.020000 0.255000
0.892500 1.020000 0.255000
1.020000 1.020000 0.255000
0.000000 0.000000 0.382500
0.127500 0.000000 0.382500
0.255000 0.000000 0.382500
0.382500 0.000000 0.382500
0.510000 0.000000 0.382500
0.637500 0.000000 0.382500
0.765000 0.000000 0.382500
0.892500 0.000000 0.382500
1.020000 0.000000 0.382500
0.000000 0.127500 0.382500
0.127500 0.127500 0.382500
0.255000 0.127500 0.382500
0.382500 0.127500 0.382500
0.510000 0.127500 0.382500
0.637500 0.127500 0.382500
0.765000 0.127500 0.382500
0.892500 0.127500 0.382500
1.020000 0.127500 0.382500
0.000000 0.255000 0.382500
0.127500 0.255000 0.382500
0.255000 0.255000 0.382500
0.382500 0.255000 0.382500
0.510000 0.255000 0.382500
0.637500 0.255000 0.382500
0.765000 0.255000 0.382500
0.892500 0.255000 0.382500
1.020000 0.255000 0.382500
0.000000 0.382500 0.382500
0.127500 0.382500 0.382500
0.255000 0.382500 0.382500
0.382500 0.382500 0.382500
0.510000 0.382500 0.382500
0.637500 0.382500 0.382500
0.765000 0.382500 0.382500
0.892500 0.382500 0.382500
1.020000 0.382500 0.382500
0.000000 0.510000 0.382500
0.127500 0.510000 0.382500
0.255000 0.510000 0.382500
0.382500 0.510000 0.382500
0.510000 0.510000 0.382500
0.637500 0.510000 0.382500
0.765000 0.510000 0.382500
0.892500 0.510000 0.382500
1.020000 0.510000 0.382500
0.000000 0.637500 0.382500
0.127500 0.637500 0.382500
0.255000 0.637500 0.382500
0.382500 0.637500 0.382500
0.510000 0.637500 0.382500
0.637500 0.637500 0.382500
0.765000 0.637500 0.382500
0.892500 0.637500 0.382500
1.020000 0.637500 0.382500
0.000000 0.765000 0.382500
0.127500 0.765000 0.382500
0.255000 0.765000 0.382500
0.382500 0.765000 0.382500
0.510000 0.765000 0.382500
0.637500 0.765000 0.382500
0.765000 0.765000 0.382500
0.892500 0.765000 0.382500
1.020000 0.765000 0.382500
0.000000 0.892500 0.382500
0.127500 0.892500 0.382500
0.255000 0.892500 0.382500
0.382500 0.892500 0.382500
0.510000 0.892500 0.382500
0.637500 0.892500 0.382500
0.765000 0.892500 0.382500
0.892500 0.892500 0.382500
1.020000 0.892500 0.382500
0.000000 1.020000 0.382500
0.127500 1.020000 0.382500
0.255000 1.020000 0.382500
0.382500 1.020000 0.382500
0.510000 1.020000 0.382500
0.637500 1.020000 0.382500
0.765000 1.020000 0.382500
0.892500 1.020000 0.382500
1.020000 1.020000 0.382500
0.000000 0.000000 0.510000
0.127500 0.000000 0.510000
0.255000 0.000000 0.510000
0.382500 0.000000 0.510000
0.510000 0.000000 0.510000
0.637500 0.000000 0.510000
0.765000 0.000000 0.510000
0.892500 0.000000 0.510000
1.020000 0.000000 0.510000
0.000000 0.127500 0.510000
0.127500 0.127500 0.510000
0.255000 0.127500 0.510000
0.382500 0.127500 0.510000
0.510000 0.127500 0.510000
0.637500 0.127500 0.510000
0.765000 0.127500 0.510000
0.892500 0.127500 0.510000
1.020000 0.127500 0.510000
0.000000 0.255000 0.510000
0.127500 0.255000 0.510000
0.255000 0.255000 0.510000
0.382500 0.255000 0.510000
0.510000 0.255000 0.510000
0.637500 0.255000 0.510000
0.765000 0.255000 0.510000
0.892500 0.255000 0.510000
1.020000 0.255000 0.510000
0.000000 0.382500 0.510000
0.127500 0.382500 0.510000
0.255000 0.382500 0.510000
0.382500 0.382500 0.510000
0.510000 0.382500 0.510000
0.637500 0.382500 0.510000
0.765000 0.382500 0.510000
0.892500 0.382500 0.510000
1.020000 0.382500 0.510000
0.000000 0.510000 0.510000
0.127500 0.510000 0.510000
0.255000 0.510000 0.510000
0.382500 0.510000 0.510000
0.510000 0.510000 0.510000
0.637500 0.510000 0.510000
0.765000 0.510000 0.510000
0.892500 0.510000 0.510000
1.020000 0.510000 0.510000
0.000000 0.637500 0.510000
0.127500 0.637500 0.510000
0.255000 0.637500 0.510000
0.382500 0.637500 0.510000
0.510000 0.637500 0.510000
0.637500 0.637500 0.510000
0.765000 0.637500 0.510000
0.892500 0.637500 0.510000
1.020000 0.637500 0.510000
0.000000 0.765000 0.510000
0.127500 0.765000 0.510000
0.255000 0.765000 0.510000
0.382500 0.765000 0.510000
0.510000 0.765000 0.510000
0.637500 0.765000 0.510000
0.765000 0.765000 0.510000
0.892500 0.765000 0.510000
1.020000 0.765000 0.510000
0.000000 0.892500 0.510000
0.127500 0.892500 0.510000
0.255000 0.892500 0.510000
0.382500 0.892500 0.510000
0.510000 0.892500 0.510000
0.637500 0.892500 0.510000
0.765000 0.892500 0.510000
0.892500 0.892500 0.510000
1.020000 0.892500 0.510000
0.000000 1.020000 0.510000
0.127500 1.020000 0.510000
0.255000 1.020000 0.510000
0.382500 1.020000 0.510000
0.510000 1.020000 0.510000
0.637500 1.020000 0.510000
0.765000 1.020000 0.510000
0.892500 1.020000 0.510000
1.020000 1.020000 0.510000
0.000000 0.000000 0.637500
0.127500 0.000000 0.637500
0.255000 0.000000 0.637500
0.382500 0.000000 0.637500
0.510000 0.000000 0.637500
0.637500 0.000000 0.637500
0.765000 0.000000 0.637500
0.892500 0.000000 0.637500
1.020000 0.000000 0.637500
0.000000 0.127500 0.637500
0.127500 0.127500 0.637500
0.255000 0.127500 0.637500
0.382500 0.127500 0.637500
0.510000 0.127500 0.637500
0.637500 0.127500 0.637500
0.765000 0.127500 0.637500
0.892500 0.127500 0.637500
1.020000 0.127500 0.637500
0.000000 0.255000 0.637500
0.127500 0.255000 0.637500
0.255000 0.255000 0.637500
0.382500 0.255000 0.637500
0.510000 0.255000 0.637500
0.637500 0.255000 0.637500
0.765000 0.255000 0.637500
0.892500 0.255000 0.637500
1.020000 0.255000 0.637500
0.000000 0.382500 0.637500
0.127500 0.382500 0.637500
0.255000 0.382500 0.637500
0.382500 0.382500 0.637500
0.510000 0.382500 0.637500
0.637500 0.382500 0.637500
0.765000 0.382500 0.637500
0.892500 0.382500 0.637500
1.020000 0.382500 0.637500
0.000000 0.510000 0.637500
0.127500 0.510000 0.637500
0.255000 0.510000 0.637500
0.382500 0.510000 0.637500
0.510000 0.510000 0.637500
0.637500 0.510000 0.637500
0.765000 0.510000 0.637500
0.892500 0.510000 0.637500
1.020000 0.510000 0.637500
0.000000 0.637500 0.637500
0.127500 0.637500 0.637500
0.255000 0.637500 0.637500
0.382500 0.637500 0.637500
0.510000 0.637500 0.637500
0.637500 0.637500 0.637500
0.765000 0.637500 0.637500
0.892500 0.637500 0.637500
1.020000 0.637500 0.637500
0.000000 0.765000 0.637500
0.127500 0.765000 0.637500
0.255000 0.765000 0.637500
0.382500 0.765000 0.637500
0.510000 0.765000 0.637500
0.637500 0.765000 0.637500
0.765000 0.765000 0.637500
0.892500 0.765000 0.637500
1.020000 0.765000 0.637500
0.000000 0.892500 0.637500
0.127500 0.892500 0.637500
0.255000 0.892500 0.637500
0.382500 0.892500 0.637500
0.510000 0.892500 0.637500
0.637500 0.892500 0.637500
0.765000 0.892500 0.637500
0.892500 0.892500 0.637500
1.020000 0.892500 0.637500
0.000000 1.020000 0.637500
0.127500 1.020000 0.637500
0.255000 1.020000 0.637500
0.382500 1.020000 0.637500
0.510000 1.020000 0.637500
0.637500 1.020000 0.637500
0.765000 1.020000 0.637500
0.892500 1.020000 0.637500
1.020000 1.020000 0.637500
0.000000 0.000000 0.765000
0.127500 0.000000 0.765000
0.255000 0.000000 0.765000
0.382500 0.000000 0.765000
0.510000 0.000000 0.765000
0.637500 0.000000 0.765000
0.765000 0.000000 0.765000
0.892500 0.000000 0.765000
1.020000 0.000000 0.765000
0.000000 0.127500 0.765000
0.127500 0.127500 0.765000
0.255000 0.127500 0.765000
0.382500 0.127500 0.765000
0.510000 0.127500 0.765000
0.637500 0.127500 0.765000
0.765000 0.127500 0.765000
0.892500 0.127500 0.765000
1.020000 0.127500 0.765000
0.000000 0.255000 0.765000
0.127500 0.255000 0.765000
0.255000 0.255000 0.765000
0.382500 0.255000 0.765000
0.510000 0.255000 0.765000
0.637500 0.255000 0.765000
0.765000 0.255000 0.765000
0.892500 0.255000 0.765000
1.020000 0.255000 0.765000
0.000000 0.382500 0.765000
0.127500 0.382500 0.765000
0.255000 0.382500 0.765000
0.382500 0.382500 0.765000
0.510000 0.382500 0.765000
0.637500 0.382500 0.765000
0.765000 0.382500 0.765000
0.892500 0.382500 0.765000
1.020000 0.382500 0.765000
0.000000 0.510000 0.765000
0.127500 0.510000 0.765000
0.255000 0.510000 0.765000
0.382500 0.510000 0.765000
0.510000 0.510000 0.765000
0.637500 0.510000 0.765000
0.765000 0.510000 0.765000
0.892500 0.510000 0.765000
1.020000 0.510000 0.765000
0.000000 0.637500 0.765000
0.127500 0.637500 0.765000
0.255000 0.637500 0.765000
0.382500 0.637500 0.765000
0.510000 0.637500 0.765000
0.637500 0.637500 0.765000
0.765000 0.637500 0.765000
0.892500 0.637500 0.765000
1.020000 0.637500 0.765000
0.000000 0.765000 0.765000
0.127500 0.765000 0.765000
0.255000 0.765000 0.765000
0.382500 0.765000 0.765000
0.510000 0.765000 0.765000
0.637500 0.765000 0.765000
0.765000 0.765000 0.765000
0.892500 0.765000 0.765000
1.020000 0.765000 0.765000
0.000000 0.892500 0.765000
0.127500 0.892500 0.765000
0.255000 0.892500 0.765000
0.382500 0.892500 0.765000
0.510000 0.892500 0.765000
0.637500 0.892500 0.765000
0.765000 0.892500 0.765000
0.892500 0.892500 0.765000
1.020000 0.892500 0.765000
0.000000 1.020000 0.765000
0.127500 1.020000 0.765000
0.255000 1.020000 0.765000
0.382500 1.020000 0.765000
0.510000 1.020000 0.765000
0.637500 1.020000 0.765000
0.765000 1.020000 0.765000
0.892500 1.020000 0.765000
1.020000 1.020000 0.765000
0.000000 0.000000 0.892500
0.127500 0.000000 0.892500
0.255000 0.000000 0.892500
0.382500 0.000000 0.892500
0.510000 0.000000 0.892500
0.637500 0.000000 0.892500
0.765000 0.000000 0.892500
0.892500 0.000000 0.892500
1.020000 0.000000 0.892500
0.000000 0.127500 0.892500
0.127500 0.127500 0.892500
0.255000 0.127500 0.892500
0.382500 0.127500 0.892500
0.510000 0.127500 0.892500
0.637500 0.127500 0.892500
0.765000 0.127500 0.892500
0.892500 0.127500 0.892500
1.020000 0.127500 0.892500
0.000000 0.255000 0.892500
0.127500 0.255000 0.892500
0.255000 0.255000 0.892500
0.382500 0.255000 0.892500
0.510000 0.255000 0.892500
0.637500 0.255000 0.892500
0.765000 0.255000 0.892500
0.892500 0.255000 0.892500
1.020000 0.255000 0.892500
0.000000 0.382500 0.892500
0.127500 0.382500 0.892500
0.255000 0.382500 0.892500
0.382500 0.382500 0.892500
0.510000 0.382500 0.892500
0.637500 0.382500 0.892500
0.765000 0.382500 0.892500
0.892500 0.382500 0.892500
1.020000 0.382500 0.892500
0.000000 0.510000 0.892500
0.127500 0.510000 0.892500
0.255000 0.510000 0.892500
0.382500 0.510000 0.892500
0.510000 0.510000 0.892500
0.637500 0.510000 0.892500
0.765000 0.510000 0.892500
0.892500 0.510000 0.892500
1.020000 0.510000 0.892500
0.000000 0.637500 0.892500
0.127500 0.637500 0.892500
0.255000 0.637500 0.892500
0.382500 0.637500 0.892500
0.510000 0.637500 0.892500
0.637500 0.637500 0.892500
0.765000 0.637500 0.892500
0.892500 0.637500 0.892500
1.020000 0.637500 0.892500
0.000000 0.765000 0.892500
0.127500 0.765000 0.892500
0.255000 0.765000 0.892500
0.382500 0.765000 0.892500
0.510000 0.765000 0.892500
0.637500 0.765000 0.892500
0.765000 0.765000 0.892500
0.892500 0.765000 0.892500
1.020000 0.765000 0.892500
0.000000 0.892500 0.892500
0.127500 0.892500 0.892500
0.255000 0.892500 0.892500
0.382500 0.892500 0.892500
0.510000 0.892500 0.892500
0.637500 0.892500 0.892500
0.765000 0.892500 0.892500
0.892500 0.892500 0.892500
1.020000 0.892500 0.892500
0.000000 1.020000 0.892500
0.127500 1.020000 0.892500
0.255000 1.020000 0.892500
0.382500 1.020000 0.892500
0.510000 1.020000 0.892500
0.637500 1.020000 0.892500
0.765000 1.020000 0.892500
0.892500 1.020000 0.892500
1.020000 1.020000 0.892500
0.000000 0.000000 1.020000
0.127500 0.000000 1.020000
0.255000 0.000000 1.020000
0.382500 0.000000 1.020000
0.510000 0.000000 1.020000
0.637500 0.000000 1.020000
0.765000 0.000000 1.020000
0.892500 0.000000 1.020000
1.020000 0.000000 1.020000
0.000000 0.127500 1.020000
0.127500 0.127500 1.020000
0.255000 0.127500 1.020000
0.382500 0.127500 1.020000
0.510000 0.127500 1.020000
0.637500 0.127500 1.020000
0.765000 0.127500 1.020000
0.892500 0.127500 1.020000
1.020000 0.127500 1.020000
0.000000 0.255000 1.020000
0.127500 0.255000 1.020000
0.255000 0.255000 1.020000
0.382500 0.255000 1.020000
0.510000 0.255000 1.020000
0.637500 0.255000 1.020000
0.765000 0.255000 1.020000
0.892500 0.255000 1.020000
1.020000 0.255000 1.020000
0.000000 0.382500 1.020000
0.127500 0.382500 1.020000
0.255000 0.382500 1.020000
0.382500 0.382500 1.020000
0.510000 0.382500 1.020000
0.637500 0.382500 1.020000
0.765000 0.382500 1.020000
0.892500 0.382500 1.020000
1.020000 0.382500 1.020000
0.000000 0.510000 1.020000
0.127500 0.510000 1.020000
0.255000 0.510000 1.020000
0.382500 0.510000 1.020000
0.510000 0.510000 1.020000
0.637500 0.510000 1.020000
0.765000 0.510000 1.020000
0.892500 0.510000 1.020000
1.020000 0.510000 1.020000
0.000000 0.637500 1.020000
0.127500 0.637500 1.020000
0.255000 0.637500 1.020000
0.382500 0.637500 1.020000
0.510000 0.637500 1.020000
0.637500 0.637500 1.020000
0.765000 0.637500 1.020000
0.892500 0.637500 1.020000
1.020000 0.637500 1.020000
0.000000 0.765000 1.020000
0.127500 0.765000 1.020000
0.255000 0.765000 1.020000
0.382500 0.765000 1.020000
0.510000 0.765000 1.020000
0.637500 0.765000 1.020000
0.765000 0.765000 1.020000
0.892500 0.765000 1.020000
1.020000 0.765000 1.020000
0.000000 0.892500 1.020000
0.127500 0.892500 1.020000
0.255000 0.892500 1.020000
0.382500 0.892500 1.020000
0.510000 0.892500 1.020000
0.637500 0.892500 1.020000
0.765000 0.892500 1.020000
0.892500 0.892500 1.020000
1.020000 0.892500 1.020000
0.000000 1.020000 1.020000
0.127500 1.020000 1.020000
0.255000 1.020000 1.020000
0.382500 1.020000 1.020000
0.510000 1.020000 1.020000
0.637500 1.020000 1.020000
0.765000 1.020000 1.020000
0.892500 1.020000 1.020000
1.020000 1.020000 1.020000
