assets/luts/neutral_grade.cube
TITLE "Neutral Grade"
LUT_3D_SIZE 5
DOMAIN_MIN 0.0 0.0 0.0
DOMAIN_MAX 1.0 1.0 1.0
0.000000 0.000000 0.000000
0.255000 0.000000 0.000000
0.510000 0.000000 0.000000
0.765000 0.000000 0.000000
1.020000 0.000000 0.000000
0.000000 0.255000 0.000000
0.255000 0.255000 0.000000
0.510000 0.255000 0.000000
0.765000 0.255000 0.000000
1.020000 0.255000 0.000000
0.000000 0.510000 0.000000
0.255000 0.510000 0.000000
0.510000 0.510000 0.000000
0.765000 0.510000 0.000000
1.020000 0.510000 0.000000
0.000000 0.765000 0.000000
0.255000 0.765000 0.000000
0.510000 0.765000 0.000000
0.765000 0.765000 0.000000
1.020000 0.765000 0.000000
0.000000 1.020000 0.000000
0.255000 1.020000 0.000000
0.510000 1.020000 0.000000
0.765000 1.020000 0.000000
1.020000 1.020000 0.000000
0.000000 0.000000 0.255000
0.255000 0.000000 0.255000
0.510000 0.000000 0.255000
0.765000 0.000000 0.255000
1.020000 0.000000 0.255000
0.000000 0.255000 0.255000
0.255000 0.255000 0.255000
0.510000 0.255000 0.255000
0.765000 0.255000 0.255000
1.020000 0.255000 0.255000
0.000000 0.510000 0.255000
0.255000 0.510000 0.255000
0.510000 0.510000 0.255000
0.765000 0.510000 0.255000
1.020000 0.510000 0.255000
0.000000 0.765000 0.255000
0.255000 0.765000 0.255000
0.510000 0.765000 0.255000
0.765000 0.765000 0.255000
1.020000 0.765000 0.255000
0.000000 1.020000 0.255000
0.255000 1.020000 0.255000
0.510000 1.020000 0.255000
0.765000 1.020000 0.255000
1.020000 1.020000 0.255000
0.000000 0.000000 0.510000
0.255000 0.000000 0.510000
0.510000 0.000000 0.510000
0.765000 0.000000 0.510000
1.020000 0.000000 0.510000
0.000000 0.255000 0.510000
0.255000 0.255000 0.510000
0.510000 0.255000 0.510000
0.765000 0.255000 0.510000
1.020000 0.255000 0.510000
0.000000 0.510000 0.510000
0.255000 0.510000 0.510000
0.510000 0.510000 0.510000
0.765000 0.510000 0.510000
1.020000 0.510000 0.510000
0.000000 0.765000 0.510000
0.255000 0.765000 0.510000
0.510000 0.765000 0.510000
0.765000 0.765000 0.510000
1.020000 0.765000 0.510000
0.000000 1.020000 0.510000
0.255000 1.020000 0.510000
0.510000 1.020000 0.510000
0.765000 1.020000 0.510000
1.020000 1.020000 0.510000
0.000000 0.000000 0.765000
0.255000 0.000000 0.765000
0.510000 0.000000 0.765000
0.765000 0.000000 0.765000
1.020000 0.000000 0.765000
0.000000 0.255000 0.765000
0.255000 0.255000 0.765000
0.510000 0.255000 0.765000
0.765000 0.255000 0.765000
1.020000 0.255000 0.765000
0.000000 0.510000 0.765000
0.255000 0.510000 0.765000
0.510000 0.510000 0.765000
0.765000 0.510000 0.765000
1.020000 0.510000 0.765000
0.000000 0.765000 0.765000
0.255000 0.765000 0.765000
0.510000 0.765000 0.765000
0.765000 0.765000 0.765000
1.020000 0.765000 0.765000
0.000000 1.020000 0.765000
0.255000 1.020000 0.765000
0.510000 1.020000 0.765000
0.765000 1.020000 0.765000
1.020000 1.020000 0.765000
0.000000 0.000000 1.020000
0.255000 0.000000 1.020000
0.510000 0.000000 1.020000
0.765000 0.000000 1.020000
1.020000 0.000000 1.020000
0.000000 0.255000 1.020000
0.255000 0.255000 1.020000
0.510000 0.255000 1.020000
0.765000 0.255000 1.020000
1.020000 0.255000 1.020000
0.000000 0.510000 1.020000
0.255000 0.510000 1.020000
0.510000 0.510000 1.020000
0.765000 0.510000 1.020000
1.020000 0.510000 1.020000
0.000000 0.765000 1.020000
0.255000 0.765000 1.020000
0.510000 0.765000 1.020000
0.765000 0.765000 1.020000
1.020000 0.765000 1.020000
0.000000 1.020000 1.020000
0.255000 1.020000 1.020000
0.510000 1.020000 1.020000
0.765000 1.020000 1.020000
1.020000 1.020000 1.020000
