assets/luts/sunset_warm.cube
TITLE "Sunset Warm"
LUT_3D_SIZE 9
DOMAIN_MIN 0.0 0.0 0.0
DOMAIN_MAX 1.0 1.0 1.0
0.000000 0.000000 0.000000
0.150000 0.000000 0.000000
0.300000 0.000000 0.000000
0.450000 0.000000 0.000000
0.600000 0.000000 0.000000
0.750000 0.000000 0.000000
0.900000 0.000000 0.000000
1.050000 0.000000 0.000000
1.200000 0.000000 0.000000
0.000000 0.118750 0.000000
0.150000 0.118750 0.000000
0.300000 0.118750 0.000000
0.450000 0.118750 0.000000
0.600000 0.118750 0.000000
0.750000 0.118750 0.000000
0.900000 0.118750 0.000000
1.050000 0.118750 0.000000
1.200000 0.118750 0.000000
0.000000 0.237500 0.000000
0.150000 0.237500 0.000000
0.300000 0.237500 0.000000
0.450000 0.237500 0.000000
0.600000 0.237500 0.000000
0.750000 0.237500 0.000000
0.900000 0.237500 0.000000
1.050000 0.237500 0.000000
1.200000 0.237500 0.000000
0.000000 0.356250 0.000000
0.150000 0.356250 0.000000
0.300000 0.356250 0.000000
0.450000 0.356250 0.000000
0.600000 0.356250 0.000000
0.750000 0.356250 0.000000
0.900000 0.356250 0.000000
1.050000 0.356250 0.000000
1.200000 0.356250 0.000000
0.000000 0.475000 0.000000
0.150000 0.475000 0.000000
0.300000 0.475000 0.000000
0.450000 0.475000 0.000000
0.600000 0.475000 0.000000
0.750000 0.475000 0.000000
0.900000 0.475000 0.000000
1.050000 0.475000 0.000000
1.200000 0.475000 0.000000
0.000000 0.593750 0.000000
0.150000 0.593750 0.000000
0.300000 0.593750 0.000000
0.450000 0.593750 0.000000
0.600000 0.593750 0.000000
0.750000 0.593750 0.000000
0.900000 0.593750 0.000000
1.050000 0.593750 0.000000
1.200000 0.593750 0.000000
0.000000 0.712500 0.000000
0.150000 0.712500 0.000000
0.300000 0.712500 0.000000
0.450000 0.712500 0.000000
0.600000 0.712500 0.000000
0.750000 0.712500 0.000000
0.900000 0.712500 0.000000
1.050000 0.712500 0.000000
1.200000 0.712500 0.000000
0.000000 0.831250 0.000000
0.150000 0.831250 0.000000
0.300000 0.831250 0.000000
0.450000 0.831250 0.000000
0.600000 0.831250 0.000000
0.750000 0.831250 0.000000
0.900000 0.831250 0.000000
1.050000 0.831250 0.000000
1.200000 0.831250 0.000000
0.000000 0.950000 0.000000
0.150000 0.950000 0.000000
0.300000 0.950000 0.000000
0.450000 0.950000 0.000000
0.600000 0.950000 0.000000
0.750000 0.950000 0.000000
0.900000 0.950000 0.000000
1.050000 0.950000 0.000000
1.200000 0.950000 0.000000
0.000000 0.000000 0.087500
0.150000 0.000000 0.087500
0.300000 0.000000 0.087500
0.450000 0.000000 0.087500
0.600000 0.000000 0.087500
0.750000 0.000000 0.087500
0.900000 0.000000 0.087500
1.050000 0.000000 0.087500
1.200000 0.000000 0.087500
0.000000 0.118750 0.087500
0.150000 0.118750 0.087500
0.300000 0.118750 0.087500
0.450000 0.118750 0.087500
0.600000 0.118750 0.087500
0.750000 0.118750 0.087500
0.900000 0.118750 0.087500
1.050000 0.118750 0.087500
1.200000 0.118750 0.087500
0.000000 0.237500 0.087500
0.150000 0.237500 0.087500
0.300000 0.237500 0.087500
0.450000 0.237500 0.087500
0.600000 0.237500 0.087500
0.750000 0.237500 0.087500
0.900000 0.237500 0.087500
1.050000 0.237500 0.087500
1.200000 0.237500 0.087500
0.000000 0.356250 0.087500
0.150000 0.356250 0.087500
0.300000 0.356250 0.087500
0.450000 0.356250 0.087500
0.600000 0.356250 0.087500
0.750000 0.356250 0.087500
0.900000 0.356250 0.087500
1.050000 0.356250 0.087500
1.200000 0.356250 0.087500
0.000000 0.475000 0.087500
0.150000 0.475000 0.087500
0.300000 0.475000 0.087500
0.450000 0.475000 0.087500
0.600000 0.475000 0.087500
0.750000 0.475000 0.087500
0.900000 0.475000 0.087500
1.050000 0.475000 0.087500
1.200000 0.475000 0.087500
0.000000 0.593750 0.087500
0.150000 0.593750 0.087500
0.300000 0.593750 0.087500
0.450000 0.593750 0.087500
0.600000 0.593750 0.087500
0.750000 0.593750 0.087500
0.900000 0.593750 0.087500
1.050000 0.593750 0.087500
1.200000 0.593750 0.087500
0.000000 0.712500 0.087500
0.150000 0.712500 0.087500
0.300000 0.712500 0.087500
0.450000 0.712500 0.087500
0.600000 0.712500 0.087500
0.750000 0.712500 0.087500
0.900000 0.712500 0.087500
1.050000 0.712500 0.087500
1.200000 0.712500 0.087500
0.000000 0.831250 0.087500
0.150000 0.831250 0.087500
0.300000 0.831250 0.087500
0.450000 0.831250 0.087500
0.600000 0.831250 0.087500
0.750000 0.831250 0.087500
0.900000 0.831250 0.087500
1.050000 0.831250 0.087500
1.200000 0.831250 0.087500
0.000000 0.950000 0.087500
0.150000 0.950000 0.087500
0.300000 0.950000 0.087500
0.450000 0.950000 0.087500
0.600000 0.950000 0.087500
0.750000 0.950000 0.087500
0.900000 0.950000 0.087500
1.050000 0.950000 0.087500
1.200000 0.950000 0.087500
0.000000 0.000000 0.175000
0.150000 0.000000 0.175000
0.300000 0.000000 0.175000
0.450000 0.000000 0.175000
0.600000 0.000000 0.175000
0.750000 0.000000 0.175000
0.900000 0.000000 0.175000
1.050000 0.000000 0.175000
1.200000 0.000000 0.175000
0.000000 0.118750 0.175000
0.150000 0.118750 0.175000
0.300000 0.118750 0.175000
0.450000 0.118750 0.175000
0.600000 0.118750 0.175000
0.750000 0.118750 0.175000
0.900000 0.118750 0.175000
1.050000 0.118750 0.175000
1.200000 0.118750 0.175000
0.000000 0.237500 0.175000
0.150000 0.237500 0.175000
0.300000 0.237500 0.175000
0.450000 0.237500 0.175000
0.600000 0.237500 0.175000
0.750000 0.237500 0.175000
0.900000 0.237500 0.175000
1.050000 0.237500 0.175000
1.200000 0.237500 0.175000
0.000000 0.356250 0.175000
0.150000 0.356250 0.175000
0.300000 0.356250 0.175000
0.450000 0.356250 0.175000
0.600000 0.356250 0.175000
0.750000 0.356250 0.175000
0.900000 0.356250 0.175000
1.050000 0.356250 0.175000
1.200000 0.356250 0.175000
0.000000 0.475000 0.175000
0.150000 0.475000 0.175000
0.300000 0.475000 0.175000
0.450000 0.475000 0.175000
0.600000 0.475000 0.175000
0.750000 0.475000 0.175000
0.900000 0.475000 0.175000
1.050000 0.475000 0.175000
1.200000 0.475000 0.175000
0.000000 0.593750 0.175000
0.150000 0.593750 0.175000
0.300000 0.593750 0.175000
0.450000 0.593750 0.175000
0.600000 0.593750 0.175000
0.750000 0.593750 0.175000
0.900000 0.593750 0.175000
1.050000 0.593750 0.175000
1.200000 0.593750 0.175000
0.000000 0.712500 0.175000
0.150000 0.712500 0.175000
0.300000 0.712500 0.175000
0.450000 0.712500 0.175000
0.600000 0.712500 0.175000
0.750000 0.712500 0.175000
0.900000 0.712500 0.175000
1.050000 0.712500 0.175000
1.200000 0.712500 0.175000
0.000000 0.831250 0.175000
0.150000 0.831250 0.175000
0.300000 0.831250 0.175000
0.450000 0.831250 0.175000
0.600000 0.831250 0.175000
0.750000 0.831250 0.175000
0.900000 0.831250 0.175000
1.050000 0.831250 0.175000
1.200000 0.831250 0.175000
0.000000 0.950000 0.175000
0.150000 0.950000 0.175000
0.300000 0.950000 0.175000
0.450000 0.950000 0.175000
0.600000 0.950000 0.175000
0.750000 0.950000 0.175000
0.900000 0.950000 0.175000
1.050000 0.950000 0.175000
1.200000 0.950000 0.175000
0.000000 0.000000 0.262500
0.150000 0.000000 0.262500
0.300000 0.000000 0.262500
0.450000 0.000000 0.262500
0.600000 0.000000 0.262500
0.750000 0.000000 0.262500
0.900000 0.000000 0.262500
1.050000 0.000000 0.262500
1.200000 0.000000 0.262500
0.000000 0.118750 0.262500
0.150000 0.118750 0.262500
0.300000 0.118750 0.262500
0.450000 0.118750 0.262500
0.600000 0.118750 0.262500
0.750000 0.118750 0.262500
0.900000 0.118750 0.262500
1.050000 0.118750 0.262500
1.200000 0.118750 0.262500
0.000000 0.237500 0.262500
0.150000 0.237500 0.262500
0.300000 0.237500 0.262500
0.450000 0.237500 0.262500
0.600000 0.237500 0.262500
0.750000 0.237500 0.262500
0.900000 0.237500 0.262500
1.050000 0.237500 0.262500
1.200000 0.237500 0.262500
0.000000 0.356250 0.262500
0.150000 0.356250 0.262500
0.300000 0.356250 0.262500
0.450000 0.356250 0.262500
0.600000 0.356250 0.262500
0.750000 0.356250 0.262500
0.900000 0.356250 0.262500
1.050000 0.356250 0.262500
1.200000 0.356250 0.262500
0.000000 0.475000 0.262500
0.150000 0.475000 0.262500
0.300000 0.475000 0.262500
0.450000 0.475000 0.262500
0.600000 0.475000 0.262500
0.750000 0.475000 0.262500
0.900000 0.475000 0.262500
1.050000 0.475000 0.262500
1.200000 0.475000 0.262500
0.000000 0.593750 0.262500
0.150000 0.593750 0.262500
0.300000 0.593750 0.262500
0.450000 0.593750 0.262500
0.600000 0.593750 0.262500
0.750000 0.593750 0.262500
0.900000 0.593750 0.262500
1.050000 0.593750 0.262500
1.200000 0.593750 0.262500
0.000000 0.712500 0.262500
0.150000 0.712500 0.262500
0.300000 0.712500 0.262500
0.450000 0.712500 0.262500
0.600000 0.712500 0.262500
0.750000 0.712500 0.262500
0.900000 0.712500 0.262500
1.050000 0.712500 0.262500
1.200000 0.712500 0.262500
0.000000 0.831250 0.262500
0.150000 0.831250 0.262500
0.300000 0.831250 0.262500
0.450000 0.831250 0.262500
0.600000 0.831250 0.262500
0.750000 0.831250 0.262500
0.900000 0.831250 0.262500
1.050000 0.831250 0.262500
1.200000 0.831250 0.262500
0.000000 0.950000 0.262500
0.150000 0.950000 0.262500
0.300000 0.950000 0.262500
0.450000 0.950000 0.262500
0.600000 0.950000 0.262500
0.750000 0.950000 0.262500
0.900000 0.950000 0.262500
1.050000 0.950000 0.262500
1.200000 0.950000 0.262500
0.000000 0.000000 0.350000
0.150000 0.000000 0.350000
0.300000 0.000000 0.350000
0.450000 0.000000 0.350000
0.600000 0.000000 0.350000
0.750000 0.000000 0.350000
0.900000 0.000000 0.350000
1.050000 0.000000 0.350000
1.200000 0.000000 0.350000
0.000000 0.118750 0.350000
0.150000 0.118750 0.350000
0.300000 0.118750 0.350000
0.450000 0.118750 0.350000
0.600000 0.118750 0.350000
0.750000 0.118750 0.350000
0.900000 0.118750 0.350000
1.050000 0.118750 0.350000
1.200000 0.118750 0.350000
0.000000 0.237500 0.350000
0.150000 0.237500 0.350000
0.300000 0.237500 0.350000
0.450000 0.237500 0.350000
0.600000 0.237500 0.350000
0.750000 0.237500 0.350000
0.900000 0.237500 0.350000
1.050000 0.237500 0.350000
1.200000 0.237500 0.350000
0.000000 0.356250 0.350000
0.150000 0.356250 0.350000
0.300000 0.356250 0.350000
0.450000 0.356250 0.350000
0.600000 0.356250 0.350000
0.750000 0.356250 0.350000
0.900000 0.356250 0.350000
1.050000 0.356250 0.350000
1.200000 0.356250 0.350000
0.000000 0.475000 0.350000
0.150000 0.475000 0.350000
0.300000 0.475000 0.350000
0.450000 0.475000 0.350000
0.600000 0.475000 0.350000
0.750000 0.475000 0.350000
0.900000 0.475000 0.350000
1.050000 0.475000 0.350000
1.200000 0.475000 0.350000
0.000000 0.593750 0.350000
0.150000 0.593750 0.350000
0.300000 0.593750 0.350000
0.450000 0.593750 0.350000
0.600000 0.593750 0.350000
0.750000 0.593750 0.350000
0.900000 0.593750 0.350000
1.050000 0.593750 0.350000
1.200000 0.593750 0.350000
0.000000 0.712500 0.350000
0.150000 0.712500 0.350000
0.300000 0.712500 0.350000
0.450000 0.712500 0.350000
0.600000 0.712500 0.350000
0.750000 0.712500 0.350000
0.900000 0.712500 0.350000
1.050000 0.712500 0.350000
1.200000 0.712500 0.350000
0.000000 0.831250 0.350000
0.150000 0.831250 0.350000
0.300000 0.831250 0.350000
0.450000 0.831250 0.350000
0.600000 0.831250 0.350000
0.750000 0.831250 0.350000
0.900000 0.831250 0.350000
1.050000 0.831250 0.350000
1.200000 0.831250 0.350000
0.000000 0.950000 0.350000
0.150000 0.950000 0.350000
0.300000 0.950000 0.350000
0.450000 0.950000 0.350000
0.600000 0.950000 0.350000
0.750000 0.950000 0.350000
0.900000 0.950000 0.350000
1.050000 0.950000 0.350000
1.200000 0.950000 0.350000
0.000000 0.000000 0.437500
0.150000 0.000000 0.437500
0.300000 0.000000 0.437500
0.450000 0.000000 0.437500
0.600000 0.000000 0.437500
0.750000 0.000000 0.437500
0.900000 0.000000 0.437500
1.050000 0.000000 0.437500
1.200000 0.000000 0.437500
0.000000 0.118750 0.437500
0.150000 0.118750 0.437500
0.300000 0.118750 0.437500
0.450000 0.118750 0.437500
0.600000 0.118750 0.437500
0.750000 0.118750 0.437500
0.900000 0.118750 0.437500
1.050000 0.118750 0.437500
1.200000 0.118750 0.437500
0.000000 0.237500 0.437500
0.150000 0.237500 0.437500
0.300000 0.237500 0.437500
0.450000 0.237500 0.437500
0.600000 0.237500 0.437500
0.750000 0.237500 0.437500
0.900000 0.237500 0.437500
1.050000 0.237500 0.437500
1.200000 0.237500 0.437500
0.000000 0.356250 0.437500
0.150000 0.356250 0.437500
0.300000 0.356250 0.437500
0.450000 0.356250 0.437500
0.600000 0.356250 0.437500
0.750000 0.356250 0.437500
0.900000 0.356250 0.437500
1.050000 0.356250 0.437500
1.200000 0.356250 0.437500
0.000000 0.475000 0.437500
0.150000 0.475000 0.437500
0.300000 0.475000 0.437500
0.450000 0.475000 0.437500
0.600000 0.475000 0.437500
0.750000 0.475000 0.437500
0.900000 0.475000 0.437500
1.050000 0.475000 0.437500
1.200000 0.475000 0.437500
0.000000 0.593750 0.437500
0.150000 0.593750 0.437500
0.300000 0.593750 0.437500
0.450000 0.593750 0.437500
0.600000 0.593750 0.437500
0.750000 0.593750 0.437500
0.900000 0.593750 0.437500
1.050000 0.593750 0.437500
1.200000 0.593750 0.437500
0.000000 0.712500 0.437500
0.150000 0.712500 0.437500
0.300000 0.712500 0.437500
0.450000 0.712500 0.437500
0.600000 0.712500 0.437500
0.750000 0.712500 0.437500
0.900000 0.712500 0.437500
1.050000 0.712500 0.437500
1.200000 0.712500 0.437500
0.000000 0.831250 0.437500
0.150000 0.831250 0.437500
0.300000 0.831250 0.437500
0.450000 0.831250 0.437500
0.600000 0.831250 0.437500
0.750000 0.831250 0.437500
0.900000 0.831250 0.437500
1.050000 0.831250 0.437500
1.200000 0.831250 0.437500
0.000000 0.950000 0.437500
0.150000 0.950000 0.437500
0.300000 0.950000 0.437500
0.450000 0.950000 0.437500
0.600000 0.950000 0.437500
0.750000 0.950000 0.437500
0.900000 0.950000 0.437500
1.050000 0.950000 0.437500
1.200000 0.950000 0.437500
0.000000 0.000000 0.525000
0.150000 0.000000 0.525000
0.300000 0.000000 0.525000
0.450000 0.000000 0.525000
0.600000 0.000000 0.525000
0.750000 0.000000 0.525000
0.900000 0.000000 0.525000
1.050000 0.000000 0.525000
1.200000 0.000000 0.525000
0.000000 0.118750 0.525000
0.150000 0.118750 0.525000
0.300000 0.118750 0.525000
0.450000 0.118750 0.525000
0.600000 0.118750 0.525000
0.750000 0.118750 0.525000
0.900000 0.118750 0.525000
1.050000 0.118750 0.525000
1.200000 0.118750 0.525000
0.000000 0.237500 0.525000
0.150000 0.237500 0.525000
0.300000 0.237500 0.525000
0.450000 0.237500 0.525000
0.600000 0.237500 0.525000
0.750000 0.237500 0.525000
0.900000 0.237500 0.525000
1.050000 0.237500 0.525000
1.200000 0.237500 0.525000
0.000000 0.356250 0.525000
0.150000 0.356250 0.525000
0.300000 0.356250 0.525000
0.450000 0.356250 0.525000
0.600000 0.356250 0.525000
0.750000 0.356250 0.525000
0.900000 0.356250 0.525000
1.050000 0.356250 0.525000
1.200000 0.356250 0.525000
0.000000 0.475000 0.525000
0.150000 0.475000 0.525000
0.300000 0.475000 0.525000
0.450000 0.475000 0.525000
0.600000 0.475000 0.525000
0.750000 0.475000 0.525000
0.900000 0.475000 0.525000
1.050000 0.475000 0.525000
1.200000 0.475000 0.525000
0.000000 0.593750 0.525000
0.150000 0.593750 0.525000
0.300000 0.593750 0.525000
0.450000 0.593750 0.525000
0.600000 0.593750 0.525000
0.750000 0.593750 0.525000
0.900000 0.593750 0.525000
1.050000 0.593750 0.525000
1.200000 0.593750 0.525000
0.000000 0.712500 0.525000
0.150000 0.712500 0.525000
0.300000 0.712500 0.525000
0.450000 0.712500 0.525000
0.600000 0.712500 0.525000
0.750000 0.712500 0.525000
0.900000 0.712500 0.525000
1.050000 0.712500 0.525000
1.200000 0.712500 0.525000
0.000000 0.831250 0.525000
0.150000 0.831250 0.525000
0.300000 0.831250 0.525000
0.450000 0.831250 0.525000
0.600000 0.831250 0.525000
0.750000 0.831250 0.525000
0.900000 0.831250 0.525000
1.050000 0.831250 0.525000
1.200000 0.831250 0.525000
0.000000 0.950000 0.525000
0.150000 0.950000 0.525000
0.300000 0.950000 0.525000
0.450000 0.950000 0.525000
0.600000 0.950000 0.525000
0.750000 0.950000 0.525000
0.900000 0.950000 0.525000
1.050000 0.950000 0.525000
1.200000 0.950000 0.525000
0.000000 0.000000 0.612500
0.150000 0.000000 0.612500
0.300000 0.000000 0.612500
0.450000 0.000000 0.612500
0.600000 0.000000 0.612500
0.750000 0.000000 0.612500
0.900000 0.000000 0.612500
1.050000 0.000000 0.612500
1.200000 0.000000 0.612500
0.000000 0.118750 0.612500
0.150000 0.118750 0.612500
0.300000 0.118750 0.612500
0.450000 0.118750 0.612500
0.600000 0.118750 0.612500
0.750000 0.118750 0.612500
0.900000 0.118750 0.612500
1.050000 0.118750 0.612500
1.200000 0.118750 0.612500
0.000000 0.237500 0.612500
0.150000 0.237500 0.612500
0.300000 0.237500 0.612500
0.450000 0.237500 0.612500
0.600000 0.237500 0.612500
0.750000 0.237500 0.612500
0.900000 0.237500 0.612500
1.050000 0.237500 0.612500
1.200000 0.237500 0.612500
0.000000 0.356250 0.612500
0.150000 0.356250 0.612500
0.300000 0.356250 0.612500
0.450000 0.356250 0.612500
0.600000 0.356250 0.612500
0.750000 0.356250 0.612500
0.900000 0.356250 0.612500
1.050000 0.356250 0.612500
1.200000 0.356250 0.612500
0.000000 0.475000 0.612500
0.150000 0.475000 0.612500
0.300000 0.475000 0.612500
0.450000 0.475000 0.612500
0.600000 0.475000 0.612500
0.750000 0.475000 0.612500
0.900000 0.475000 0.612500
1.050000 0.475000 0.612500
1.200000 0.475000 0.612500
0.000000 0.593750 0.612500
0.150000 0.593750 0.612500
0.300000 0.593750 0.612500
0.450000 0.593750 0.612500
0.600000 0.593750 0.612500
0.750000 0.593750 0.612500
0.900000 0.593750 0.612500
1.050000 0.593750 0.612500
1.200000 0.593750 0.612500
0.000000 0.712500 0.612500
0.150000 0.712500 0.612500
0.300000 0.712500 0.612500
0.450000 0.712500 0.612500
0.600000 0.712500 0.612500
0.750000 0.712500 0.612500
0.900000 0.712500 0.612500
1.050000 0.712500 0.612500
1.200000 0.712500 0.612500
0.000000 0.831250 0.612500
0.150000 0.831250 0.612500
0.300000 0.831250 0.612500
0.450000 0.831250 0.612500
0.600000 0.831250 0.612500
0.750000 0.831250 0.612500
0.900000 0.831250 0.612500
1.050000 0.831250 0.612500
1.200000 0.831250 0.612500
0.000000 0.950000 0.612500
0.150000 0.950000 0.612500
0.300000 0.950000 0.612500
0.450000 0.950000 0.612500
0.600000 0.950000 0.612500
0.750000 0.950000 0.612500
0.900000 0.950000 0.612500
1.050000 0.950000 0.612500
1.200000 0.950000 0.612500
0.000000 0.000000 0.700000
0.150000 0.000000 0.700000
0.300000 0.000000 0.700000
0.450000 0.000000 0.700000
0.600000 0.000000 0.700000
0.750000 0.000000 0.700000
0.900000 0.000000 0.700000
1.050000 0.000000 0.700000
1.200000 0.000000 0.700000
0.000000 0.118750 0.700000
0.150000 0.118750 0.700000
0.300000 0.118750 0.700000
0.450000 0.118750 0.700000
0.600000 0.118750 0.700000
0.750000 0.118750 0.700000
0.900000 0.118750 0.700000
1.050000 0.118750 0.700000
1.200000 0.118750 0.700000
0.000000 0.237500 0.700000
0.150000 0.237500 0.700000
0.300000 0.237500 0.700000
0.450000 0.237500 0.700000
0.600000 0.237500 0.700000
0.750000 0.237500 0.700000
0.900000 0.237500 0.700000
1.050000 0.237500 0.700000
1.200000 0.237500 0.700000
0.000000 0.356250 0.700000
0.150000 0.356250 0.700000
0.300000 0.356250 0.700000
0.450000 0.356250 0.700000
0.600000 0.356250 0.700000
0.750000 0.356250 0.700000
0.900000 0.356250 0.700000
1.050000 0.356250 0.700000
1.200000 0.356250 0.700000
0.000000 0.475000 0.700000
0.150000 0.475000 0.700000
0.300000 0.475000 0.700000
0.450000 0.475000 0.700000
0.600000 0.475000 0.700000
0.750000 0.475000 0.700000
0.900000 0.475000 0.700000
1.050000 0.475000 0.700000
1.200000 0.475000 0.700000
0.000000 0.593750 0.700000
0.150000 0.593750 0.700000
0.300000 0.593750 0.700000
0.450000 0.593750 0.700000
0.600000 0.593750 0.700000
0.750000 0.593750 0.700000
0.900000 0.593750 0.700000
1.050000 0.593750 0.700000
1.200000 0.593750 0.700000
0.000000 0.712500 0.700000
0.150000 0.712500 0.700000
0.300000 0.712500 0.700000
0.450000 0.712500 0.700000
0.600000 0.712500 0.700000
0.750000 0.712500 0.700000
0.900000 0.712500 0.700000
1.050000 0.712500 0.700000
1.200000 0.712500 0.700000
0.000000 0.831250 0.700000
0.150000 0.831250 0.700000
0.300000 0.831250 0.700000
0.450000 0.831250 0.700000
0.600000 0.831250 0.700000
0.750000 0.831250 0.700000
0.900000 0.831250 0.700000
1.050000 0.831250 0.700000
1.200000 0.831250 0.700000
0.000000 0.950000 0.700000
0.150000 0.950000 0.700000
0.300000 0.950000 0.700000
0.450000 0.950000 0.700000
0.600000 0.950000 0.700000
0.750000 0.950000 0.700000
0.900000 0.950000 0.700000
1.050000 0.950000 0.700000
1.200000 0.950000 0.700000
