assets/luts/sunset_warm.cube
TITLE "Sunset Warm"
LUT_3D_SIZE 5
DOMAIN_MIN 0.0 0.0 0.0
DOMAIN_MAX 1.0 1.0 1.0
0.000000 0.000000 0.000000
0.300000 0.000000 0.000000
0.600000 0.000000 0.000000
0.900000 0.000000 0.000000
1.200000 0.000000 0.000000
0.000000 0.237500 0.000000
0.300000 0.237500 0.000000
0.600000 0.237500 0.000000
0.900000 0.237500 0.000000
1.200000 0.237500 0.000000
0.000000 0.475000 0.000000
0.300000 0.475000 0.000000
0.600000 0.475000 0.000000
0.900000 0.475000 0.000000
1.200000 0.475000 0.000000
0.000000 0.712500 0.000000
0.300000 0.712500 0.000000
0.600000 0.712500 0.000000
0.900000 0.712500 0.000000
1.200000 0.712500 0.000000
0.000000 0.950000 0.000000
0.300000 0.950000 0.000000
0.600000 0.950000 0.000000
0.900000 0.950000 0.000000
1.200000 0.950000 0.000000
0.000000 0.000000 0.175000
0.300000 0.000000 0.175000
0.600000 0.000000 0.175000
0.900000 0.000000 0.175000
1.200000 0.000000 0.175000
0.000000 0.237500 0.175000
0.300000 0.237500 0.175000
0.600000 0.237500 0.175000
0.900000 0.237500 0.175000
1.200000 0.237500 0.175000
0.000000 0.475000 0.175000
0.300000 0.475000 0.175000
0.600000 0.475000 0.175000
0.900000 0.475000 0.175000
1.200000 0.475000 0.175000
0.000000 0.712500 0.175000
0.300000 0.712500 0.175000
0.600000 0.712500 0.175000
0.900000 0.712500 0.175000
1.200000 0.712500 0.175000
0.000000 0.950000 0.175000
0.300000 0.950000 0.175000
0.600000 0.950000 0.175000
0.900000 0.950000 0.175000
1.200000 0.950000 0.175000
0.000000 0.000000 0.350000
0.300000 0.000000 0.350000
0.600000 0.000000 0.350000
0.900000 0.000000 0.350000
1.200000 0.000000 0.350000
0.000000 0.237500 0.350000
0.300000 0.237500 0.350000
0.600000 0.237500 0.350000
0.900000 0.237500 0.350000
1.200000 0.237500 0.350000
0.000000 0.475000 0.350000
0.300000 0.475000 0.350000
0.600000 0.475000 0.350000
0.900000 0.475000 0.350000
1.200000 0.475000 0.350000
0.000000 0.712500 0.350000
0.300000 0.712500 0.350000
0.600000 0.712500 0.350000
0.900000 0.712500 0.350000
1.200000 0.712500 0.350000
0.000000 0.950000 0.350000
0.300000 0.950000 0.350000
0.600000 0.950000 0.350000
0.900000 0.950000 0.350000
1.200000 0.950000 0.350000
0.000000 0.000000 0.525000
0.300000 0.000000 0.525000
0.600000 0.000000 0.525000
0.900000 0.000000 0.525000
1.200000 0.000000 0.525000
0.000000 0.237500 0.525000
0.300000 0.237500 0.525000
0.600000 0.237500 0.525000
0.900000 0.237500 0.525000
1.200000 0.237500 0.525000
0.000000 0.475000 0.525000
0.300000 0.475000 0.525000
0.600000 0.475000 0.525000
0.900000 0.475000 0.525000
1.200000 0.475000 0.525000
0.000000 0.712500 0.525000
0.300000 0.712500 0.525000
0.600000 0.712500 0.525000
0.900000 0.712500 0.525000
1.200000 0.712500 0.525000
0.000000 0.950000 0.525000
0.300000 0.950000 0.525000
0.600000 0.950000 0.525000
0.900000 0.950000 0.525000
1.200000 0.950000 0.525000
0.000000 0.000000 0.700000
0.300000 0.000000 0.700000
0.600000 0.000000 0.700000
0.900000 0.000000 0.700000
1.200000 0.000000 0.700000
0.000000 0.237500 0.700000
0.300000 0.237500 0.700000
0.600000 0.237500 0.700000
0.900000 0.237500 0.700000
1.200000 0.237500 0.700000
0.000000 0.475000 0.700000
0.300000 0.475000 0.700000
0.600000 0.475000 0.700000
0.900000 0.475000 0.700000
1.200000 0.475000 0.700000
0.000000 0.712500 0.700000
0.300000 0.712500 0.700000
0.600000 0.712500 0.700000
0.900000 0.712500 0.700000
1.200000 0.712500 0.700000
0.000000 0.950000 0.700000
0.300000 0.950000 0.700000
0.600000 0.950000 0.700000
0.900000 0.950000 0.700000
1.200000 0.950000 0.700000
