assets/luts/sunset_warm.cube
TITLE "Sunset Warm"
LUT_3D_SIZE 17
DOMAIN_MIN 0.0 0.0 0.0
DOMAIN_MAX 1.0 1.0 1.0
0.000000 0.000000 0.000000
0.075000 0.000000 0.000000
0.150000 0.000000 0.000000
0.225000 0.000000 0.000000
0.300000 0.000000 0.000000
0.375000 0.000000 0.000000
0.450000 0.000000 0.000000
0.525000 0.000000 0.000000
0.600000 0.000000 0.000000
0.675000 0.000000 0.000000
0.750000 0.000000 0.000000
0.825000 0.000000 0.000000
0.900000 0.000000 0.000000
0.975000 0.000000 0.000000
1.050000 0.000000 0.000000
1.125000 0.000000 0.000000
1.200000 0.000000 0.000000
0.000000 0.059375 0.000000
0.075000 0.059375 0.000000
0.150000 0.059375 0.000000
0.225000 0.059375 0.000000
0.300000 0.059375 0.000000
0.375000 0.059375 0.000000
0.450000 0.059375 0.000000
0.525000 0.059375 0.000000
0.600000 0.059375 0.000000
0.675000 0.059375 0.000000
0.750000 0.059375 0.000000
0.825000 0.059375 0.000000
0.900000 0.059375 0.000000
0.975000 0.059375 0.000000
1.050000 0.059375 0.000000
1.125000 0.059375 0.000000
1.200000 0.059375 0.000000
0.000000 0.118750 0.000000
0.075000 0.118750 0.000000
0.150000 0.118750 0.000000
0.225000 0.118750 0.000000
0.300000 0.118750 0.000000
0.375000 0.118750 0.000000
0.450000 0.118750 0.000000
0.525000 0.118750 0.000000
0.600000 0.118750 0.000000
0.675000 0.118750 0.000000
0.750000 0.118750 0.000000
0.825000 0.118750 0.000000
0.900000 0.118750 0.000000
0.975000 0.118750 0.000000
1.050000 0.118750 0.000000
1.125000 0.118750 0.000000
1.200000 0.118750 0.000000
0.000000 0.178125 0.000000
0.075000 0.178125 0.000000
0.150000 0.178125 0.000000
0.225000 0.178125 0.000000
0.300000 0.178125 0.000000
0.375000 0.178125 0.000000
0.450000 0.178125 0.000000
0.525000 0.178125 0.000000
0.600000 0.178125 0.000000
0.675000 0.178125 0.000000
0.750000 0.178125 0.000000
0.825000 0.178125 0.000000
0.900000 0.178125 0.000000
0.975000 0.178125 0.000000
1.050000 0.178125 0.000000
1.125000 0.178125 0.000000
1.200000 0.178125 0.000000
0.000000 0.237500 0.000000
0.075000 0.237500 0.000000
0.150000 0.237500 0.000000
0.225000 0.237500 0.000000
0.300000 0.237500 0.000000
0.375000 0.237500 0.000000
0.450000 0.237500 0.000000
0.525000 0.237500 0.000000
0.600000 0.237500 0.000000
0.675000 0.237500 0.000000
0.750000 0.237500 0.000000
0.825000 0.237500 0.000000
0.900000 0.237500 0.000000
0.975000 0.237500 0.000000
1.050000 0.237500 0.000000
1.125000 0.237500 0.000000
1.200000 0.237500 0.000000
0.000000 0.296875 0.000000
0.075000 0.296875 0.000000
0.150000 0.296875 0.000000
0.225000 0.296875 0.000000
0.300000 0.296875 0.000000
0.375000 0.296875 0.000000
0.450000 0.296875 0.000000
0.525000 0.296875 0.000000
0.600000 0.296875 0.000000
0.675000 0.296875 0.000000
0.750000 0.296875 0.000000
0.825000 0.296875 0.000000
0.900000 0.296875 0.000000
0.975000 0.296875 0.000000
1.050000 0.296875 0.000000
1.125000 0.296875 0.000000
1.200000 0.296875 0.000000
0.000000 0.356250 0.000000
0.075000 0.356250 0.000000
0.150000 0.356250 0.000000
0.225000 0.356250 0.000000
0.300000 0.356250 0.000000
0.375000 0.356250 0.000000
0.450000 0.356250 0.000000
0.525000 0.356250 0.000000
0.600000 0.356250 0.000000
0.675000 0.356250 0.000000
0.750000 0.356250 0.000000
0.825000 0.356250 0.000000
0.900000 0.356250 0.000000
0.975000 0.356250 0.000000
1.050000 0.356250 0.000000
1.125000 0.356250 0.000000
1.200000 0.356250 0.000000
0.000000 0.415625 0.000000
0.075000 0.415625 0.000000
0.150000 0.415625 0.000000
0.225000 0.415625 0.000000
0.300000 0.415625 0.000000
0.375000 0.415625 0.000000
0.450000 0.415625 0.000000
0.525000 0.415625 0.000000
0.600000 0.415625 0.000000
0.675000 0.415625 0.000000
0.750000 0.415625 0.000000
0.825000 0.415625 0.000000
0.900000 0.415625 0.000000
0.975000 0.415625 0.000000
1.050000 0.415625 0.000000
1.125000 0.415625 0.000000
1.200000 0.415625 0.000000
0.000000 0.475000 0.000000
0.075000 0.475000 0.000000
0.150000 0.475000 0.000000
0.225000 0.475000 0.000000
0.300000 0.475000 0.000000
0.375000 0.475000 0.000000
0.450000 0.475000 0.000000
0.525000 0.475000 0.000000
0.600000 0.475000 0.000000
0.675000 0.475000 0.000000
0.750000 0.475000 0.000000
0.825000 0.475000 0.000000
0.900000 0.475000 0.000000
0.975000 0.475000 0.000000
1.050000 0.475000 0.000000
1.125000 0.475000 0.000000
1.200000 0.475000 0.000000
0.000000 0.534375 0.000000
0.075000 0.534375 0.000000
0.150000 0.534375 0.000000
0.225000 0.534375 0.000000
0.300000 0.534375 0.000000
0.375000 0.534375 0.000000
0.450000 0.534375 0.000000
0.525000 0.534375 0.000000
0.600000 0.534375 0.000000
0.675000 0.534375 0.000000
0.750000 0.534375 0.000000
0.825000 0.534375 0.000000
0.900000 0.534375 0.000000
0.975000 0.534375 0.000000
1.050000 0.534375 0.000000
1.125000 0.534375 0.000000
1.200000 0.534375 0.000000
0.000000 0.593750 0.000000
0.075000 0.593750 0.000000
0.150000 0.593750 0.000000
0.225000 0.593750 0.000000
0.300000 0.593750 0.000000
0.375000 0.593750 0.000000
0.450000 0.593750 0.000000
0.525000 0.593750 0.000000
0.600000 0.593750 0.000000
0.675000 0.593750 0.000000
0.750000 0.593750 0.000000
0.825000 0.593750 0.000000
0.900000 0.593750 0.000000
0.975000 0.593750 0.000000
1.050000 0.593750 0.000000
1.125000 0.593750 0.000000
1.200000 0.593750 0.000000
0.000000 0.653125 0.000000
0.075000 0.653125 0.000000
0.150000 0.653125 0.000000
0.225000 0.653125 0.000000
0.300000 0.653125 0.000000
0.375000 0.653125 0.000000
0.450000 0.653125 0.000000
0.525000 0.653125 0.000000
0.600000 0.653125 0.000000
0.675000 0.653125 0.000000
0.750000 0.653125 0.000000
0.825000 0.653125 0.000000
0.900000 0.653125 0.000000
0.975000 0.653125 0.000000
1.050000 0.653125 0.000000
1.125000 0.653125 0.000000
1.200000 0.653125 0.000000
0.000000 0.712500 0.000000
0.075000 0.712500 0.000000
0.150000 0.712500 0.000000
0.225000 0.712500 0.000000
0.300000 0.712500 0.000000
0.375000 0.712500 0.000000
0.450000 0.712500 0.000000
0.525000 0.712500 0.000000
0.600000 0.712500 0.000000
0.675000 0.712500 0.000000
0.750000 0.712500 0.000000
0.825000 0.712500 0.000000
0.900000 0.712500 0.000000
0.975000 0.712500 0.000000
1.050000 0.712500 0.000000
1.125000 0.712500 0.000000
1.200000 0.712500 0.000000
0.000000 0.771875 0.000000
0.075000 0.771875 0.000000
0.150000 0.771875 0.000000
0.225000 0.771875 0.000000
0.300000 0.771875 0.000000
0.375000 0.771875 0.000000
0.450000 0.771875 0.000000
0.525000 0.771875 0.000000
0.600000 0.771875 0.000000
0.675000 0.771875 0.000000
0.750000 0.771875 0.000000
0.825000 0.771875 0.000000
0.900000 0.771875 0.000000
0.975000 0.771875 0.000000
1.050000 0.771875 0.000000
1.125000 0.771875 0.000000
1.200000 0.771875 0.000000
0.000000 0.831250 0.000000
0.075000 0.831250 0.000000
0.150000 0.831250 0.000000
0.225000 0.831250 0.000000
0.300000 0.831250 0.000000
0.375000 0.831250 0.000000
0.450000 0.831250 0.000000
0.525000 0.831250 0.000000
0.600000 0.831250 0.000000
0.675000 0.831250 0.000000
0.750000 0.831250 0.000000
0.825000 0.831250 0.000000
0.900000 0.831250 0.000000
0.975000 0.831250 0.000000
1.050000 0.831250 0.000000
1.125000 0.831250 0.000000
1.200000 0.831250 0.000000
0.000000 0.890625 0.000000
0.075000 0.890625 0.000000
0.150000 0.890625 0.000000
0.225000 0.890625 0.000000
0.300000 0.890625 0.000000
0.375000 0.890625 0.000000
0.450000 0.890625 0.000000
0.525000 0.890625 0.000000
0.600000 0.890625 0.000000
0.675000 0.890625 0.000000
0.750000 0.890625 0.000000
0.825000 0.890625 0.000000
0.900000 0.890625 0.000000
0.975000 0.890625 0.000000
1.050000 0.890625 0.000000
1.125000 0.890625 0.000000
1.200000 0.890625 0.000000
0.000000 0.950000 0.000000
0.075000 0.950000 0.000000
0.150000 0.950000 0.000000
0.225000 0.950000 0.000000
0.300000 0.950000 0.000000
0.375000 0.950000 0.000000
0.450000 0.950000 0.000000
0.525000 0.950000 0.000000
0.600000 0.950000 0.000000
0.675000 0.950000 0.000000
0.750000 0.950000 0.000000
0.825000 0.950000 0.000000
0.900000 0.950000 0.000000
0.975000 0.950000 0.000000
1.050000 0.950000 0.000000
1.125000 0.950000 0.000000
1.200000 0.950000 0.000000
0.000000 0.000000 0.043750
0.075000 0.000000 0.043750
0.150000 0.000000 0.043750
0.225000 0.000000 0.043750
0.300000 0.000000 0.043750
0.375000 0.000000 0.043750
0.450000 0.000000 0.043750
0.525000 0.000000 0.043750
0.600000 0.000000 0.043750
0.675000 0.000000 0.043750
0.750000 0.000000 0.043750
0.825000 0.000000 0.043750
0.900000 0.000000 0.043750
0.975000 0.000000 0.043750
1.050000 0.000000 0.043750
1.125000 0.000000 0.043750
1.200000 0.000000 0.043750
0.000000 0.059375 0.043750
0.075000 0.059375 0.043750
0.150000 0.059375 0.043750
0.225000 0.059375 0.043750
0.300000 0.059375 0.043750
0.375000 0.059375 0.043750
0.450000 0.059375 0.043750
0.525000 0.059375 0.043750
0.600000 0.059375 0.043750
0.675000 0.059375 0.043750
0.750000 0.059375 0.043750
0.825000 0.059375 0.043750
0.900000 0.059375 0.043750
0.975000 0.059375 0.043750
1.050000 0.059375 0.043750
1.125000 0.059375 0.043750
1.200000 0.059375 0.043750
0.000000 0.118750 0.043750
0.075000 0.118750 0.043750
0.150000 0.118750 0.043750
0.225000 0.118750 0.043750
0.300000 0.118750 0.043750
0.375000 0.118750 0.043750
0.450000 0.118750 0.043750
0.525000 0.118750 0.043750
0.600000 0.118750 0.043750
0.675000 0.118750 0.043750
0.750000 0.118750 0.043750
0.825000 0.118750 0.043750
0.900000 0.118750 0.043750
0.975000 0.118750 0.043750
1.050000 0.118750 0.043750
1.125000 0.118750 0.043750
1.200000 0.118750 0.043750
0.000000 0.178125 0.043750
0.075000 0.178125 0.043750
0.150000 0.178125 0.043750
0.225000 0.178125 0.043750
0.300000 0.178125 0.043750
0.375000 0.178125 0.043750
0.450000 0.178125 0.043750
0.525000 0.178125 0.043750
0.600000 0.178125 0.043750
0.675000 0.178125 0.043750
0.750000 0.178125 0.043750
0.825000 0.178125 0.043750
0.900000 0.178125 0.043750
0.975000 0.178125 0.043750
1.050000 0.178125 0.043750
1.125000 0.178125 0.043750
1.200000 0.178125 0.043750
0.000000 0.237500 0.043750
0.075000 0.237500 0.043750
0.150000 0.237500 0.043750
0.225000 0.237500 0.043750
0.300000 0.237500 0.043750
0.375000 0.237500 0.043750
0.450000 0.237500 0.043750
0.525000 0.237500 0.043750
0.600000 0.237500 0.043750
0.675000 0.237500 0.043750
0.750000 0.237500 0.043750
0.825000 0.237500 0.043750
0.900000 0.237500 0.043750
0.975000 0.237500 0.043750
1.050000 0.237500 0.043750
1.125000 0.237500 0.043750
1.200000 0.237500 0.043750
0.000000 0.296875 0.043750
0.075000 0.296875 0.043750
0.150000 0.296875 0.043750
0.225000 0.296875 0.043750
0.300000 0.296875 0.043750
0.375000 0.296875 0.043750
0.450000 0.296875 0.043750
0.525000 0.296875 0.043750
0.600000 0.296875 0.043750
0.675000 0.296875 0.043750
0.750000 0.296875 0.043750
0.825000 0.296875 0.043750
0.900000 0.296875 0.043750
0.975000 0.296875 0.043750
1.050000 0.296875 0.043750
1.125000 0.296875 0.043750
1.200000 0.296875 0.043750
0.000000 0.356250 0.043750
0.075000 0.356250 0.043750
0.150000 0.356250 0.043750
0.225000 0.356250 0.043750
0.300000 0.356250 0.043750
0.375000 0.356250 0.043750
0.450000 0.356250 0.043750
0.525000 0.356250 0.043750
0.600000 0.356250 0.043750
0.675000 0.356250 0.043750
0.750000 0.356250 0.043750
0.825000 0.356250 0.043750
0.900000 0.356250 0.043750
0.975000 0.356250 0.043750
1.050000 0.356250 0.043750
1.125000 0.356250 0.043750
1.200000 0.356250 0.043750
0.000000 0.415625 0.043750
0.075000 0.415625 0.043750
0.150000 0.415625 0.043750
0.225000 0.415625 0.043750
0.300000 0.415625 0.043750
0.375000 0.415625 0.043750
0.450000 0.415625 0.043750
0.525000 0.415625 0.043750
0.600000 0.415625 0.043750
0.675000 0.415625 0.043750
0.750000 0.415625 0.043750
0.825000 0.415625 0.043750
0.900000 0.415625 0.043750
0.975000 0.415625 0.043750
1.050000 0.415625 0.043750
1.125000 0.415625 0.043750
1.200000 0.415625 0.043750
0.000000 0.475000 0.043750
0.075000 0.475000 0.043750
0.150000 0.475000 0.043750
0.225000 0.475000 0.043750
0.300000 0.475000 0.043750
0.375000 0.475000 0.043750
0.450000 0.475000 0.043750
0.525000 0.475000 0.043750
0.600000 0.475000 0.043750
0.675000 0.475000 0.043750
0.750000 0.475000 0.043750
0.825000 0.475000 0.043750
0.900000 0.475000 0.043750
0.975000 0.475000 0.043750
1.050000 0.475000 0.043750
1.125000 0.475000 0.043750
1.200000 0.475000 0.043750
0.000000 0.534375 0.043750
0.075000 0.534375 0.043750
0.150000 0.534375 0.043750
0.225000 0.534375 0.043750
0.300000 0.534375 0.043750
0.375000 0.534375 0.043750
0.450000 0.534375 0.043750
0.525000 0.534375 0.043750
0.600000 0.534375 0.043750
0.675000 0.534375 0.043750
0.750000 0.534375 0.043750
0.825000 0.534375 0.043750
0.900000 0.534375 0.043750
0.975000 0.534375 0.043750
1.050000 0.534375 0.043750
1.125000 0.534375 0.043750
1.200000 0.534375 0.043750
0.000000 0.593750 0.043750
0.075000 0.593750 0.043750
0.150000 0.593750 0.043750
0.225000 0.593750 0.043750
0.300000 0.593750 0.043750
0.375000 0.593750 0.043750
0.450000 0.593750 0.043750
0.525000 0.593750 0.043750
0.600000 0.593750 0.043750
0.675000 0.593750 0.043750
0.750000 0.593750 0.043750
0.825000 0.593750 0.043750
0.900000 0.593750 0.043750
0.975000 0.593750 0.043750
1.050000 0.593750 0.043750
1.125000 0.593750 0.043750
1.200000 0.593750 0.043750
0.000000 0.653125 0.043750
0.075000 0.653125 0.043750
0.150000 0.653125 0.043750
0.225000 0.653125 0.043750
0.300000 0.653125 0.043750
0.375000 0.653125 0.043750
0.450000 0.653125 0.043750
0.525000 0.653125 0.043750
0.600000 0.653125 0.043750
0.675000 0.653125 0.043750
0.750000 0.653125 0.043750
0.825000 0.653125 0.043750
0.900000 0.653125 0.043750
0.975000 0.653125 0.043750
1.050000 0.653125 0.043750
1.125000 0.653125 0.043750
1.200000 0.653125 0.043750
0.000000 0.712500 0.043750
0.075000 0.712500 0.043750
0.150000 0.712500 0.043750
0.225000 0.712500 0.043750
0.300000 0.712500 0.043750
0.375000 0.712500 0.043750
0.450000 0.712500 0.043750
0.525000 0.712500 0.043750
0.600000 0.712500 0.043750
0.675000 0.712500 0.043750
0.750000 0.712500 0.043750
0.825000 0.712500 0.043750
0.900000 0.712500 0.043750
0.975000 0.712500 0.043750
1.050000 0.712500 0.043750
1.125000 0.712500 0.043750
1.200000 0.712500 0.043750
0.000000 0.771875 0.043750
0.075000 0.771875 0.043750
0.150000 0.771875 0.043750
0.225000 0.771875 0.043750
0.300000 0.771875 0.043750
0.375000 0.771875 0.043750
0.450000 0.771875 0.043750
0.525000 0.771875 0.043750
0.600000 0.771875 0.043750
0.675000 0.771875 0.043750
0.750000 0.771875 0.043750
0.825000 0.771875 0.043750
0.900000 0.771875 0.043750
0.975000 0.771875 0.043750
1.050000 0.771875 0.043750
1.125000 0.771875 0.043750
1.200000 0.771875 0.043750
0.000000 0.831250 0.043750
0.075000 0.831250 0.043750
0.150000 0.831250 0.043750
0.225000 0.831250 0.043750
0.300000 0.831250 0.043750
0.375000 0.831250 0.043750
0.450000 0.831250 0.043750
0.525000 0.831250 0.043750
0.600000 0.831250 0.043750
0.675000 0.831250 0.043750
0.750000 0.831250 0.043750
0.825000 0.831250 0.043750
0.900000 0.831250 0.043750
0.975000 0.831250 0.043750
1.050000 0.831250 0.043750
1.125000 0.831250 0.043750
1.200000 0.831250 0.043750
0.000000 0.890625 0.043750
0.075000 0.890625 0.043750
0.150000 0.890625 0.043750
0.225000 0.890625 0.043750
0.300000 0.890625 0.043750
0.375000 0.890625 0.043750
0.450000 0.890625 0.043750
0.525000 0.890625 0.043750
0.600000 0.890625 0.043750
0.675000 0.890625 0.043750
0.750000 0.890625 0.043750
0.825000 0.890625 0.043750
0.900000 0.890625 0.043750
0.975000 0.890625 0.043750
1.050000 0.890625 0.043750
1.125000 0.890625 0.043750
1.200000 0.890625 0.043750
0.000000 0.950000 0.043750
0.075000 0.950000 0.043750
0.150000 0.950000 0.043750
0.225000 0.950000 0.043750
0.300000 0.950000 0.043750
0.375000 0.950000 0.043750
0.450000 0.950000 0.043750
0.525000 0.950000 0.043750
0.600000 0.950000 0.043750
0.675000 0.950000 0.043750
0.750000 0.950000 0.043750
0.825000 0.950000 0.043750
0.900000 0.950000 0.043750
0.975000 0.950000 0.043750
1.050000 0.950000 0.043750
1.125000 0.950000 0.043750
1.200000 0.950000 0.043750
0.000000 0.000000 0.087500
0.075000 0.000000 0.087500
0.150000 0.000000 0.087500
0.225000 0.000000 0.087500
0.300000 0.000000 0.087500
0.375000 0.000000 0.087500
0.450000 0.000000 0.087500
0.525000 0.000000 0.087500
0.600000 0.000000 0.087500
0.675000 0.000000 0.087500
0.750000 0.000000 0.087500
0.825000 0.000000 0.087500
0.900000 0.000000 0.087500
0.975000 0.000000 0.087500
1.050000 0.000000 0.087500
1.125000 0.000000 0.087500
1.200000 0.000000 0.087500
0.000000 0.059375 0.087500
0.075000 0.059375 0.087500
0.150000 0.059375 0.087500
0.225000 0.059375 0.087500
0.300000 0.059375 0.087500
0.375000 0.059375 0.087500
0.450000 0.059375 0.087500
0.525000 0.059375 0.087500
0.600000 0.059375 0.087500
0.675000 0.059375 0.087500
0.750000 0.059375 0.087500
0.825000 0.059375 0.087500
0.900000 0.059375 0.087500
0.975000 0.059375 0.087500
1.050000 0.059375 0.087500
1.125000 0.059375 0.087500
1.200000 0.059375 0.087500
0.000000 0.118750 0.087500
0.075000 0.118750 0.087500
0.150000 0.118750 0.087500
0.225000 0.118750 0.087500
0.300000 0.118750 0.087500
0.375000 0.118750 0.087500
0.450000 0.118750 0.087500
0.525000 0.118750 0.087500
0.600000 0.118750 0.087500
0.675000 0.118750 0.087500
0.750000 0.118750 0.087500
0.825000 0.118750 0.087500
0.900000 0.118750 0.087500
0.975000 0.118750 0.087500
1.050000 0.118750 0.087500
1.125000 0.118750 0.087500
1.200000 0.118750 0.087500
0.000000 0.178125 0.087500
0.075000 0.178125 0.087500
0.150000 0.178125 0.087500
0.225000 0.178125 0.087500
0.300000 0.178125 0.087500
0.375000 0.178125 0.087500
0.450000 0.178125 0.087500
0.525000 0.178125 0.087500
0.600000 0.178125 0.087500
0.675000 0.178125 0.087500
0.750000 0.178125 0.087500
0.825000 0.178125 0.087500
0.900000 0.178125 0.087500
0.975000 0.178125 0.087500
1.050000 0.178125 0.087500
1.125000 0.178125 0.087500
1.200000 0.178125 0.087500
0.000000 0.237500 0.087500
0.075000 0.237500 0.087500
0.150000 0.237500 0.087500
0.225000 0.237500 0.087500
0.300000 0.237500 0.087500
0.375000 0.237500 0.087500
0.450000 0.237500 0.087500
0.525000 0.237500 0.087500
0.600000 0.237500 0.087500
0.675000 0.237500 0.087500
0.750000 0.237500 0.087500
0.825000 0.237500 0.087500
0.900000 0.237500 0.087500
0.975000 0.237500 0.087500
1.050000 0.237500 0.087500
1.125000 0.237500 0.087500
1.200000 0.237500 0.087500
0.000000 0.296875 0.087500
0.075000 0.296875 0.087500
0.150000 0.296875 0.087500
0.225000 0.296875 0.087500
0.300000 0.296875 0.087500
0.375000 0.296875 0.087500
0.450000 0.296875 0.087500
0.525000 0.296875 0.087500
0.600000 0.296875 0.087500
0.675000 0.296875 0.087500
0.750000 0.296875 0.087500
0.825000 0.296875 0.087500
0.900000 0.296875 0.087500
0.975000 0.296875 0.087500
1.050000 0.296875 0.087500
1.125000 0.296875 0.087500
1.200000 0.296875 0.087500
0.000000 0.356250 0.087500
0.075000 0.356250 0.087500
0.150000 0.356250 0.087500
0.225000 0.356250 0.087500
0.300000 0.356250 0.087500
0.375000 0.356250 0.087500
0.450000 0.356250 0.087500
0.525000 0.356250 0.087500
0.600000 0.356250 0.087500
0.675000 0.356250 0.087500
0.750000 0.356250 0.087500
0.825000 0.356250 0.087500
0.900000 0.356250 0.087500
0.975000 0.356250 0.087500
1.050000 0.356250 0.087500
1.125000 0.356250 0.087500
1.200000 0.356250 0.087500
0.000000 0.415625 0.087500
0.075000 0.415625 0.087500
0.150000 0.415625 0.087500
0.225000 0.415625 0.087500
0.300000 0.415625 0.087500
0.375000 0.415625 0.087500
0.450000 0.415625 0.087500
0.525000 0.415625 0.087500
0.600000 0.415625 0.087500
0.675000 0.415625 0.087500
0.750000 0.415625 0.087500
0.825000 0.415625 0.087500
0.900000 0.415625 0.087500
0.975000 0.415625 0.087500
1.050000 0.415625 0.087500
1.125000 0.415625 0.087500
1.200000 0.415625 0.087500
0.000000 0.475000 0.087500
0.075000 0.475000 0.087500
0.150000 0.475000 0.087500
0.225000 0.475000 0.087500
0.300000 0.475000 0.087500
0.375000 0.475000 0.087500
0.450000 0.475000 0.087500
0.525000 0.475000 0.087500
0.600000 0.475000 0.087500
0.675000 0.475000 0.087500
0.750000 0.475000 0.087500
0.825000 0.475000 0.087500
0.900000 0.475000 0.087500
0.975000 0.475000 0.087500
1.050000 0.475000 0.087500
1.125000 0.475000 0.087500
1.200000 0.475000 0.087500
0.000000 0.534375 0.087500
0.075000 0.534375 0.087500
0.150000 0.534375 0.087500
0.225000 0.534375 0.087500
0.300000 0.534375 0.087500
0.375000 0.534375 0.087500
0.450000 0.534375 0.087500
0.525000 0.534375 0.087500
0.600000 0.534375 0.087500
0.675000 0.534375 0.087500
0.750000 0.534375 0.087500
0.825000 0.534375 0.087500
0.900000 0.534375 0.087500
0.975000 0.534375 0.087500
1.050000 0.534375 0.087500
1.125000 0.534375 0.087500
1.200000 0.534375 0.087500
0.000000 0.593750 0.087500
0.075000 0.593750 0.087500
0.150000 0.593750 0.087500
0.225000 0.593750 0.087500
0.300000 0.593750 0.087500
0.375000 0.593750 0.087500
0.450000 0.593750 0.087500
0.525000 0.593750 0.087500
0.600000 0.593750 0.087500
0.675000 0.593750 0.087500
0.750000 0.593750 0.087500
0.825000 0.593750 0.087500
0.900000 0.593750 0.087500
0.975000 0.593750 0.087500
1.050000 0.593750 0.087500
1.125000 0.593750 0.087500
1.200000 0.593750 0.087500
0.000000 0.653125 0.087500
0.075000 0.653125 0.087500
0.150000 0.653125 0.087500
0.225000 0.653125 0.087500
0.300000 0.653125 0.087500
0.375000 0.653125 0.087500
0.450000 0.653125 0.087500
0.525000 0.653125 0.087500
0.600000 0.653125 0.087500
0.675000 0.653125 0.087500
0.750000 0.653125 0.087500
0.825000 0.653125 0.087500
0.900000 0.653125 0.087500
0.975000 0.653125 0.087500
1.050000 0.653125 0.087500
1.125000 0.653125 0.087500
1.200000 0.653125 0.087500
0.000000 0.712500 0.087500
0.075000 0.712500 0.087500
0.150000 0.712500 0.087500
0.225000 0.712500 0.087500
0.300000 0.712500 0.087500
0.375000 0.712500 0.087500
0.450000 0.712500 0.087500
0.525000 0.712500 0.087500
0.600000 0.712500 0.087500
0.675000 0.712500 0.087500
0.750000 0.712500 0.087500
0.825000 0.712500 0.087500
0.900000 0.712500 0.087500
0.975000 0.712500 0.087500
1.050000 0.712500 0.087500
1.125000 0.712500 0.087500
1.200000 0.712500 0.087500
0.000000 0.771875 0.087500
0.075000 0.771875 0.087500
0.150000 0.771875 0.087500
0.225000 0.771875 0.087500
0.300000 0.771875 0.087500
0.375000 0.771875 0.087500
0.450000 0.771875 0.087500
0.525000 0.771875 0.087500
0.600000 0.771875 0.087500
0.675000 0.771875 0.087500
0.750000 0.771875 0.087500
0.825000 0.771875 0.087500
0.900000 0.771875 0.087500
0.975000 0.771875 0.087500
1.050000 0.771875 0.087500
1.125000 0.771875 0.087500
1.200000 0.771875 0.087500
0.000000 0.831250 0.087500
0.075000 0.831250 0.087500
0.150000 0.831250 0.087500
0.225000 0.831250 0.087500
0.300000 0.831250 0.087500
0.375000 0.831250 0.087500
0.450000 0.831250 0.087500
0.525000 0.831250 0.087500
0.600000 0.831250 0.087500
0.675000 0.831250 0.087500
0.750000 0.831250 0.087500
0.825000 0.831250 0.087500
0.900000 0.831250 0.087500
0.975000 0.831250 0.087500
1.050000 0.831250 0.087500
1.125000 0.831250 0.087500
1.200000 0.831250 0.087500
0.000000 0.890625 0.087500
0.075000 0.890625 0.087500
0.150000 0.890625 0.087500
0.225000 0.890625 0.087500
0.300000 0.890625 0.087500
0.375000 0.890625 0.087500
0.450000 0.890625 0.087500
0.525000 0.890625 0.087500
0.600000 0.890625 0.087500
0.675000 0.890625 0.087500
0.750000 0.890625 0.087500
0.825000 0.890625 0.087500
0.900000 0.890625 0.087500
0.975000 0.890625 0.087500
1.050000 0.890625 0.087500
1.125000 0.890625 0.087500
1.200000 0.890625 0.087500
0.000000 0.950000 0.087500
0.075000 0.950000 0.087500
0.150000 0.950000 0.087500
0.225000 0.950000 0.087500
0.300000 0.950000 0.087500
0.375000 0.950000 0.087500
0.450000 0.950000 0.087500
0.525000 0.950000 0.087500
0.600000 0.950000 0.087500
0.675000 0.950000 0.087500
0.750000 0.950000 0.087500
0.825000 0.950000 0.087500
0.900000 0.950000 0.087500
0.975000 0.950000 0.087500
1.050000 0.950000 0.087500
1.125000 0.950000 0.087500
1.200000 0.950000 0.087500
0.000000 0.000000 0.131250
0.075000 0.000000 0.131250
0.150000 0.000000 0.131250
0.225000 0.000000 0.131250
0.300000 0.000000 0.131250
0.375000 0.000000 0.131250
0.450000 0.000000 0.131250
0.525000 0.000000 0.131250
0.600000 0.000000 0.131250
0.675000 0.000000 0.131250
0.750000 0.000000 0.131250
0.825000 0.000000 0.131250
0.900000 0.000000 0.131250
0.975000 0.000000 0.131250
1.050000 0.000000 0.131250
1.125000 0.000000 0.131250
1.200000 0.000000 0.131250
0.000000 0.059375 0.131250
