assets/luts/vibrant_pop.cube
TITLE "Vibrant Pop"
LUT_3D_SIZE 9
DOMAIN_MIN 0.0 0.0 0.0
DOMAIN_MAX 1.0 1.0 1.0
0.000000 0.000000 0.000000
0.143750 0.000000 0.000000
0.287500 0.000000 0.000000
0.431250 0.000000 0.000000
0.575000 0.000000 0.000000
0.718750 0.000000 0.000000
0.862500 0.000000 0.000000
1.006250 0.000000 0.000000
1.150000 0.000000 0.000000
0.000000 0.140000 0.000000
0.143750 0.140000 0.000000
0.287500 0.140000 0.000000
0.431250 0.140000 0.000000
0.575000 0.140000 0.000000
0.718750 0.140000 0.000000
0.862500 0.140000 0.000000
1.006250 0.140000 0.000000
1.150000 0.140000 0.000000
0.000000 0.280000 0.000000
0.143750 0.280000 0.000000
0.287500 0.280000 0.000000
0.431250 0.280000 0.000000
0.575000 0.280000 0.000000
0.718750 0.280000 0.000000
0.862500 0.280000 0.000000
1.006250 0.280000 0.000000
1.150000 0.280000 0.000000
0.000000 0.420000 0.000000
0.143750 0.420000 0.000000
0.287500 0.420000 0.000000
0.431250 0.420000 0.000000
0.575000 0.420000 0.000000
0.718750 0.420000 0.000000
0.862500 0.420000 0.000000
1.006250 0.420000 0.000000
1.150000 0.420000 0.000000
0.000000 0.560000 0.000000
0.143750 0.560000 0.000000
0.287500 0.560000 0.000000
0.431250 0.560000 0.000000
0.575000 0.560000 0.000000
0.718750 0.560000 0.000000
0.862500 0.560000 0.000000
1.006250 0.560000 0.000000
1.150000 0.560000 0.000000
0.000000 0.700000 0.000000
0.143750 0.700000 0.000000
0.287500 0.700000 0.000000
0.431250 0.700000 0.000000
0.575000 0.700000 0.000000
0.718750 0.700000 0.000000
0.862500 0.700000 0.000000
1.006250 0.700000 0.000000
1.150000 0.700000 0.000000
0.000000 0.840000 0.000000
0.143750 0.840000 0.000000
0.287500 0.840000 0.000000
0.431250 0.840000 0.000000
0.575000 0.840000 0.000000
0.718750 0.840000 0.000000
0.862500 0.840000 0.000000
1.006250 0.840000 0.000000
1.150000 0.840000 0.000000
0.000000 0.980000 0.000000
0.143750 0.980000 0.000000
0.287500 0.980000 0.000000
0.431250 0.980000 0.000000
0.575000 0.980000 0.000000
0.718750 0.980000 0.000000
0.862500 0.980000 0.000000
1.006250 0.980000 0.000000
1.150000 0.980000 0.000000
0.000000 1.120000 0.000000
0.143750 1.120000 0.000000
0.287500 1.120000 0.000000
0.431250 1.120000 0.000000
0.575000 1.120000 0.000000
0.718750 1.120000 0.000000
0.862500 1.120000 0.000000
1.006250 1.120000 0.000000
1.150000 1.120000 0.000000
0.000000 0.000000 0.147500
0.143750 0.000000 0.147500
0.287500 0.000000 0.147500
0.431250 0.000000 0.147500
0.575000 0.000000 0.147500
0.718750 0.000000 0.147500
0.862500 0.000000 0.147500
1.006250 0.000000 0.147500
1.150000 0.000000 0.147500
0.000000 0.140000 0.147500
0.143750 0.140000 0.147500
0.287500 0.140000 0.147500
0.431250 0.140000 0.147500
0.575000 0.140000 0.147500
0.718750 0.140000 0.147500
0.862500 0.140000 0.147500
1.006250 0.140000 0.147500
1.150000 0.140000 0.147500
0.000000 0.280000 0.147500
0.143750 0.280000 0.147500
0.287500 0.280000 0.147500
0.431250 0.280000 0.147500
0.575000 0.280000 0.147500
0.718750 0.280000 0.147500
0.862500 0.280000 0.147500
1.006250 0.280000 0.147500
1.150000 0.280000 0.147500
0.000000 0.420000 0.147500
0.143750 0.420000 0.147500
0.287500 0.420000 0.147500
0.431250 0.420000 0.147500
0.575000 0.420000 0.147500
0.718750 0.420000 0.147500
0.862500 0.420000 0.147500
1.006250 0.420000 0.147500
1.150000 0.420000 0.147500
0.000000 0.560000 0.147500
0.143750 0.560000 0.147500
0.287500 0.560000 0.147500
0.431250 0.560000 0.147500
0.575000 0.560000 0.147500
0.718750 0.560000 0.147500
0.862500 0.560000 0.147500
1.006250 0.560000 0.147500
1.150000 0.560000 0.147500
0.000000 0.700000 0.147500
0.143750 0.700000 0.147500
0.287500 0.700000 0.147500
0.431250 0.700000 0.147500
0.575000 0.700000 0.147500
0.718750 0.700000 0.147500
0.862500 0.700000 0.147500
1.006250 0.700000 0.147500
1.150000 0.700000 0.147500
0.000000 0.840000 0.147500
0.143750 0.840000 0.147500
0.287500 0.840000 0.147500
0.431250 0.840000 0.147500
0.575000 0.840000 0.147500
0.718750 0.840000 0.147500
0.862500 0.840000 0.147500
1.006250 0.840000 0.147500
1.150000 0.840000 0.147500
0.000000 0.980000 0.147500
0.143750 0.980000 0.147500
0.287500 0.980000 0.147500
0.431250 0.980000 0.147500
0.575000 0.980000 0.147500
0.718750 0.980000 0.147500
0.862500 0.980000 0.147500
1.006250 0.980000 0.147500
1.150000 0.980000 0.147500
0.000000 1.120000 0.147500
0.143750 1.120000 0.147500
0.287500 1.120000 0.147500
0.431250 1.120000 0.147500
0.575000 1.120000 0.147500
0.718750 1.120000 0.147500
0.862500 1.120000 0.147500
1.006250 1.120000 0.147500
1.150000 1.120000 0.147500
0.000000 0.000000 0.295000
0.143750 0.000000 0.295000
0.287500 0.000000 0.295000
0.431250 0.000000 0.295000
0.575000 0.000000 0.295000
0.718750 0.000000 0.295000
0.862500 0.000000 0.295000
1.006250 0.000000 0.295000
1.150000 0.000000 0.295000
0.000000 0.140000 0.295000
0.143750 0.140000 0.295000
0.287500 0.140000 0.295000
0.431250 0.140000 0.295000
0.575000 0.140000 0.295000
0.718750 0.140000 0.295000
0.862500 0.140000 0.295000
1.006250 0.140000 0.295000
1.150000 0.140000 0.295000
0.000000 0.280000 0.295000
0.143750 0.280000 0.295000
0.287500 0.280000 0.295000
0.431250 0.280000 0.295000
0.575000 0.280000 0.295000
0.718750 0.280000 0.295000
0.862500 0.280000 0.295000
1.006250 0.280000 0.295000
1.150000 0.280000 0.295000
0.000000 0.420000 0.295000
0.143750 0.420000 0.295000
0.287500 0.420000 0.295000
0.431250 0.420000 0.295000
0.575000 0.420000 0.295000
0.718750 0.420000 0.295000
0.862500 0.420000 0.295000
1.006250 0.420000 0.295000
1.150000 0.420000 0.295000
0.000000 0.560000 0.295000
0.143750 0.560000 0.295000
0.287500 0.560000 0.295000
0.431250 0.560000 0.295000
0.575000 0.560000 0.295000
0.718750 0.560000 0.295000
0.862500 0.560000 0.295000
1.006250 0.560000 0.295000
1.150000 0.560000 0.295000
0.000000 0.700000 0.295000
0.143750 0.700000 0.295000
0.287500 0.700000 0.295000
0.431250 0.700000 0.295000
0.575000 0.700000 0.295000
0.718750 0.700000 0.295000
0.862500 0.700000 0.295000
1.006250 0.700000 0.295000
1.150000 0.700000 0.295000
0.000000 0.840000 0.295000
0.143750 0.840000 0.295000
0.287500 0.840000 0.295000
0.431250 0.840000 0.295000
0.575000 0.840000 0.295000
0.718750 0.840000 0.295000
0.862500 0.840000 0.295000
1.006250 0.840000 0.295000
1.150000 0.840000 0.295000
0.000000 0.980000 0.295000
0.143750 0.980000 0.295000
0.287500 0.980000 0.295000
0.431250 0.980000 0.295000
0.575000 0.980000 0.295000
0.718750 0.980000 0.295000
0.862500 0.980000 0.295000
1.006250 0.980000 0.295000
1.150000 0.980000 0.295000
0.000000 1.120000 0.295000
0.143750 1.120000 0.295000
0.287500 1.120000 0.295000
0.431250 1.120000 0.295000
0.575000 1.120000 0.295000
0.718750 1.120000 0.295000
0.862500 1.120000 0.295000
1.006250 1.120000 0.295000
1.150000 1.120000 0.295000
0.000000 0.000000 0.442500
0.143750 0.000000 0.442500
0.287500 0.000000 0.442500
0.431250 0.000000 0.442500
0.575000 0.000000 0.442500
0.718750 0.000000 0.442500
0.862500 0.000000 0.442500
1.006250 0.000000 0.442500
1.150000 0.000000 0.442500
0.000000 0.140000 0.442500
0.143750 0.140000 0.442500
0.287500 0.140000 0.442500
0.431250 0.140000 0.442500
0.575000 0.140000 0.442500
0.718750 0.140000 0.442500
0.862500 0.140000 0.442500
1.006250 0.140000 0.442500
1.150000 0.140000 0.442500
0.000000 0.280000 0.442500
0.143750 0.280000 0.442500
0.287500 0.280000 0.442500
0.431250 0.280000 0.442500
0.575000 0.280000 0.442500
0.718750 0.280000 0.442500
0.862500 0.280000 0.442500
1.006250 0.280000 0.442500
1.150000 0.280000 0.442500
0.000000 0.420000 0.442500
0.143750 0.420000 0.442500
0.287500 0.420000 0.442500
0.431250 0.420000 0.442500
0.575000 0.420000 0.442500
0.718750 0.420000 0.442500
0.862500 0.420000 0.442500
1.006250 0.420000 0.442500
1.150000 0.420000 0.442500
0.000000 0.560000 0.442500
0.143750 0.560000 0.442500
0.287500 0.560000 0.442500
0.431250 0.560000 0.442500
0.575000 0.560000 0.442500
0.718750 0.560000 0.442500
0.862500 0.560000 0.442500
1.006250 0.560000 0.442500
1.150000 0.560000 0.442500
0.000000 0.700000 0.442500
0.143750 0.700000 0.442500
0.287500 0.700000 0.442500
0.431250 0.700000 0.442500
0.575000 0.700000 0.442500
0.718750 0.700000 0.442500
0.862500 0.700000 0.442500
1.006250 0.700000 0.442500
1.150000 0.700000 0.442500
0.000000 0.840000 0.442500
0.143750 0.840000 0.442500
0.287500 0.840000 0.442500
0.431250 0.840000 0.442500
0.575000 0.840000 0.442500
0.718750 0.840000 0.442500
0.862500 0.840000 0.442500
1.006250 0.840000 0.442500
1.150000 0.840000 0.442500
0.000000 0.980000 0.442500
0.143750 0.980000 0.442500
0.287500 0.980000 0.442500
0.431250 0.980000 0.442500
0.575000 0.980000 0.442500
0.718750 0.980000 0.442500
0.862500 0.980000 0.442500
1.006250 0.980000 0.442500
1.150000 0.980000 0.442500
0.000000 1.120000 0.442500
0.143750 1.120000 0.442500
0.287500 1.120000 0.442500
0.431250 1.120000 0.442500
0.575000 1.120000 0.442500
0.718750 1.120000 0.442500
0.862500 1.120000 0.442500
1.006250 1.120000 0.442500
1.150000 1.120000 0.442500
0.000000 0.000000 0.590000
0.143750 0.000000 0.590000
0.287500 0.000000 0.590000
0.431250 0.000000 0.590000
0.575000 0.000000 0.590000
0.718750 0.000000 0.590000
0.862500 0.000000 0.590000
1.006250 0.000000 0.590000
1.150000 0.000000 0.590000
0.000000 0.140000 0.590000
0.143750 0.140000 0.590000
0.287500 0.140000 0.590000
0.431250 0.140000 0.590000
0.575000 0.140000 0.590000
0.718750 0.140000 0.590000
0.862500 0.140000 0.590000
1.006250 0.140000 0.590000
1.150000 0.140000 0.590000
0.000000 0.280000 0.590000
0.143750 0.280000 0.590000
0.287500 0.280000 0.590000
0.431250 0.280000 0.590000
0.575000 0.280000 0.590000
0.718750 0.280000 0.590000
0.862500 0.280000 0.590000
1.006250 0.280000 0.590000
1.150000 0.280000 0.590000
0.000000 0.420000 0.590000
0.143750 0.420000 0.590000
0.287500 0.420000 0.590000
0.431250 0.420000 0.590000
0.575000 0.420000 0.590000
0.718750 0.420000 0.590000
0.862500 0.420000 0.590000
1.006250 0.420000 0.590000
1.150000 0.420000 0.590000
0.000000 0.560000 0.590000
0.143750 0.560000 0.590000
0.287500 0.560000 0.590000
0.431250 0.560000 0.590000
0.575000 0.560000 0.590000
0.718750 0.560000 0.590000
0.862500 0.560000 0.590000
1.006250 0.560000 0.590000
1.150000 0.560000 0.590000
0.000000 0.700000 0.590000
0.143750 0.700000 0.590000
0.287500 0.700000 0.590000
0.431250 0.700000 0.590000
0.575000 0.700000 0.590000
0.718750 0.700000 0.590000
0.862500 0.700000 0.590000
1.006250 0.700000 0.590000
1.150000 0.700000 0.590000
0.000000 0.840000 0.590000
0.143750 0.840000 0.590000
0.287500 0.840000 0.590000
0.431250 0.840000 0.590000
0.575000 0.840000 0.590000
0.718750 0.840000 0.590000
0.862500 0.840000 0.590000
1.006250 0.840000 0.590000
1.150000 0.840000 0.590000
0.000000 0.980000 0.590000
0.143750 0.980000 0.590000
0.287500 0.980000 0.590000
0.431250 0.980000 0.590000
0.575000 0.980000 0.590000
0.718750 0.980000 0.590000
0.862500 0.980000 0.590000
1.006250 0.980000 0.590000
1.150000 0.980000 0.590000
0.000000 1.120000 0.590000
0.143750 1.120000 0.590000
0.287500 1.120000 0.590000
0.431250 1.120000 0.590000
0.575000 1.120000 0.590000
0.718750 1.120000 0.590000
0.862500 1.120000 0.590000
1.006250 1.120000 0.590000
1.150000 1.120000 0.590000
0.000000 0.000000 0.737500
0.143750 0.000000 0.737500
0.287500 0.000000 0.737500
0.431250 0.000000 0.737500
0.575000 0.000000 0.737500
0.718750 0.000000 0.737500
0.862500 0.000000 0.737500
1.006250 0.000000 0.737500
1.150000 0.000000 0.737500
0.000000 0.140000 0.737500
0.143750 0.140000 0.737500
0.287500 0.140000 0.737500
0.431250 0.140000 0.737500
0.575000 0.140000 0.737500
0.718750 0.140000 0.737500
0.862500 0.140000 0.737500
1.006250 0.140000 0.737500
1.150000 0.140000 0.737500
0.000000 0.280000 0.737500
0.143750 0.280000 0.737500
0.287500 0.280000 0.737500
0.431250 0.280000 0.737500
0.575000 0.280000 0.737500
0.718750 0.280000 0.737500
0.862500 0.280000 0.737500
1.006250 0.280000 0.737500
1.150000 0.280000 0.737500
0.000000 0.420000 0.737500
0.143750 0.420000 0.737500
0.287500 0.420000 0.737500
0.431250 0.420000 0.737500
0.575000 0.420000 0.737500
0.718750 0.420000 0.737500
0.862500 0.420000 0.737500
1.006250 0.420000 0.737500
1.150000 0.420000 0.737500
0.000000 0.560000 0.737500
0.143750 0.560000 0.737500
0.287500 0.560000 0.737500
0.431250 0.560000 0.737500
0.575000 0.560000 0.737500
0.718750 0.560000 0.737500
0.862500 0.560000 0.737500
1.006250 0.560000 0.737500
1.150000 0.560000 0.737500
0.000000 0.700000 0.737500
0.143750 0.700000 0.737500
0.287500 0.700000 0.737500
0.431250 0.700000 0.737500
0.575000 0.700000 0.737500
0.718750 0.700000 0.737500
0.862500 0.700000 0.737500
1.006250 0.700000 0.737500
1.150000 0.700000 0.737500
0.000000 0.840000 0.737500
0.143750 0.840000 0.737500
0.287500 0.840000 0.737500
0.431250 0.840000 0.737500
0.575000 0.840000 0.737500
0.718750 0.840000 0.737500
0.862500 0.840000 0.737500
1.006250 0.840000 0.737500
1.150000 0.840000 0.737500
0.000000 0.980000 0.737500
0.143750 0.980000 0.737500
0.287500 0.980000 0.737500
0.431250 0.980000 0.737500
0.575000 0.980000 0.737500
0.718750 0.980000 0.737500
0.862500 0.980000 0.737500
1.006250 0.980000 0.737500
1.150000 0.980000 0.737500
0.000000 1.120000 0.737500
0.143750 1.120000 0.737500
0.287500 1.120000 0.737500
0.431250 1.120000 0.737500
0.575000 1.120000 0.737500
0.718750 1.120000 0.737500
0.862500 1.120000 0.737500
1.006250 1.120000 0.737500
1.150000 1.120000 0.737500
0.000000 0.000000 0.885000
0.143750 0.000000 0.885000
0.287500 0.000000 0.885000
0.431250 0.000000 0.885000
0.575000 0.000000 0.885000
0.718750 0.000000 0.885000
0.862500 0.000000 0.885000
1.006250 0.000000 0.885000
1.150000 0.000000 0.885000
0.000000 0.140000 0.885000
0.143750 0.140000 0.885000
0.287500 0.140000 0.885000
0.431250 0.140000 0.885000
0.575000 0.140000 0.885000
0.718750 0.140000 0.885000
0.862500 0.140000 0.885000
1.006250 0.140000 0.885000
1.150000 0.140000 0.885000
0.000000 0.280000 0.885000
0.143750 0.280000 0.885000
0.287500 0.280000 0.885000
0.431250 0.280000 0.885000
0.575000 0.280000 0.885000
0.718750 0.280000 0.885000
0.862500 0.280000 0.885000
1.006250 0.280000 0.885000
1.150000 0.280000 0.885000
0.000000 0.420000 0.885000
0.143750 0.420000 0.885000
0.287500 0.420000 0.885000
0.431250 0.420000 0.885000
0.575000 0.420000 0.885000
0.718750 0.420000 0.885000
0.862500 0.420000 0.885000
1.006250 0.420000 0.885000
1.150000 0.420000 0.885000
0.000000 0.560000 0.885000
0.143750 0.560000 0.885000
0.287500 0.560000 0.885000
0.431250 0.560000 0.885000
0.575000 0.560000 0.885000
0.718750 0.560000 0.885000
0.862500 0.560000 0.885000
1.006250 0.560000 0.885000
1.150000 0.560000 0.885000
0.000000 0.700000 0.885000
0.143750 0.700000 0.885000
0.287500 0.700000 0.885000
0.431250 0.700000 0.885000
0.575000 0.700000 0.885000
0.718750 0.700000 0.885000
0.862500 0.700000 0.885000
1.006250 0.700000 0.885000
1.150000 0.700000 0.885000
0.000000 0.840000 0.885000
0.143750 0.840000 0.885000
0.287500 0.840000 0.885000
0.431250 0.840000 0.885000
0.575000 0.840000 0.885000
0.718750 0.840000 0.885000
0.862500 0.840000 0.885000
1.006250 0.840000 0.885000
1.150000 0.840000 0.885000
0.000000 0.980000 0.885000
0.143750 0.980000 0.885000
0.287500 0.980000 0.885000
0.431250 0.980000 0.885000
0.575000 0.980000 0.885000
0.718750 0.980000 0.885000
0.862500 0.980000 0.885000
1.006250 0.980000 0.885000
1.150000 0.980000 0.885000
0.000000 1.120000 0.885000
0.143750 1.120000 0.885000
0.287500 1.120000 0.885000
0.431250 1.120000 0.885000
0.575000 1.120000 0.885000
0.718750 1.120000 0.885000
0.862500 1.120000 0.885000
1.006250 1.120000 0.885000
1.150000 1.120000 0.885000
0.000000 0.000000 1.032500
0.143750 0.000000 1.032500
0.287500 0.000000 1.032500
0.431250 0.000000 1.032500
0.575000 0.000000 1.032500
0.718750 0.000000 1.032500
0.862500 0.000000 1.032500
1.006250 0.000000 1.032500
1.150000 0.000000 1.032500
0.000000 0.140000 1.032500
0.143750 0.140000 1.032500
0.287500 0.140000 1.032500
0.431250 0.140000 1.032500
0.575000 0.140000 1.032500
0.718750 0.140000 1.032500
0.862500 0.140000 1.032500
1.006250 0.140000 1.032500
1.150000 0.140000 1.032500
0.000000 0.280000 1.032500
0.143750 0.280000 1.032500
0.287500 0.280000 1.032500
0.431250 0.280000 1.032500
0.575000 0.280000 1.032500
0.718750 0.280000 1.032500
0.862500 0.280000 1.032500
1.006250 0.280000 1.032500
1.150000 0.280000 1.032500
0.000000 0.420000 1.032500
0.143750 0.420000 1.032500
0.287500 0.420000 1.032500
0.431250 0.420000 1.032500
0.575000 0.420000 1.032500
0.718750 0.420000 1.032500
0.862500 0.420000 1.032500
1.006250 0.420000 1.032500
1.150000 0.420000 1.032500
0.000000 0.560000 1.032500
0.143750 0.560000 1.032500
0.287500 0.560000 1.032500
0.431250 0.560000 1.032500
0.575000 0.560000 1.032500
0.718750 0.560000 1.032500
0.862500 0.560000 1.032500
1.006250 0.560000 1.032500
1.150000 0.560000 1.032500
0.000000 0.700000 1.032500
0.143750 0.700000 1.032500
0.287500 0.700000 1.032500
0.431250 0.700000 1.032500
0.575000 0.700000 1.032500
0.718750 0.700000 1.032500
0.862500 0.700000 1.032500
1.006250 0.700000 1.032500
1.150000 0.700000 1.032500
0.000000 0.840000 1.032500
0.143750 0.840000 1.032500
0.287500 0.840000 1.032500
0.431250 0.840000 1.032500
0.575000 0.840000 1.032500
0.718750 0.840000 1.032500
0.862500 0.840000 1.032500
1.006250 0.840000 1.032500
1.150000 0.840000 1.032500
0.000000 0.980000 1.032500
0.143750 0.980000 1.032500
0.287500 0.980000 1.032500
0.431250 0.980000 1.032500
0.575000 0.980000 1.032500
0.718750 0.980000 1.032500
0.862500 0.980000 1.032500
1.006250 0.980000 1.032500
1.150000 0.980000 1.032500
0.000000 1.120000 1.032500
0.143750 1.120000 1.032500
0.287500 1.120000 1.032500
0.431250 1.120000 1.032500
0.575000 1.120000 1.032500
0.718750 1.120000 1.032500
0.862500 1.120000 1.032500
1.006250 1.120000 1.032500
1.150000 1.120000 1.032500
0.000000 0.000000 1.180000
0.143750 0.000000 1.180000
0.287500 0.000000 1.180000
0.431250 0.000000 1.180000
0.575000 0.000000 1.180000
0.718750 0.000000 1.180000
0.862500 0.000000 1.180000
1.006250 0.000000 1.180000
1.150000 0.000000 1.180000
0.000000 0.140000 1.180000
0.143750 0.140000 1.180000
0.287500 0.140000 1.180000
0.431250 0.140000 1.180000
0.575000 0.140000 1.180000
0.718750 0.140000 1.180000
0.862500 0.140000 1.180000
1.006250 0.140000 1.180000
1.150000 0.140000 1.180000
0.000000 0.280000 1.180000
0.143750 0.280000 1.180000
0.287500 0.280000 1.180000
0.431250 0.280000 1.180000
0.575000 0.280000 1.180000
0.718750 0.280000 1.180000
0.862500 0.280000 1.180000
1.006250 0.280000 1.180000
1.150000 0.280000 1.180000
0.000000 0.420000 1.180000
0.143750 0.420000 1.180000
0.287500 0.420000 1.180000
0.431250 0.420000 1.180000
0.575000 0.420000 1.180000
0.718750 0.420000 1.180000
0.862500 0.420000 1.180000
1.006250 0.420000 1.180000
1.150000 0.420000 1.180000
0.000000 0.560000 1.180000
0.143750 0.560000 1.180000
0.287500 0.560000 1.180000
0.431250 0.560000 1.180000
0.575000 0.560000 1.180000
0.718750 0.560000 1.180000
0.862500 0.560000 1.180000
1.006250 0.560000 1.180000
1.150000 0.560000 1.180000
0.000000 0.700000 1.180000
0.143750 0.700000 1.180000
0.287500 0.700000 1.180000
0.431250 0.700000 1.180000
0.575000 0.700000 1.180000
0.718750 0.700000 1.180000
0.862500 0.700000 1.180000
1.006250 0.700000 1.180000
1.150000 0.700000 1.180000
0.000000 0.840000 1.180000
0.143750 0.840000 1.180000
0.287500 0.840000 1.180000
0.431250 0.840000 1.180000
0.575000 0.840000 1.180000
0.718750 0.840000 1.180000
0.862500 0.840000 1.180000
1.006250 0.840000 1.180000
1.150000 0.840000 1.180000
0.000000 0.980000 1.180000
0.143750 0.980000 1.180000
0.287500 0.980000 1.180000
0.431250 0.980000 1.180000
0.575000 0.980000 1.180000
0.718750 0.980000 1.180000
0.862500 0.980000 1.180000
1.006250 0.980000 1.180000
1.150000 0.980000 1.180000
0.000000 1.120000 1.180000
0.143750 1.120000 1.180000
0.287500 1.120000 1.180000
0.431250 1.120000 1.180000
0.575000 1.120000 1.180000
0.718750 1.120000 1.180000
0.862500 1.120000 1.180000
1.006250 1.120000 1.180000
1.150000 1.120000 1.180000
