assets/luts/vibrant_pop.cube
TITLE "Vibrant Pop"
LUT_3D_SIZE 17
DOMAIN_MIN 0.0 0.0 0.0
DOMAIN_MAX 1.0 1.0 1.0
0.000000 0.000000 0.000000
0.071875 0.000000 0.000000
0.143750 0.000000 0.000000
0.215625 0.000000 0.000000
0.287500 0.000000 0.000000
0.359375 0.000000 0.000000
0.431250 0.000000 0.000000
0.503125 0.000000 0.000000
0.575000 0.000000 0.000000
0.646875 0.000000 0.000000
0.718750 0.000000 0.000000
0.790625 0.000000 0.000000
0.862500 0.000000 0.000000
0.934375 0.000000 0.000000
1.006250 0.000000 0.000000
1.078125 0.000000 0.000000
1.150000 0.000000 0.000000
0.000000 0.070000 0.000000
0.071875 0.070000 0.000000
0.143750 0.070000 0.000000
0.215625 0.070000 0.000000
0.287500 0.070000 0.000000
0.359375 0.070000 0.000000
0.431250 0.070000 0.000000
0.503125 0.070000 0.000000
0.575000 0.070000 0.000000
0.646875 0.070000 0.000000
0.718750 0.070000 0.000000
0.790625 0.070000 0.000000
0.862500 0.070000 0.000000
0.934375 0.070000 0.000000
1.006250 0.070000 0.000000
1.078125 0.070000 0.000000
1.150000 0.070000 0.000000
0.000000 0.140000 0.000000
0.071875 0.140000 0.000000
0.143750 0.140000 0.000000
0.215625 0.140000 0.000000
0.287500 0.140000 0.000000
0.359375 0.140000 0.000000
0.431250 0.140000 0.000000
0.503125 0.140000 0.000000
0.575000 0.140000 0.000000
0.646875 0.140000 0.000000
0.718750 0.140000 0.000000
0.790625 0.140000 0.000000
0.862500 0.140000 0.000000
0.934375 0.140000 0.000000
1.006250 0.140000 0.000000
1.078125 0.140000 0.000000
1.150000 0.140000 0.000000
0.000000 0.210000 0.000000
0.071875 0.210000 0.000000
0.143750 0.210000 0.000000
0.215625 0.210000 0.000000
0.287500 0.210000 0.000000
0.359375 0.210000 0.000000
0.431250 0.210000 0.000000
0.503125 0.210000 0.000000
0.575000 0.210000 0.000000
0.646875 0.210000 0.000000
0.718750 0.210000 0.000000
0.790625 0.210000 0.000000
0.862500 0.210000 0.000000
0.934375 0.210000 0.000000
1.006250 0.210000 0.000000
1.078125 0.210000 0.000000
1.150000 0.210000 0.000000
0.000000 0.280000 0.000000
0.071875 0.280000 0.000000
0.143750 0.280000 0.000000
0.215625 0.280000 0.000000
0.287500 0.280000 0.000000
0.359375 0.280000 0.000000
0.431250 0.280000 0.000000
0.503125 0.280000 0.000000
0.575000 0.280000 0.000000
0.646875 0.280000 0.000000
0.718750 0.280000 0.000000
0.790625 0.280000 0.000000
0.862500 0.280000 0.000000
0.934375 0.280000 0.000000
1.006250 0.280000 0.000000
1.078125 0.280000 0.000000
1.150000 0.280000 0.000000
0.000000 0.350000 0.000000
0.071875 0.350000 0.000000
0.143750 0.350000 0.000000
0.215625 0.350000 0.000000
0.287500 0.350000 0.000000
0.359375 0.350000 0.000000
0.431250 0.350000 0.000000
0.503125 0.350000 0.000000
0.575000 0.350000 0.000000
0.646875 0.350000 0.000000
0.718750 0.350000 0.000000
0.790625 0.350000 0.000000
0.862500 0.350000 0.000000
0.934375 0.350000 0.000000
1.006250 0.350000 0.000000
1.078125 0.350000 0.000000
1.150000 0.350000 0.000000
0.000000 0.420000 0.000000
0.071875 0.420000 0.000000
0.143750 0.420000 0.000000
0.215625 0.420000 0.000000
0.287500 0.420000 0.000000
0.359375 0.420000 0.000000
0.431250 0.420000 0.000000
0.503125 0.420000 0.000000
0.575000 0.420000 0.000000
0.646875 0.420000 0.000000
0.718750 0.420000 0.000000
0.790625 0.420000 0.000000
0.862500 0.420000 0.000000
0.934375 0.420000 0.000000
1.006250 0.420000 0.000000
1.078125 0.420000 0.000000
1.150000 0.420000 0.000000
0.000000 0.490000 0.000000
0.071875 0.490000 0.000000
0.143750 0.490000 0.000000
0.215625 0.490000 0.000000
0.287500 0.490000 0.000000
0.359375 0.490000 0.000000
0.431250 0.490000 0.000000
0.503125 0.490000 0.000000
0.575000 0.490000 0.000000
0.646875 0.490000 0.000000
0.718750 0.490000 0.000000
0.790625 0.490000 0.000000
0.862500 0.490000 0.000000
0.934375 0.490000 0.000000
1.006250 0.490000 0.000000
1.078125 0.490000 0.000000
1.150000 0.490000 0.000000
0.000000 0.560000 0.000000
0.071875 0.560000 0.000000
0.143750 0.560000 0.000000
0.215625 0.560000 0.000000
0.287500 0.560000 0.000000
0.359375 0.560000 0.000000
0.431250 0.560000 0.000000
0.503125 0.560000 0.000000
0.575000 0.560000 0.000000
0.646875 0.560000 0.000000
0.718750 0.560000 0.000000
0.790625 0.560000 0.000000
0.862500 0.560000 0.000000
0.934375 0.560000 0.000000
1.006250 0.560000 0.000000
1.078125 0.560000 0.000000
1.150000 0.560000 0.000000
0.000000 0.630000 0.000000
0.071875 0.630000 0.000000
0.143750 0.630000 0.000000
0.215625 0.630000 0.000000
0.287500 0.630000 0.000000
0.359375 0.630000 0.000000
0.431250 0.630000 0.000000
0.503125 0.630000 0.000000
0.575000 0.630000 0.000000
0.646875 0.630000 0.000000
0.718750 0.630000 0.000000
0.790625 0.630000 0.000000
0.862500 0.630000 0.000000
0.934375 0.630000 0.000000
1.006250 0.630000 0.000000
1.078125 0.630000 0.000000
1.150000 0.630000 0.000000
0.000000 0.700000 0.000000
0.071875 0.700000 0.000000
0.143750 0.700000 0.000000
0.215625 0.700000 0.000000
0.287500 0.700000 0.000000
0.359375 0.700000 0.000000
0.431250 0.700000 0.000000
0.503125 0.700000 0.000000
0.575000 0.700000 0.000000
0.646875 0.700000 0.000000
0.718750 0.700000 0.000000
0.790625 0.700000 0.000000
0.862500 0.700000 0.000000
0.934375 0.700000 0.000000
1.006250 0.700000 0.000000
1.078125 0.700000 0.000000
1.150000 0.700000 0.000000
0.000000 0.770000 0.000000
0.071875 0.770000 0.000000
0.143750 0.770000 0.000000
0.215625 0.770000 0.000000
0.287500 0.770000 0.000000
0.359375 0.770000 0.000000
0.431250 0.770000 0.000000
0.503125 0.770000 0.000000
0.575000 0.770000 0.000000
0.646875 0.770000 0.000000
0.718750 0.770000 0.000000
0.790625 0.770000 0.000000
0.862500 0.770000 0.000000
0.934375 0.770000 0.000000
1.006250 0.770000 0.000000
1.078125 0.770000 0.000000
1.150000 0.770000 0.000000
0.000000 0.840000 0.000000
0.071875 0.840000 0.000000
0.143750 0.840000 0.000000
0.215625 0.840000 0.000000
0.287500 0.840000 0.000000
0.359375 0.840000 0.000000
0.431250 0.840000 0.000000
0.503125 0.840000 0.000000
0.575000 0.840000 0.000000
0.646875 0.840000 0.000000
0.718750 0.840000 0.000000
0.790625 0.840000 0.000000
0.862500 0.840000 0.000000
0.934375 0.840000 0.000000
1.006250 0.840000 0.000000
1.078125 0.840000 0.000000
1.150000 0.840000 0.000000
0.000000 0.910000 0.000000
0.071875 0.910000 0.000000
0.143750 0.910000 0.000000
0.215625 0.910000 0.000000
0.287500 0.910000 0.000000
0.359375 0.910000 0.000000
0.431250 0.910000 0.000000
0.503125 0.910000 0.000000
0.575000 0.910000 0.000000
0.646875 0.910000 0.000000
0.718750 0.910000 0.000000
0.790625 0.910000 0.000000
0.862500 0.910000 0.000000
0.934375 0.910000 0.000000
1.006250 0.910000 0.000000
1.078125 0.910000 0.000000
1.150000 0.910000 0.000000
0.000000 0.980000 0.000000
0.071875 0.980000 0.000000
0.143750 0.980000 0.000000
0.215625 0.980000 0.000000
0.287500 0.980000 0.000000
0.359375 0.980000 0.000000
0.431250 0.980000 0.000000
0.503125 0.980000 0.000000
0.575000 0.980000 0.000000
0.646875 0.980000 0.000000
0.718750 0.980000 0.000000
0.790625 0.980000 0.000000
0.862500 0.980000 0.000000
0.934375 0.980000 0.000000
1.006250 0.980000 0.000000
1.078125 0.980000 0.000000
1.150000 0.980000 0.000000
0.000000 1.050000 0.000000
0.071875 1.050000 0.000000
0.143750 1.050000 0.000000
0.215625 1.050000 0.000000
0.287500 1.050000 0.000000
0.359375 1.050000 0.000000
0.431250 1.050000 0.000000
0.503125 1.050000 0.000000
0.575000 1.050000 0.000000
0.646875 1.050000 0.000000
0.718750 1.050000 0.000000
0.790625 1.050000 0.000000
0.862500 1.050000 0.000000
0.934375 1.050000 0.000000
1.006250 1.050000 0.000000
1.078125 1.050000 0.000000
1.150000 1.050000 0.000000
0.000000 1.120000 0.000000
0.071875 1.120000 0.000000
0.143750 1.120000 0.000000
0.215625 1.120000 0.000000
0.287500 1.120000 0.000000
0.359375 1.120000 0.000000
0.431250 1.120000 0.000000
0.503125 1.120000 0.000000
0.575000 1.120000 0.000000
0.646875 1.120000 0.000000
0.718750 1.120000 0.000000
0.790625 1.120000 0.000000
0.862500 1.120000 0.000000
0.934375 1.120000 0.000000
1.006250 1.120000 0.000000
1.078125 1.120000 0.000000
1.150000 1.120000 0.000000
0.000000 0.000000 0.073750
0.071875 0.000000 0.073750
0.143750 0.000000 0.073750
0.215625 0.000000 0.073750
0.287500 0.000000 0.073750
0.359375 0.000000 0.073750
0.431250 0.000000 0.073750
0.503125 0.000000 0.073750
0.575000 0.000000 0.073750
0.646875 0.000000 0.073750
0.718750 0.000000 0.073750
0.790625 0.000000 0.073750
0.862500 0.000000 0.073750
0.934375 0.000000 0.073750
1.006250 0.000000 0.073750
1.078125 0.000000 0.073750
1.150000 0.000000 0.073750
0.000000 0.070000 0.073750
0.071875 0.070000 0.073750
0.143750 0.070000 0.073750
0.215625 0.070000 0.073750
0.287500 0.070000 0.073750
0.359375 0.070000 0.073750
0.431250 0.070000 0.073750
0.503125 0.070000 0.073750
0.575000 0.070000 0.073750
0.646875 0.070000 0.073750
0.718750 0.070000 0.073750
0.790625 0.070000 0.073750
0.862500 0.070000 0.073750
0.934375 0.070000 0.073750
1.006250 0.070000 0.073750
1.078125 0.070000 0.073750
1.150000 0.070000 0.073750
0.000000 0.140000 0.073750
0.071875 0.140000 0.073750
0.143750 0.140000 0.073750
0.215625 0.140000 0.073750
0.287500 0.140000 0.073750
0.359375 0.140000 0.073750
0.431250 0.140000 0.073750
0.503125 0.140000 0.073750
0.575000 0.140000 0.073750
0.646875 0.140000 0.073750
0.718750 0.140000 0.073750
0.790625 0.140000 0.073750
0.862500 0.140000 0.073750
0.934375 0.140000 0.073750
1.006250 0.140000 0.073750
1.078125 0.140000 0.073750
1.150000 0.140000 0.073750
0.000000 0.210000 0.073750
0.071875 0.210000 0.073750
0.143750 0.210000 0.073750
0.215625 0.210000 0.073750
0.287500 0.210000 0.073750
0.359375 0.210000 0.073750
0.431250 0.210000 0.073750
0.503125 0.210000 0.073750
0.575000 0.210000 0.073750
0.646875 0.210000 0.073750
0.718750 0.210000 0.073750
0.790625 0.210000 0.073750
0.862500 0.210000 0.073750
0.934375 0.210000 0.073750
1.006250 0.210000 0.073750
1.078125 0.210000 0.073750
1.150000 0.210000 0.073750
0.000000 0.280000 0.073750
0.071875 0.280000 0.073750
0.143750 0.280000 0.073750
0.215625 0.280000 0.073750
0.287500 0.280000 0.073750
0.359375 0.280000 0.073750
0.431250 0.280000 0.073750
0.503125 0.280000 0.073750
0.575000 0.280000 0.073750
0.646875 0.280000 0.073750
0.718750 0.280000 0.073750
0.790625 0.280000 0.073750
0.862500 0.280000 0.073750
0.934375 0.280000 0.073750
1.006250 0.280000 0.073750
1.078125 0.280000 0.073750
1.150000 0.280000 0.073750
0.000000 0.350000 0.073750
0.071875 0.350000 0.073750
0.143750 0.350000 0.073750
0.215625 0.350000 0.073750
0.287500 0.350000 0.073750
0.359375 0.350000 0.073750
0.431250 0.350000 0.073750
0.503125 0.350000 0.073750
0.575000 0.350000 0.073750
0.646875 0.350000 0.073750
0.718750 0.350000 0.073750
0.790625 0.350000 0.073750
0.862500 0.350000 0.073750
0.934375 0.350000 0.073750
1.006250 0.350000 0.073750
1.078125 0.350000 0.073750
1.150000 0.350000 0.073750
0.000000 0.420000 0.073750
0.071875 0.420000 0.073750
0.143750 0.420000 0.073750
0.215625 0.420000 0.073750
0.287500 0.420000 0.073750
0.359375 0.420000 0.073750
0.431250 0.420000 0.073750
0.503125 0.420000 0.073750
0.575000 0.420000 0.073750
0.646875 0.420000 0.073750
0.718750 0.420000 0.073750
0.790625 0.420000 0.073750
0.862500 0.420000 0.073750
0.934375 0.420000 0.073750
1.006250 0.420000 0.073750
1.078125 0.420000 0.073750
1.150000 0.420000 0.073750
0.000000 0.490000 0.073750
0.071875 0.490000 0.073750
0.143750 0.490000 0.073750
0.215625 0.490000 0.073750
0.287500 0.490000 0.073750
0.359375 0.490000 0.073750
0.431250 0.490000 0.073750
0.503125 0.490000 0.073750
0.575000 0.490000 0.073750
0.646875 0.490000 0.073750
0.718750 0.490000 0.073750
0.790625 0.490000 0.073750
0.862500 0.490000 0.073750
0.934375 0.490000 0.073750
1.006250 0.490000 0.073750
1.078125 0.490000 0.073750
1.150000 0.490000 0.073750
0.000000 0.560000 0.073750
0.071875 0.560000 0.073750
0.143750 0.560000 0.073750
0.215625 0.560000 0.073750
0.287500 0.560000 0.073750
0.359375 0.560000 0.073750
0.431250 0.560000 0.073750
0.503125 0.560000 0.073750
0.575000 0.560000 0.073750
0.646875 0.560000 0.073750
0.718750 0.560000 0.073750
0.790625 0.560000 0.073750
0.862500 0.560000 0.073750
0.934375 0.560000 0.073750
1.006250 0.560000 0.073750
1.078125 0.560000 0.073750
1.150000 0.560000 0.073750
0.000000 0.630000 0.073750
0.071875 0.630000 0.073750
0.143750 0.630000 0.073750
0.215625 0.630000 0.073750
0.287500 0.630000 0.073750
0.359375 0.630000 0.073750
0.431250 0.630000 0.073750
0.503125 0.630000 0.073750
0.575000 0.630000 0.073750
0.646875 0.630000 0.073750
0.718750 0.630000 0.073750
0.790625 0.630000 0.073750
0.862500 0.630000 0.073750
0.934375 0.630000 0.073750
1.006250 0.630000 0.073750
1.078125 0.630000 0.073750
1.150000 0.630000 0.073750
0.000000 0.700000 0.073750
0.071875 0.700000 0.073750
0.143750 0.700000 0.073750
0.215625 0.700000 0.073750
0.287500 0.700000 0.073750
0.359375 0.700000 0.073750
0.431250 0.700000 0.073750
0.503125 0.700000 0.073750
0.575000 0.700000 0.073750
0.646875 0.700000 0.073750
0.718750 0.700000 0.073750
0.790625 0.700000 0.073750
0.862500 0.700000 0.073750
0.934375 0.700000 0.073750
1.006250 0.700000 0.073750
1.078125 0.700000 0.073750
1.150000 0.700000 0.073750
0.000000 0.770000 0.073750
0.071875 0.770000 0.073750
0.143750 0.770000 0.073750
0.215625 0.770000 0.073750
0.287500 0.770000 0.073750
0.359375 0.770000 0.073750
0.431250 0.770000 0.073750
0.503125 0.770000 0.073750
0.575000 0.770000 0.073750
0.646875 0.770000 0.073750
0.718750 0.770000 0.073750
0.790625 0.770000 0.073750
0.862500 0.770000 0.073750
0.934375 0.770000 0.073750
1.006250 0.770000 0.073750
1.078125 0.770000 0.073750
1.150000 0.770000 0.073750
0.000000 0.840000 0.073750
0.071875 0.840000 0.073750
0.143750 0.840000 0.073750
0.215625 0.840000 0.073750
0.287500 0.840000 0.073750
0.359375 0.840000 0.073750
0.431250 0.840000 0.073750
0.503125 0.840000 0.073750
0.575000 0.840000 0.073750
0.646875 0.840000 0.073750
0.718750 0.840000 0.073750
0.790625 0.840000 0.073750
0.862500 0.840000 0.073750
0.934375 0.840000 0.073750
1.006250 0.840000 0.073750
1.078125 0.840000 0.073750
1.150000 0.840000 0.073750
0.000000 0.910000 0.073750
0.071875 0.910000 0.073750
0.143750 0.910000 0.073750
0.215625 0.910000 0.073750
0.287500 0.910000 0.073750
0.359375 0.910000 0.073750
0.431250 0.910000 0.073750
0.503125 0.910000 0.073750
0.575000 0.910000 0.073750
0.646875 0.910000 0.073750
0.718750 0.910000 0.073750
0.790625 0.910000 0.073750
0.862500 0.910000 0.073750
0.934375 0.910000 0.073750
1.006250 0.910000 0.073750
1.078125 0.910000 0.073750
1.150000 0.910000 0.073750
0.000000 0.980000 0.073750
0.071875 0.980000 0.073750
0.143750 0.980000 0.073750
0.215625 0.980000 0.073750
0.287500 0.980000 0.073750
0.359375 0.980000 0.073750
0.431250 0.980000 0.073750
0.503125 0.980000 0.073750
0.575000 0.980000 0.073750
0.646875 0.980000 0.073750
0.718750 0.980000 0.073750
0.790625 0.980000 0.073750
0.862500 0.980000 0.073750
0.934375 0.980000 0.073750
1.006250 0.980000 0.073750
1.078125 0.980000 0.073750
1.150000 0.980000 0.073750
0.000000 1.050000 0.073750
0.071875 1.050000 0.073750
0.143750 1.050000 0.073750
0.215625 1.050000 0.073750
0.287500 1.050000 0.073750
0.359375 1.050000 0.073750
0.431250 1.050000 0.073750
0.503125 1.050000 0.073750
0.575000 1.050000 0.073750
0.646875 1.050000 0.073750
0.718750 1.050000 0.073750
0.790625 1.050000 0.073750
0.862500 1.050000 0.073750
0.934375 1.050000 0.073750
1.006250 1.050000 0.073750
1.078125 1.050000 0.073750
1.150000 1.050000 0.073750
0.000000 1.120000 0.073750
0.071875 1.120000 0.073750
0.143750 1.120000 0.073750
0.215625 1.120000 0.073750
0.287500 1.120000 0.073750
0.359375 1.120000 0.073750
0.431250 1.120000 0.073750
0.503125 1.120000 0.073750
0.575000 1.120000 0.073750
0.646875 1.120000 0.073750
0.718750 1.120000 0.073750
0.790625 1.120000 0.073750
0.862500 1.120000 0.073750
0.934375 1.120000 0.073750
1.006250 1.120000 0.073750
1.078125 1.120000 0.073750
1.150000 1.120000 0.073750
0.000000 0.000000 0.147500
0.071875 0.000000 0.147500
0.143750 0.000000 0.147500
0.215625 0.000000 0.147500
0.287500 0.000000 0.147500
0.359375 0.000000 0.147500
0.431250 0.000000 0.147500
0.503125 0.000000 0.147500
0.575000 0.000000 0.147500
0.646875 0.000000 0.147500
0.718750 0.000000 0.147500
0.790625 0.000000 0.147500
0.862500 0.000000 0.147500
0.934375 0.000000 0.147500
1.006250 0.000000 0.147500
1.078125 0.000000 0.147500
1.150000 0.000000 0.147500
0.000000 0.070000 0.147500
0.071875 0.070000 0.147500
0.143750 0.070000 0.147500
0.215625 0.070000 0.147500
0.287500 0.070000 0.147500
0.359375 0.070000 0.147500
0.431250 0.070000 0.147500
0.503125 0.070000 0.147500
0.575000 0.070000 0.147500
0.646875 0.070000 0.147500
0.718750 0.070000 0.147500
0.790625 0.070000 0.147500
0.862500 0.070000 0.147500
0.934375 0.070000 0.147500
1.006250 0.070000 0.147500
1.078125 0.070000 0.147500
1.150000 0.070000 0.147500
0.000000 0.140000 0.147500
0.071875 0.140000 0.147500
0.143750 0.140000 0.147500
0.215625 0.140000 0.147500
0.287500 0.140000 0.147500
0.359375 0.140000 0.147500
0.431250 0.140000 0.147500
0.503125 0.140000 0.147500
0.575000 0.140000 0.147500
0.646875 0.140000 0.147500
0.718750 0.140000 0.147500
0.790625 0.140000 0.147500
0.862500 0.140000 0.147500
0.934375 0.140000 0.147500
1.006250 0.140000 0.147500
1.078125 0.140000 0.147500
1.150000 0.140000 0.147500
0.000000 0.210000 0.147500
0.071875 0.210000 0.147500
0.143750 0.210000 0.147500
0.215625 0.210000 0.147500
0.287500 0.210000 0.147500
0.359375 0.210000 0.147500
0.431250 0.210000 0.147500
0.503125 0.210000 0.147500
0.575000 0.210000 0.147500
0.646875 0.210000 0.147500
0.718750 0.210000 0.147500
0.790625 0.210000 0.147500
0.862500 0.210000 0.147500
0.934375 0.210000 0.147500
1.006250 0.210000 0.147500
1.078125 0.210000 0.147500
1.150000 0.210000 0.147500
0.000000 0.280000 0.147500
0.071875 0.280000 0.147500
0.143750 0.280000 0.147500
0.215625 0.280000 0.147500
0.287500 0.280000 0.147500
0.359375 0.280000 0.147500
0.431250 0.280000 0.147500
0.503125 0.280000 0.147500
0.575000 0.280000 0.147500
0.646875 0.280000 0.147500
0.718750 0.280000 0.147500
0.790625 0.280000 0.147500
0.862500 0.280000 0.147500
0.934375 0.280000 0.147500
1.006250 0.280000 0.147500
1.078125 0.280000 0.147500
1.150000 0.280000 0.147500
0.000000 0.350000 0.147500
0.071875 0.350000 0.147500
0.143750 0.350000 0.147500
0.215625 0.350000 0.147500
0.287500 0.350000 0.147500
0.359375 0.350000 0.147500
0.431250 0.350000 0.147500
0.503125 0.350000 0.147500
0.575000 0.350000 0.147500
0.646875 0.350000 0.147500
0.718750 0.350000 0.147500
0.790625 0.350000 0.147500
0.862500 0.350000 0.147500
0.934375 0.350000 0.147500
1.006250 0.350000 0.147500
1.078125 0.350000 0.147500
1.150000 0.350000 0.147500
0.000000 0.420000 0.147500
0.071875 0.420000 0.147500
0.143750 0.420000 0.147500
0.215625 0.420000 0.147500
0.287500 0.420000 0.147500
0.359375 0.420000 0.147500
0.431250 0.420000 0.147500
0.503125 0.420000 0.147500
0.575000 0.420000 0.147500
0.646875 0.420000 0.147500
0.718750 0.420000 0.147500
0.790625 0.420000 0.147500
0.862500 0.420000 0.147500
0.934375 0.420000 0.147500
1.006250 0.420000 0.147500
1.078125 0.420000 0.147500
1.150000 0.420000 0.147500
0.000000 0.490000 0.147500
0.071875 0.490000 0.147500
0.143750 0.490000 0.147500
0.215625 0.490000 0.147500
0.287500 0.490000 0.147500
0.359375 0.490000 0.147500
0.431250 0.490000 0.147500
0.503125 0.490000 0.147500
0.575000 0.490000 0.147500
0.646875 0.490000 0.147500
0.718750 0.490000 0.147500
0.790625 0.490000 0.147500
0.862500 0.490000 0.147500
0.934375 0.490000 0.147500
1.006250 0.490000 0.147500
1.078125 0.490000 0.147500
1.150000 0.490000 0.147500
0.000000 0.560000 0.147500
0.071875 0.560000 0.147500
0.143750 0.560000 0.147500
0.215625 0.560000 0.147500
0.287500 0.560000 0.147500
0.359375 0.560000 0.147500
0.431250 0.560000 0.147500
0.503125 0.560000 0.147500
0.575000 0.560000 0.147500
0.646875 0.560000 0.147500
0.718750 0.560000 0.147500
0.790625 0.560000 0.147500
0.862500 0.560000 0.147500
0.934375 0.560000 0.147500
1.006250 0.560000 0.147500
1.078125 0.560000 0.147500
1.150000 0.560000 0.147500
0.000000 0.630000 0.147500
0.071875 0.630000 0.147500
0.143750 0.630000 0.147500
0.215625 0.630000 0.147500
0.287500 0.630000 0.147500
0.359375 0.630000 0.147500
0.431250 0.630000 0.147500
0.503125 0.630000 0.147500
0.575000 0.630000 0.147500
0.646875 0.630000 0.147500
0.718750 0.630000 0.147500
0.790625 0.630000 0.147500
0.862500 0.630000 0.147500
0.934375 0.630000 0.147500
1.006250 0.630000 0.147500
1.078125 0.630000 0.147500
1.150000 0.630000 0.147500
0.000000 0.700000 0.147500
0.071875 0.700000 0.147500
0.143750 0.700000 0.147500
0.215625 0.700000 0.147500
0.287500 0.700000 0.147500
0.359375 0.700000 0.147500
0.431250 0.700000 0.147500
0.503125 0.700000 0.147500
0.575000 0.700000 0.147500
0.646875 0.700000 0.147500
0.718750 0.700000 0.147500
0.790625 0.700000 0.147500
0.862500 0.700000 0.147500
0.934375 0.700000 0.147500
1.006250 0.700000 0.147500
1.078125 0.700000 0.147500
1.150000 0.700000 0.147500
0.000000 0.770000 0.147500
0.071875 0.770000 0.147500
0.143750 0.770000 0.147500
0.215625 0.770000 0.147500
0.287500 0.770000 0.147500
0.359375 0.770000 0.147500
0.431250 0.770000 0.147500
0.503125 0.770000 0.147500
0.575000 0.770000 0.147500
0.646875 0.770000 0.147500
0.718750 0.770000 0.147500
0.790625 0.770000 0.147500
0.862500 0.770000 0.147500
0.934375 0.770000 0.147500
1.006250 0.770000 0.147500
1.078125 0.770000 0.147500
1.150000 0.770000 0.147500
0.000000 0.840000 0.147500
0.071875 0.840000 0.147500
0.143750 0.840000 0.147500
0.215625 0.840000 0.147500
0.287500 0.840000 0.147500
0.359375 0.840000 0.147500
0.431250 0.840000 0.147500
0.503125 0.840000 0.147500
0.575000 0.840000 0.147500
0.646875 0.840000 0.147500
0.718750 0.840000 0.147500
0.790625 0.840000 0.147500
0.862500 0.840000 0.147500
0.934375 0.840000 0.147500
1.006250 0.840000 0.147500
1.078125 0.840000 0.147500
1.150000 0.840000 0.147500
0.000000 0.910000 0.147500
0.071875 0.910000 0.147500
0.143750 0.910000 0.147500
0.215625 0.910000 0.147500
0.287500 0.910000 0.147500
0.359375 0.910000 0.147500
0.431250 0.910000 0.147500
0.503125 0.910000 0.147500
0.575000 0.910000 0.147500
0.646875 0.910000 0.147500
0.718750 0.910000 0.147500
0.790625 0.910000 0.147500
0.862500 0.910000 0.147500
0.934375 0.910000 0.147500
1.006250 0.910000 0.147500
1.078125 0.910000 0.147500
1.150000 0.910000 0.147500
0.000000 0.980000 0.147500
0.071875 0.980000 0.147500
0.143750 0.980000 0.147500
0.215625 0.980000 0.147500
0.287500 0.980000 0.147500
0.359375 0.980000 0.147500
0.431250 0.980000 0.147500
0.503125 0.980000 0.147500
0.575000 0.980000 0.147500
0.646875 0.980000 0.147500
0.718750 0.980000 0.147500
0.790625 0.980000 0.147500
0.862500 0.980000 0.147500
0.934375 0.980000 0.147500
1.006250 0.980000 0.147500
1.078125 0.980000 0.147500
1.150000 0.980000 0.147500
0.000000 1.050000 0.147500
0.071875 1.050000 0.147500
0.143750 1.050000 0.147500
0.215625 1.050000 0.147500
0.287500 1.050000 0.147500
0.359375 1.050000 0.147500
0.431250 1.050000 0.147500
0.503125 1.050000 0.147500
0.575000 1.050000 0.147500
0.646875 1.050000 0.147500
0.718750 1.050000 0.147500
0.790625 1.050000 0.147500
0.862500 1.050000 0.147500
0.934375 1.050000 0.147500
1.006250 1.050000 0.147500
1.078125 1.050000 0.147500
1.150000 1.050000 0.147500
0.000000 1.120000 0.147500
0.071875 1.120000 0.147500
0.143750 1.120000 0.147500
0.215625 1.120000 0.147500
0.287500 1.120000 0.147500
0.359375 1.120000 0.147500
0.431250 1.120000 0.147500
0.503125 1.120000 0.147500
0.575000 1.120000 0.147500
0.646875 1.120000 0.147500
0.718750 1.120000 0.147500
0.790625 1.120000 0.147500
0.862500 1.120000 0.147500
0.934375 1.120000 0.147500
1.006250 1.120000 0.147500
1.078125 1.120000 0.147500
1.150000 1.120000 0.147500
0.000000 0.000000 0.221250
0.071875 0.000000 0.221250
0.143750 0.000000 0.221250
0.215625 0.000000 0.221250
0.287500 0.000000 0.221250
0.359375 0.000000 0.221250
0.431250 0.000000 0.221250
0.503125 0.000000 0.221250
0.575000 0.000000 0.221250
0.646875 0.000000 0.221250
0.718750 0.000000 0.221250
0.790625 0.000000 0.221250
0.862500 0.000000 0.221250
0.934375 0.000000 0.221250
1.006250 0.000000 0.221250
1.078125 0.000000 0.221250
1.150000 0.000000 0.221250
0.000000 0.070000 0.221250
