assets/luts/vibrant_pop.cube
TITLE "Vibrant Pop"
LUT_3D_SIZE 5
DOMAIN_MIN 0.0 0.0 0.0
DOMAIN_MAX 1.0 1.0 1.0
0.000000 0.000000 0.000000
0.287500 0.000000 0.000000
0.575000 0.000000 0.000000
0.862500 0.000000 0.000000
1.150000 0.000000 0.000000
0.000000 0.280000 0.000000
0.287500 0.280000 0.000000
0.575000 0.280000 0.000000
0.862500 0.280000 0.000000
1.150000 0.280000 0.000000
0.000000 0.560000 0.000000
0.287500 0.560000 0.000000
0.575000 0.560000 0.000000
0.862500 0.560000 0.000000
1.150000 0.560000 0.000000
0.000000 0.840000 0.000000
0.287500 0.840000 0.000000
0.575000 0.840000 0.000000
0.862500 0.840000 0.000000
1.150000 0.840000 0.000000
0.000000 1.120000 0.000000
0.287500 1.120000 0.000000
0.575000 1.120000 0.000000
0.862500 1.120000 0.000000
1.150000 1.120000 0.000000
0.000000 0.000000 0.295000
0.287500 0.000000 0.295000
0.575000 0.000000 0.295000
0.862500 0.000000 0.295000
1.150000 0.000000 0.295000
0.000000 0.280000 0.295000
0.287500 0.280000 0.295000
0.575000 0.280000 0.295000
0.862500 0.280000 0.295000
1.150000 0.280000 0.295000
0.000000 0.560000 0.295000
0.287500 0.560000 0.295000
0.575000 0.560000 0.295000
0.862500 0.560000 0.295000
1.150000 0.560000 0.295000
0.000000 0.840000 0.295000
0.287500 0.840000 0.295000
0.575000 0.840000 0.295000
0.862500 0.840000 0.295000
1.150000 0.840000 0.295000
0.000000 1.120000 0.295000
0.287500 1.120000 0.295000
0.575000 1.120000 0.295000
0.862500 1.120000 0.295000
1.150000 1.120000 0.295000
0.000000 0.000000 0.590000
0.287500 0.000000 0.590000
0.575000 0.000000 0.590000
0.862500 0.000000 0.590000
1.150000 0.000000 0.590000
0.000000 0.280000 0.590000
0.287500 0.280000 0.590000
0.575000 0.280000 0.590000
0.862500 0.280000 0.590000
1.150000 0.280000 0.590000
0.000000 0.560000 0.590000
0.287500 0.560000 0.590000
0.575000 0.560000 0.590000
0.862500 0.560000 0.590000
1.150000 0.560000 0.590000
0.000000 0.840000 0.590000
0.287500 0.840000 0.590000
0.575000 0.840000 0.590000
0.862500 0.840000 0.590000
1.150000 0.840000 0.590000
0.000000 1.120000 0.590000
0.287500 1.120000 0.590000
0.575000 1.120000 0.590000
0.862500 1.120000 0.590000
1.150000 1.120000 0.590000
0.000000 0.000000 0.885000
0.287500 0.000000 0.885000
0.575000 0.000000 0.885000
0.862500 0.000000 0.885000
1.150000 0.000000 0.885000
0.000000 0.280000 0.885000
0.287500 0.280000 0.885000
0.575000 0.280000 0.885000
0.862500 0.280000 0.885000
1.150000 0.280000 0.885000
0.000000 0.560000 0.885000
0.287500 0.560000 0.885000
0.575000 0.560000 0.885000
0.862500 0.560000 0.885000
1.150000 0.560000 0.885000
0.000000 0.840000 0.885000
0.287500 0.840000 0.885000
0.575000 0.840000 0.885000
0.862500 0.840000 0.885000
1.150000 0.840000 0.885000
0.000000 1.120000 0.885000
0.287500 1.120000 0.885000
0.575000 1.120000 0.885000
0.862500 1.120000 0.885000
1.150000 1.120000 0.885000
0.000000 0.000000 1.180000
0.287500 0.000000 1.180000
0.575000 0.000000 1.180000
0.862500 0.000000 1.180000
1.150000 0.000000 1.180000
0.000000 0.280000 1.180000
0.287500 0.280000 1.180000
0.575000 0.280000 1.180000
0.862500 0.280000 1.180000
1.150000 0.280000 1.180000
0.000000 0.560000 1.180000
0.287500 0.560000 1.180000
0.575000 0.560000 1.180000
0.862500 0.560000 1.180000
1.150000 0.560000 1.180000
0.000000 0.840000 1.180000
0.287500 0.840000 1.180000
0.575000 0.840000 1.180000
0.862500 0.840000 1.180000
1.150000 0.840000 1.180000
0.000000 1.120000 1.180000
0.287500 1.120000 1.180000
0.575000 1.120000 1.180000
0.862500 1.120000 1.180000
1.150000 1.120000 1.180000
