assets/luts/warm_golden.cube
TITLE "Warm Golden"
LUT_3D_SIZE 9
DOMAIN_MIN 0.0 0.0 0.0
DOMAIN_MAX 1.0 1.0 1.0
0.000000 0.000000 0.000000
0.140000 0.000000 0.000000
0.280000 0.000000 0.000000
0.420000 0.000000 0.000000
0.560000 0.000000 0.000000
0.700000 0.000000 0.000000
0.840000 0.000000 0.000000
0.980000 0.000000 0.000000
1.120000 0.000000 0.000000
0.000000 0.127500 0.000000
0.140000 0.127500 0.000000
0.280000 0.127500 0.000000
0.420000 0.127500 0.000000
0.560000 0.127500 0.000000
0.700000 0.127500 0.000000
0.840000 0.127500 0.000000
0.980000 0.127500 0.000000
1.120000 0.127500 0.000000
0.000000 0.255000 0.000000
0.140000 0.255000 0.000000
0.280000 0.255000 0.000000
0.420000 0.255000 0.000000
0.560000 0.255000 0.000000
0.700000 0.255000 0.000000
0.840000 0.255000 0.000000
0.980000 0.255000 0.000000
1.120000 0.255000 0.000000
0.000000 0.382500 0.000000
0.140000 0.382500 0.000000
0.280000 0.382500 0.000000
0.420000 0.382500 0.000000
0.560000 0.382500 0.000000
0.700000 0.382500 0.000000
0.840000 0.382500 0.000000
0.980000 0.382500 0.000000
1.120000 0.382500 0.000000
0.000000 0.510000 0.000000
0.140000 0.510000 0.000000
0.280000 0.510000 0.000000
0.420000 0.510000 0.000000
0.560000 0.510000 0.000000
0.700000 0.510000 0.000000
0.840000 0.510000 0.000000
0.980000 0.510000 0.000000
1.120000 0.510000 0.000000
0.000000 0.637500 0.000000
0.140000 0.637500 0.000000
0.280000 0.637500 0.000000
0.420000 0.637500 0.000000
0.560000 0.637500 0.000000
0.700000 0.637500 0.000000
0.840000 0.637500 0.000000
0.980000 0.637500 0.000000
1.120000 0.637500 0.000000
0.000000 0.765000 0.000000
0.140000 0.765000 0.000000
0.280000 0.765000 0.000000
0.420000 0.765000 0.000000
0.560000 0.765000 0.000000
0.700000 0.765000 0.000000
0.840000 0.765000 0.000000
0.980000 0.765000 0.000000
1.120000 0.765000 0.000000
0.000000 0.892500 0.000000
0.140000 0.892500 0.000000
0.280000 0.892500 0.000000
0.420000 0.892500 0.000000
0.560000 0.892500 0.000000
0.700000 0.892500 0.000000
0.840000 0.892500 0.000000
0.980000 0.892500 0.000000
1.120000 0.892500 0.000000
0.000000 1.020000 0.000000
0.140000 1.020000 0.000000
0.280000 1.020000 0.000000
0.420000 1.020000 0.000000
0.560000 1.020000 0.000000
0.700000 1.020000 0.000000
0.840000 1.020000 0.000000
0.980000 1.020000 0.000000
1.120000 1.020000 0.000000
0.000000 0.000000 0.102500
0.140000 0.000000 0.102500
0.280000 0.000000 0.102500
0.420000 0.000000 0.102500
0.560000 0.000000 0.102500
0.700000 0.000000 0.102500
0.840000 0.000000 0.102500
0.980000 0.000000 0.102500
1.120000 0.000000 0.102500
0.000000 0.127500 0.102500
0.140000 0.127500 0.102500
0.280000 0.127500 0.102500
0.420000 0.127500 0.102500
0.560000 0.127500 0.102500
0.700000 0.127500 0.102500
0.840000 0.127500 0.102500
0.980000 0.127500 0.102500
1.120000 0.127500 0.102500
0.000000 0.255000 0.102500
0.140000 0.255000 0.102500
0.280000 0.255000 0.102500
0.420000 0.255000 0.102500
0.560000 0.255000 0.102500
0.700000 0.255000 0.102500
0.840000 0.255000 0.102500
0.980000 0.255000 0.102500
1.120000 0.255000 0.102500
0.000000 0.382500 0.102500
0.140000 0.382500 0.102500
0.280000 0.382500 0.102500
0.420000 0.382500 0.102500
0.560000 0.382500 0.102500
0.700000 0.382500 0.102500
0.840000 0.382500 0.102500
0.980000 0.382500 0.102500
1.120000 0.382500 0.102500
0.000000 0.510000 0.102500
0.140000 0.510000 0.102500
0.280000 0.510000 0.102500
0.420000 0.510000 0.102500
0.560000 0.510000 0.102500
0.700000 0.510000 0.102500
0.840000 0.510000 0.102500
0.980000 0.510000 0.102500
1.120000 0.510000 0.102500
0.000000 0.637500 0.102500
0.140000 0.637500 0.102500
0.280000 0.637500 0.102500
0.420000 0.637500 0.102500
0.560000 0.637500 0.102500
0.700000 0.637500 0.102500
0.840000 0.637500 0.102500
0.980000 0.637500 0.102500
1.120000 0.637500 0.102500
0.000000 0.765000 0.102500
0.140000 0.765000 0.102500
0.280000 0.765000 0.102500
0.420000 0.765000 0.102500
0.560000 0.765000 0.102500
0.700000 0.765000 0.102500
0.840000 0.765000 0.102500
0.980000 0.765000 0.102500
1.120000 0.765000 0.102500
0.000000 0.892500 0.102500
0.140000 0.892500 0.102500
0.280000 0.892500 0.102500
0.420000 0.892500 0.102500
0.560000 0.892500 0.102500
0.700000 0.892500 0.102500
0.840000 0.892500 0.102500
0.980000 0.892500 0.102500
1.120000 0.892500 0.102500
0.000000 1.020000 0.102500
0.140000 1.020000 0.102500
0.280000 1.020000 0.102500
0.420000 1.020000 0.102500
0.560000 1.020000 0.102500
0.700000 1.020000 0.102500
0.840000 1.020000 0.102500
0.980000 1.020000 0.102500
1.120000 1.020000 0.102500
0.000000 0.000000 0.205000
0.140000 0.000000 0.205000
0.280000 0.000000 0.205000
0.420000 0.000000 0.205000
0.560000 0.000000 0.205000
0.700000 0.000000 0.205000
0.840000 0.000000 0.205000
0.980000 0.000000 0.205000
1.120000 0.000000 0.205000
0.000000 0.127500 0.205000
0.140000 0.127500 0.205000
0.280000 0.127500 0.205000
0.420000 0.127500 0.205000
0.560000 0.127500 0.205000
0.700000 0.127500 0.205000
0.840000 0.127500 0.205000
0.980000 0.127500 0.205000
1.120000 0.127500 0.205000
0.000000 0.255000 0.205000
0.140000 0.255000 0.205000
0.280000 0.255000 0.205000
0.420000 0.255000 0.205000
0.560000 0.255000 0.205000
0.700000 0.255000 0.205000
0.840000 0.255000 0.205000
0.980000 0.255000 0.205000
1.120000 0.255000 0.205000
0.000000 0.382500 0.205000
0.140000 0.382500 0.205000
0.280000 0.382500 0.205000
0.420000 0.382500 0.205000
0.560000 0.382500 0.205000
0.700000 0.382500 0.205000
0.840000 0.382500 0.205000
0.980000 0.382500 0.205000
1.120000 0.382500 0.205000
0.000000 0.510000 0.205000
0.140000 0.510000 0.205000
0.280000 0.510000 0.205000
0.420000 0.510000 0.205000
0.560000 0.510000 0.205000
0.700000 0.510000 0.205000
0.840000 0.510000 0.205000
0.980000 0.510000 0.205000
1.120000 0.510000 0.205000
0.000000 0.637500 0.205000
0.140000 0.637500 0.205000
0.280000 0.637500 0.205000
0.420000 0.637500 0.205000
0.560000 0.637500 0.205000
0.700000 0.637500 0.205000
0.840000 0.637500 0.205000
0.980000 0.637500 0.205000
1.120000 0.637500 0.205000
0.000000 0.765000 0.205000
0.140000 0.765000 0.205000
0.280000 0.765000 0.205000
0.420000 0.765000 0.205000
0.560000 0.765000 0.205000
0.700000 0.765000 0.205000
0.840000 0.765000 0.205000
0.980000 0.765000 0.205000
1.120000 0.765000 0.205000
0.000000 0.892500 0.205000
0.140000 0.892500 0.205000
0.280000 0.892500 0.205000
0.420000 0.892500 0.205000
0.560000 0.892500 0.205000
0.700000 0.892500 0.205000
0.840000 0.892500 0.205000
0.980000 0.892500 0.205000
1.120000 0.892500 0.205000
0.000000 1.020000 0.205000
0.140000 1.020000 0.205000
0.280000 1.020000 0.205000
0.420000 1.020000 0.205000
0.560000 1.020000 0.205000
0.700000 1.020000 0.205000
0.840000 1.020000 0.205000
0.980000 1.020000 0.205000
1.120000 1.020000 0.205000
0.000000 0.000000 0.307500
0.140000 0.000000 0.307500
0.280000 0.000000 0.307500
0.420000 0.000000 0.307500
0.560000 0.000000 0.307500
0.700000 0.000000 0.307500
0.840000 0.000000 0.307500
0.980000 0.000000 0.307500
1.120000 0.000000 0.307500
0.000000 0.127500 0.307500
0.140000 0.127500 0.307500
0.280000 0.127500 0.307500
0.420000 0.127500 0.307500
0.560000 0.127500 0.307500
0.700000 0.127500 0.307500
0.840000 0.127500 0.307500
0.980000 0.127500 0.307500
1.120000 0.127500 0.307500
0.000000 0.255000 0.307500
0.140000 0.255000 0.307500
0.280000 0.255000 0.307500
0.420000 0.255000 0.307500
0.560000 0.255000 0.307500
0.700000 0.255000 0.307500
0.840000 0.255000 0.307500
0.980000 0.255000 0.307500
1.120000 0.255000 0.307500
0.000000 0.382500 0.307500
0.140000 0.382500 0.307500
0.280000 0.382500 0.307500
0.420000 0.382500 0.307500
0.560000 0.382500 0.307500
0.700000 0.382500 0.307500
0.840000 0.382500 0.307500
0.980000 0.382500 0.307500
1.120000 0.382500 0.307500
0.000000 0.510000 0.307500
0.140000 0.510000 0.307500
0.280000 0.510000 0.307500
0.420000 0.510000 0.307500
0.560000 0.510000 0.307500
0.700000 0.510000 0.307500
0.840000 0.510000 0.307500
0.980000 0.510000 0.307500
1.120000 0.510000 0.307500
0.000000 0.637500 0.307500
0.140000 0.637500 0.307500
0.280000 0.637500 0.307500
0.420000 0.637500 0.307500
0.560000 0.637500 0.307500
0.700000 0.637500 0.307500
0.840000 0.637500 0.307500
0.980000 0.637500 0.307500
1.120000 0.637500 0.307500
0.000000 0.765000 0.307500
0.140000 0.765000 0.307500
0.280000 0.765000 0.307500
0.420000 0.765000 0.307500
0.560000 0.765000 0.307500
0.700000 0.765000 0.307500
0.840000 0.765000 0.307500
0.980000 0.765000 0.307500
1.120000 0.765000 0.307500
0.000000 0.892500 0.307500
0.140000 0.892500 0.307500
0.280000 0.892500 0.307500
0.420000 0.892500 0.307500
0.560000 0.892500 0.307500
0.700000 0.892500 0.307500
0.840000 0.892500 0.307500
0.980000 0.892500 0.307500
1.120000 0.892500 0.307500
0.000000 1.020000 0.307500
0.140000 1.020000 0.307500
0.280000 1.020000 0.307500
0.420000 1.020000 0.307500
0.560000 1.020000 0.307500
0.700000 1.020000 0.307500
0.840000 1.020000 0.307500
0.980000 1.020000 0.307500
1.120000 1.020000 0.307500
0.000000 0.000000 0.410000
0.140000 0.000000 0.410000
0.280000 0.000000 0.410000
0.420000 0.000000 0.410000
0.560000 0.000000 0.410000
0.700000 0.000000 0.410000
0.840000 0.000000 0.410000
0.980000 0.000000 0.410000
1.120000 0.000000 0.410000
0.000000 0.127500 0.410000
0.140000 0.127500 0.410000
0.280000 0.127500 0.410000
0.420000 0.127500 0.410000
0.560000 0.127500 0.410000
0.700000 0.127500 0.410000
0.840000 0.127500 0.410000
0.980000 0.127500 0.410000
1.120000 0.127500 0.410000
0.000000 0.255000 0.410000
0.140000 0.255000 0.410000
0.280000 0.255000 0.410000
0.420000 0.255000 0.410000
0.560000 0.255000 0.410000
0.700000 0.255000 0.410000
0.840000 0.255000 0.410000
0.980000 0.255000 0.410000
1.120000 0.255000 0.410000
0.000000 0.382500 0.410000
0.140000 0.382500 0.410000
0.280000 0.382500 0.410000
0.420000 0.382500 0.410000
0.560000 0.382500 0.410000
0.700000 0.382500 0.410000
0.840000 0.382500 0.410000
0.980000 0.382500 0.410000
1.120000 0.382500 0.410000
0.000000 0.510000 0.410000
0.140000 0.510000 0.410000
0.280000 0.510000 0.410000
0.420000 0.510000 0.410000
0.560000 0.510000 0.410000
0.700000 0.510000 0.410000
0.840000 0.510000 0.410000
0.980000 0.510000 0.410000
1.120000 0.510000 0.410000
0.000000 0.637500 0.410000
0.140000 0.637500 0.410000
0.280000 0.637500 0.410000
0.420000 0.637500 0.410000
0.560000 0.637500 0.410000
0.700000 0.637500 0.410000
0.840000 0.637500 0.410000
0.980000 0.637500 0.410000
1.120000 0.637500 0.410000
0.000000 0.765000 0.410000
0.140000 0.765000 0.410000
0.280000 0.765000 0.410000
0.420000 0.765000 0.410000
0.560000 0.765000 0.410000
0.700000 0.765000 0.410000
0.840000 0.765000 0.410000
0.980000 0.765000 0.410000
1.120000 0.765000 0.410000
0.000000 0.892500 0.410000
0.140000 0.892500 0.410000
0.280000 0.892500 0.410000
0.420000 0.892500 0.410000
0.560000 0.892500 0.410000
0.700000 0.892500 0.410000
0.840000 0.892500 0.410000
0.980000 0.892500 0.410000
1.120000 0.892500 0.410000
0.000000 1.020000 0.410000
0.140000 1.020000 0.410000
0.280000 1.020000 0.410000
0.420000 1.020000 0.410000
0.560000 1.020000 0.410000
0.700000 1.020000 0.410000
0.840000 1.020000 0.410000
0.980000 1.020000 0.410000
1.120000 1.020000 0.410000
0.000000 0.000000 0.512500
0.140000 0.000000 0.512500
0.280000 0.000000 0.512500
0.420000 0.000000 0.512500
0.560000 0.000000 0.512500
0.700000 0.000000 0.512500
0.840000 0.000000 0.512500
0.980000 0.000000 0.512500
1.120000 0.000000 0.512500
0.000000 0.127500 0.512500
0.140000 0.127500 0.512500
0.280000 0.127500 0.512500
0.420000 0.127500 0.512500
0.560000 0.127500 0.512500
0.700000 0.127500 0.512500
0.840000 0.127500 0.512500
0.980000 0.127500 0.512500
1.120000 0.127500 0.512500
0.000000 0.255000 0.512500
0.140000 0.255000 0.512500
0.280000 0.255000 0.512500
0.420000 0.255000 0.512500
0.560000 0.255000 0.512500
0.700000 0.255000 0.512500
0.840000 0.255000 0.512500
0.980000 0.255000 0.512500
1.120000 0.255000 0.512500
0.000000 0.382500 0.512500
0.140000 0.382500 0.512500
0.280000 0.382500 0.512500
0.420000 0.382500 0.512500
0.560000 0.382500 0.512500
0.700000 0.382500 0.512500
0.840000 0.382500 0.512500
0.980000 0.382500 0.512500
1.120000 0.382500 0.512500
0.000000 0.510000 0.512500
0.140000 0.510000 0.512500
0.280000 0.510000 0.512500
0.420000 0.510000 0.512500
0.560000 0.510000 0.512500
0.700000 0.510000 0.512500
0.840000 0.510000 0.512500
0.980000 0.510000 0.512500
1.120000 0.510000 0.512500
0.000000 0.637500 0.512500
0.140000 0.637500 0.512500
0.280000 0.637500 0.512500
0.420000 0.637500 0.512500
0.560000 0.637500 0.512500
0.700000 0.637500 0.512500
0.840000 0.637500 0.512500
0.980000 0.637500 0.512500
1.120000 0.637500 0.512500
0.000000 0.765000 0.512500
0.140000 0.765000 0.512500
0.280000 0.765000 0.512500
0.420000 0.765000 0.512500
0.560000 0.765000 0.512500
0.700000 0.765000 0.512500
0.840000 0.765000 0.512500
0.980000 0.765000 0.512500
1.120000 0.765000 0.512500
0.000000 0.892500 0.512500
0.140000 0.892500 0.512500
0.280000 0.892500 0.512500
0.420000 0.892500 0.512500
0.560000 0.892500 0.512500
0.700000 0.892500 0.512500
0.840000 0.892500 0.512500
0.980000 0.892500 0.512500
1.120000 0.892500 0.512500
0.000000 1.020000 0.512500
0.140000 1.020000 0.512500
0.280000 1.020000 0.512500
0.420000 1.020000 0.512500
0.560000 1.020000 0.512500
0.700000 1.020000 0.512500
0.840000 1.020000 0.512500
0.980000 1.020000 0.512500
1.120000 1.020000 0.512500
0.000000 0.000000 0.615000
0.140000 0.000000 0.615000
0.280000 0.000000 0.615000
0.420000 0.000000 0.615000
0.560000 0.000000 0.615000
0.700000 0.000000 0.615000
0.840000 0.000000 0.615000
0.980000 0.000000 0.615000
1.120000 0.000000 0.615000
0.000000 0.127500 0.615000
0.140000 0.127500 0.615000
0.280000 0.127500 0.615000
0.420000 0.127500 0.615000
0.560000 0.127500 0.615000
0.700000 0.127500 0.615000
0.840000 0.127500 0.615000
0.980000 0.127500 0.615000
1.120000 0.127500 0.615000
0.000000 0.255000 0.615000
0.140000 0.255000 0.615000
0.280000 0.255000 0.615000
0.420000 0.255000 0.615000
0.560000 0.255000 0.615000
0.700000 0.255000 0.615000
0.840000 0.255000 0.615000
0.980000 0.255000 0.615000
1.120000 0.255000 0.615000
0.000000 0.382500 0.615000
0.140000 0.382500 0.615000
0.280000 0.382500 0.615000
0.420000 0.382500 0.615000
0.560000 0.382500 0.615000
0.700000 0.382500 0.615000
0.840000 0.382500 0.615000
0.980000 0.382500 0.615000
1.120000 0.382500 0.615000
0.000000 0.510000 0.615000
0.140000 0.510000 0.615000
0.280000 0.510000 0.615000
0.420000 0.510000 0.615000
0.560000 0.510000 0.615000
0.700000 0.510000 0.615000
0.840000 0.510000 0.615000
0.980000 0.510000 0.615000
1.120000 0.510000 0.615000
0.000000 0.637500 0.615000
0.140000 0.637500 0.615000
0.280000 0.637500 0.615000
0.420000 0.637500 0.615000
0.560000 0.637500 0.615000
0.700000 0.637500 0.615000
0.840000 0.637500 0.615000
0.980000 0.637500 0.615000
1.120000 0.637500 0.615000
0.000000 0.765000 0.615000
0.140000 0.765000 0.615000
0.280000 0.765000 0.615000
0.420000 0.765000 0.615000
0.560000 0.765000 0.615000
0.700000 0.765000 0.615000
0.840000 0.765000 0.615000
0.980000 0.765000 0.615000
1.120000 0.765000 0.615000
0.000000 0.892500 0.615000
0.140000 0.892500 0.615000
0.280000 0.892500 0.615000
0.420000 0.892500 0.615000
0.560000 0.892500 0.615000
0.700000 0.892500 0.615000
0.840000 0.892500 0.615000
0.980000 0.892500 0.615000
1.120000 0.892500 0.615000
0.000000 1.020000 0.615000
0.140000 1.020000 0.615000
0.280000 1.020000 0.615000
0.420000 1.020000 0.615000
0.560000 1.020000 0.615000
0.700000 1.020000 0.615000
0.840000 1.020000 0.615000
0.980000 1.020000 0.615000
1.120000 1.020000 0.615000
0.000000 0.000000 0.717500
0.140000 0.000000 0.717500
0.280000 0.000000 0.717500
0.420000 0.000000 0.717500
0.560000 0.000000 0.717500
0.700000 0.000000 0.717500
0.840000 0.000000 0.717500
0.980000 0.000000 0.717500
1.120000 0.000000 0.717500
0.000000 0.127500 0.717500
0.140000 0.127500 0.717500
0.280000 0.127500 0.717500
0.420000 0.127500 0.717500
0.560000 0.127500 0.717500
0.700000 0.127500 0.717500
0.840000 0.127500 0.717500
0.980000 0.127500 0.717500
1.120000 0.127500 0.717500
0.000000 0.255000 0.717500
0.140000 0.255000 0.717500
0.280000 0.255000 0.717500
0.420000 0.255000 0.717500
0.560000 0.255000 0.717500
0.700000 0.255000 0.717500
0.840000 0.255000 0.717500
0.980000 0.255000 0.717500
1.120000 0.255000 0.717500
0.000000 0.382500 0.717500
0.140000 0.382500 0.717500
0.280000 0.382500 0.717500
0.420000 0.382500 0.717500
0.560000 0.382500 0.717500
0.700000 0.382500 0.717500
0.840000 0.382500 0.717500
0.980000 0.382500 0.717500
1.120000 0.382500 0.717500
0.000000 0.510000 0.717500
0.140000 0.510000 0.717500
0.280000 0.510000 0.717500
0.420000 0.510000 0.717500
0.560000 0.510000 0.717500
0.700000 0.510000 0.717500
0.840000 0.510000 0.717500
0.980000 0.510000 0.717500
1.120000 0.510000 0.717500
0.000000 0.637500 0.717500
0.140000 0.637500 0.717500
0.280000 0.637500 0.717500
0.420000 0.637500 0.717500
0.560000 0.637500 0.717500
0.700000 0.637500 0.717500
0.840000 0.637500 0.717500
0.980000 0.637500 0.717500
1.120000 0.637500 0.717500
0.000000 0.765000 0.717500
0.140000 0.765000 0.717500
0.280000 0.765000 0.717500
0.420000 0.765000 0.717500
0.560000 0.765000 0.717500
0.700000 0.765000 0.717500
0.840000 0.765000 0.717500
0.980000 0.765000 0.717500
1.120000 0.765000 0.717500
0.000000 0.892500 0.717500
0.140000 0.892500 0.717500
0.280000 0.892500 0.717500
0.420000 0.892500 0.717500
0.560000 0.892500 0.717500
0.700000 0.892500 0.717500
0.840000 0.892500 0.717500
0.980000 0.892500 0.717500
1.120000 0.892500 0.717500
0.000000 1.020000 0.717500
0.140000 1.020000 0.717500
0.280000 1.020000 0.717500
0.420000 1.020000 0.717500
0.560000 1.020000 0.717500
0.700000 1.020000 0.717500
0.840000 1.020000 0.717500
0.980000 1.020000 0.717500
1.120000 1.020000 0.717500
0.000000 0.000000 0.820000
0.140000 0.000000 0.820000
0.280000 0.000000 0.820000
0.420000 0.000000 0.820000
0.560000 0.000000 0.820000
0.700000 0.000000 0.820000
0.840000 0.000000 0.820000
0.980000 0.000000 0.820000
1.120000 0.000000 0.820000
0.000000 0.127500 0.820000
0.140000 0.127500 0.820000
0.280000 0.127500 0.820000
0.420000 0.127500 0.820000
0.560000 0.127500 0.820000
0.700000 0.127500 0.820000
0.840000 0.127500 0.820000
0.980000 0.127500 0.820000
1.120000 0.127500 0.820000
0.000000 0.255000 0.820000
0.140000 0.255000 0.820000
0.280000 0.255000 0.820000
0.420000 0.255000 0.820000
0.560000 0.255000 0.820000
0.700000 0.255000 0.820000
0.840000 0.255000 0.820000
0.980000 0.255000 0.820000
1.120000 0.255000 0.820000
0.000000 0.382500 0.820000
0.140000 0.382500 0.820000
0.280000 0.382500 0.820000
0.420000 0.382500 0.820000
0.560000 0.382500 0.820000
0.700000 0.382500 0.820000
0.840000 0.382500 0.820000
0.980000 0.382500 0.820000
1.120000 0.382500 0.820000
0.000000 0.510000 0.820000
0.140000 0.510000 0.820000
0.280000 0.510000 0.820000
0.420000 0.510000 0.820000
0.560000 0.510000 0.820000
0.700000 0.510000 0.820000
0.840000 0.510000 0.820000
0.980000 0.510000 0.820000
1.120000 0.510000 0.820000
0.000000 0.637500 0.820000
0.140000 0.637500 0.820000
0.280000 0.637500 0.820000
0.420000 0.637500 0.820000
0.560000 0.637500 0.820000
0.700000 0.637500 0.820000
0.840000 0.637500 0.820000
0.980000 0.637500 0.820000
1.120000 0.637500 0.820000
0.000000 0.765000 0.820000
0.140000 0.765000 0.820000
0.280000 0.765000 0.820000
0.420000 0.765000 0.820000
0.560000 0.765000 0.820000
0.700000 0.765000 0.820000
0.840000 0.765000 0.820000
0.980000 0.765000 0.820000
1.120000 0.765000 0.820000
0.000000 0.892500 0.820000
0.140000 0.892500 0.820000
0.280000 0.892500 0.820000
0.420000 0.892500 0.820000
0.560000 0.892500 0.820000
0.700000 0.892500 0.820000
0.840000 0.892500 0.820000
0.980000 0.892500 0.820000
1.120000 0.892500 0.820000
0.000000 1.020000 0.820000
0.140000 1.020000 0.820000
0.280000 1.020000 0.820000
0.420000 1.020000 0.820000
0.560000 1.020000 0.820000
0.700000 1.020000 0.820000
0.840000 1.020000 0.820000
0.980000 1.020000 0.820000
1.120000 1.020000 0.820000
