assets/luts/warm_golden.cube
TITLE "Warm Golden"
LUT_3D_SIZE 5
DOMAIN_MIN 0.0 0.0 0.0
DOMAIN_MAX 1.0 1.0 1.0
0.000000 0.000000 0.000000
0.280000 0.000000 0.000000
0.560000 0.000000 0.000000
0.840000 0.000000 0.000000
1.120000 0.000000 0.000000
0.000000 0.255000 0.000000
0.280000 0.255000 0.000000
0.560000 0.255000 0.000000
0.840000 0.255000 0.000000
1.120000 0.255000 0.000000
0.000000 0.510000 0.000000
0.280000 0.510000 0.000000
0.560000 0.510000 0.000000
0.840000 0.510000 0.000000
1.120000 0.510000 0.000000
0.000000 0.765000 0.000000
0.280000 0.765000 0.000000
0.560000 0.765000 0.000000
0.840000 0.765000 0.000000
1.120000 0.765000 0.000000
0.000000 1.020000 0.000000
0.280000 1.020000 0.000000
0.560000 1.020000 0.000000
0.840000 1.020000 0.000000
1.120000 1.020000 0.000000
0.000000 0.000000 0.205000
0.280000 0.000000 0.205000
0.560000 0.000000 0.205000
0.840000 0.000000 0.205000
1.120000 0.000000 0.205000
0.000000 0.255000 0.205000
0.280000 0.255000 0.205000
0.560000 0.255000 0.205000
0.840000 0.255000 0.205000
1.120000 0.255000 0.205000
0.000000 0.510000 0.205000
0.280000 0.510000 0.205000
0.560000 0.510000 0.205000
0.840000 0.510000 0.205000
1.120000 0.510000 0.205000
0.000000 0.765000 0.205000
0.280000 0.765000 0.205000
0.560000 0.765000 0.205000
0.840000 0.765000 0.205000
1.120000 0.765000 0.205000
0.000000 1.020000 0.205000
0.280000 1.020000 0.205000
0.560000 1.020000 0.205000
0.840000 1.020000 0.205000
1.120000 1.020000 0.205000
0.000000 0.000000 0.410000
0.280000 0.000000 0.410000
0.560000 0.000000 0.410000
0.840000 0.000000 0.410000
1.120000 0.000000 0.410000
0.000000 0.255000 0.410000
0.280000 0.255000 0.410000
0.560000 0.255000 0.410000
0.840000 0.255000 0.410000
1.120000 0.255000 0.410000
0.000000 0.510000 0.410000
0.280000 0.510000 0.410000
0.560000 0.510000 0.410000
0.840000 0.510000 0.410000
1.120000 0.510000 0.410000
0.000000 0.765000 0.410000
0.280000 0.765000 0.410000
0.560000 0.765000 0.410000
0.840000 0.765000 0.410000
1.120000 0.765000 0.410000
0.000000 1.020000 0.410000
0.280000 1.020000 0.410000
0.560000 1.020000 0.410000
0.840000 1.020000 0.410000
1.120000 1.020000 0.410000
0.000000 0.000000 0.615000
0.280000 0.000000 0.615000
0.560000 0.000000 0.615000
0.840000 0.000000 0.615000
1.120000 0.000000 0.615000
0.000000 0.255000 0.615000
0.280000 0.255000 0.615000
0.560000 0.255000 0.615000
0.840000 0.255000 0.615000
1.120000 0.255000 0.615000
0.000000 0.510000 0.615000
0.280000 0.510000 0.615000
0.560000 0.510000 0.615000
0.840000 0.510000 0.615000
1.120000 0.510000 0.615000
0.000000 0.765000 0.615000
0.280000 0.765000 0.615000
0.560000 0.765000 0.615000
0.840000 0.765000 0.615000
1.120000 0.765000 0.615000
0.000000 1.020000 0.615000
0.280000 1.020000 0.615000
0.560000 1.020000 0.615000
0.840000 1.020000 0.615000
1.120000 1.020000 0.615000
0.000000 0.000000 0.820000
0.280000 0.000000 0.820000
0.560000 0.000000 0.820000
0.840000 0.000000 0.820000
1.120000 0.000000 0.820000
0.000000 0.255000 0.820000
0.280000 0.255000 0.820000
0.560000 0.255000 0.820000
0.840000 0.255000 0.820000
1.120000 0.255000 0.820000
0.000000 0.510000 0.820000
0.280000 0.510000 0.820000
0.560000 0.510000 0.820000
0.840000 0.510000 0.820000
1.120000 0.510000 0.820000
0.000000 0.765000 0.820000
0.280000 0.765000 0.820000
0.560000 0.765000 0.820000
0.840000 0.765000 0.820000
1.120000 0.765000 0.820000
0.000000 1.020000 0.820000
0.280000 1.020000 0.820000
0.560000 1.020000 0.820000
0.840000 1.020000 0.820000
1.120000 1.020000 0.820000
