assets/luts/warm_golden.cube
TITLE "Warm Golden"
LUT_3D_SIZE 17
DOMAIN_MIN 0.0 0.0 0.0
DOMAIN_MAX 1.0 1.0 1.0
0.000000 0.000000 0.000000
0.070000 0.000000 0.000000
0.140000 0.000000 0.000000
0.210000 0.000000 0.000000
0.280000 0.000000 0.000000
0.350000 0.000000 0.000000
0.420000 0.000000 0.000000
0.490000 0.000000 0.000000
0.560000 0.000000 0.000000
0.630000 0.000000 0.000000
0.700000 0.000000 0.000000
0.770000 0.000000 0.000000
0.840000 0.000000 0.000000
0.910000 0.000000 0.000000
0.980000 0.000000 0.000000
1.050000 0.000000 0.000000
1.120000 0.000000 0.000000
0.000000 0.063750 0.000000
0.070000 0.063750 0.000000
0.140000 0.063750 0.000000
0.210000 0.063750 0.000000
0.280000 0.063750 0.000000
0.350000 0.063750 0.000000
0.420000 0.063750 0.000000
0.490000 0.063750 0.000000
0.560000 0.063750 0.000000
0.630000 0.063750 0.000000
0.700000 0.063750 0.000000
0.770000 0.063750 0.000000
0.840000 0.063750 0.000000
0.910000 0.063750 0.000000
0.980000 0.063750 0.000000
1.050000 0.063750 0.000000
1.120000 0.063750 0.000000
0.000000 0.127500 0.000000
0.070000 0.127500 0.000000
0.140000 0.127500 0.000000
0.210000 0.127500 0.000000
0.280000 0.127500 0.000000
0.350000 0.127500 0.000000
0.420000 0.127500 0.000000
0.490000 0.127500 0.000000
0.560000 0.127500 0.000000
0.630000 0.127500 0.000000
0.700000 0.127500 0.000000
0.770000 0.127500 0.000000
0.840000 0.127500 0.000000
0.910000 0.127500 0.000000
0.980000 0.127500 0.000000
1.050000 0.127500 0.000000
1.120000 0.127500 0.000000
0.000000 0.191250 0.000000
0.070000 0.191250 0.000000
0.140000 0.191250 0.000000
0.210000 0.191250 0.000000
0.280000 0.191250 0.000000
0.350000 0.191250 0.000000
0.420000 0.191250 0.000000
0.490000 0.191250 0.000000
0.560000 0.191250 0.000000
0.630000 0.191250 0.000000
0.700000 0.191250 0.000000
0.770000 0.191250 0.000000
0.840000 0.191250 0.000000
0.910000 0.191250 0.000000
0.980000 0.191250 0.000000
1.050000 0.191250 0.000000
1.120000 0.191250 0.000000
0.000000 0.255000 0.000000
0.070000 0.255000 0.000000
0.140000 0.255000 0.000000
0.210000 0.255000 0.000000
0.280000 0.255000 0.000000
0.350000 0.255000 0.000000
0.420000 0.255000 0.000000
0.490000 0.255000 0.000000
0.560000 0.255000 0.000000
0.630000 0.255000 0.000000
0.700000 0.255000 0.000000
0.770000 0.255000 0.000000
0.840000 0.255000 0.000000
0.910000 0.255000 0.000000
0.980000 0.255000 0.000000
1.050000 0.255000 0.000000
1.120000 0.255000 0.000000
0.000000 0.318750 0.000000
0.070000 0.318750 0.000000
0.140000 0.318750 0.000000
0.210000 0.318750 0.000000
0.280000 0.318750 0.000000
0.350000 0.318750 0.000000
0.420000 0.318750 0.000000
0.490000 0.318750 0.000000
0.560000 0.318750 0.000000
0.630000 0.318750 0.000000
0.700000 0.318750 0.000000
0.770000 0.318750 0.000000
0.840000 0.318750 0.000000
0.910000 0.318750 0.000000
0.980000 0.318750 0.000000
1.050000 0.318750 0.000000
1.120000 0.318750 0.000000
0.000000 0.382500 0.000000
0.070000 0.382500 0.000000
0.140000 0.382500 0.000000
0.210000 0.382500 0.000000
0.280000 0.382500 0.000000
0.350000 0.382500 0.000000
0.420000 0.382500 0.000000
0.490000 0.382500 0.000000
0.560000 0.382500 0.000000
0.630000 0.382500 0.000000
0.700000 0.382500 0.000000
0.770000 0.382500 0.000000
0.840000 0.382500 0.000000
0.910000 0.382500 0.000000
0.980000 0.382500 0.000000
1.050000 0.382500 0.000000
1.120000 0.382500 0.000000
0.000000 0.446250 0.000000
0.070000 0.446250 0.000000
0.140000 0.446250 0.000000
0.210000 0.446250 0.000000
0.280000 0.446250 0.000000
0.350000 0.446250 0.000000
0.420000 0.446250 0.000000
0.490000 0.446250 0.000000
0.560000 0.446250 0.000000
0.630000 0.446250 0.000000
0.700000 0.446250 0.000000
0.770000 0.446250 0.000000
0.840000 0.446250 0.000000
0.910000 0.446250 0.000000
0.980000 0.446250 0.000000
1.050000 0.446250 0.000000
1.120000 0.446250 0.000000
0.000000 0.510000 0.000000
0.070000 0.510000 0.000000
0.140000 0.510000 0.000000
0.210000 0.510000 0.000000
0.280000 0.510000 0.000000
0.350000 0.510000 0.000000
0.420000 0.510000 0.000000
0.490000 0.510000 0.000000
0.560000 0.510000 0.000000
0.630000 0.510000 0.000000
0.700000 0.510000 0.000000
0.770000 0.510000 0.000000
0.840000 0.510000 0.000000
0.910000 0.510000 0.000000
0.980000 0.510000 0.000000
1.050000 0.510000 0.000000
1.120000 0.510000 0.000000
0.000000 0.573750 0.000000
0.070000 0.573750 0.000000
0.140000 0.573750 0.000000
0.210000 0.573750 0.000000
0.280000 0.573750 0.000000
0.350000 0.573750 0.000000
0.420000 0.573750 0.000000
0.490000 0.573750 0.000000
0.560000 0.573750 0.000000
0.630000 0.573750 0.000000
0.700000 0.573750 0.000000
0.770000 0.573750 0.000000
0.840000 0.573750 0.000000
0.910000 0.573750 0.000000
0.980000 0.573750 0.000000
1.050000 0.573750 0.000000
1.120000 0.573750 0.000000
0.000000 0.637500 0.000000
0.070000 0.637500 0.000000
0.140000 0.637500 0.000000
0.210000 0.637500 0.000000
0.280000 0.637500 0.000000
0.350000 0.637500 0.000000
0.420000 0.637500 0.000000
0.490000 0.637500 0.000000
0.560000 0.637500 0.000000
0.630000 0.637500 0.000000
0.700000 0.637500 0.000000
0.770000 0.637500 0.000000
0.840000 0.637500 0.000000
0.910000 0.637500 0.000000
0.980000 0.637500 0.000000
1.050000 0.637500 0.000000
1.120000 0.637500 0.000000
0.000000 0.701250 0.000000
0.070000 0.701250 0.000000
0.140000 0.701250 0.000000
0.210000 0.701250 0.000000
0.280000 0.701250 0.000000
0.350000 0.701250 0.000000
0.420000 0.701250 0.000000
0.490000 0.701250 0.000000
0.560000 0.701250 0.000000
0.630000 0.701250 0.000000
0.700000 0.701250 0.000000
0.770000 0.701250 0.000000
0.840000 0.701250 0.000000
0.910000 0.701250 0.000000
0.980000 0.701250 0.000000
1.050000 0.701250 0.000000
1.120000 0.701250 0.000000
0.000000 0.765000 0.000000
0.070000 0.765000 0.000000
0.140000 0.765000 0.000000
0.210000 0.765000 0.000000
0.280000 0.765000 0.000000
0.350000 0.765000 0.000000
0.420000 0.765000 0.000000
0.490000 0.765000 0.000000
0.560000 0.765000 0.000000
0.630000 0.765000 0.000000
0.700000 0.765000 0.000000
0.770000 0.765000 0.000000
0.840000 0.765000 0.000000
0.910000 0.765000 0.000000
0.980000 0.765000 0.000000
1.050000 0.765000 0.000000
1.120000 0.765000 0.000000
0.000000 0.828750 0.000000
0.070000 0.828750 0.000000
0.140000 0.828750 0.000000
0.210000 0.828750 0.000000
0.280000 0.828750 0.000000
0.350000 0.828750 0.000000
0.420000 0.828750 0.000000
0.490000 0.828750 0.000000
0.560000 0.828750 0.000000
0.630000 0.828750 0.000000
0.700000 0.828750 0.000000
0.770000 0.828750 0.000000
0.840000 0.828750 0.000000
0.910000 0.828750 0.000000
0.980000 0.828750 0.000000
1.050000 0.828750 0.000000
1.120000 0.828750 0.000000
0.000000 0.892500 0.000000
0.070000 0.892500 0.000000
0.140000 0.892500 0.000000
0.210000 0.892500 0.000000
0.280000 0.892500 0.000000
0.350000 0.892500 0.000000
0.420000 0.892500 0.000000
0.490000 0.892500 0.000000
0.560000 0.892500 0.000000
0.630000 0.892500 0.000000
0.700000 0.892500 0.000000
0.770000 0.892500 0.000000
0.840000 0.892500 0.000000
0.910000 0.892500 0.000000
0.980000 0.892500 0.000000
1.050000 0.892500 0.000000
1.120000 0.892500 0.000000
0.000000 0.956250 0.000000
0.070000 0.956250 0.000000
0.140000 0.956250 0.000000
0.210000 0.956250 0.000000
0.280000 0.956250 0.000000
0.350000 0.956250 0.000000
0.420000 0.956250 0.000000
0.490000 0.956250 0.000000
0.560000 0.956250 0.000000
0.630000 0.956250 0.000000
0.700000 0.956250 0.000000
0.770000 0.956250 0.000000
0.840000 0.956250 0.000000
0.910000 0.956250 0.000000
0.980000 0.956250 0.000000
1.050000 0.956250 0.000000
1.120000 0.956250 0.000000
0.000000 1.020000 0.000000
0.070000 1.020000 0.000000
0.140000 1.020000 0.000000
0.210000 1.020000 0.000000
0.280000 1.020000 0.000000
0.350000 1.020000 0.000000
0.420000 1.020000 0.000000
0.490000 1.020000 0.000000
0.560000 1.020000 0.000000
0.630000 1.020000 0.000000
0.700000 1.020000 0.000000
0.770000 1.020000 0.000000
0.840000 1.020000 0.000000
0.910000 1.020000 0.000000
0.980000 1.020000 0.000000
1.050000 1.020000 0.000000
1.120000 1.020000 0.000000
0.000000 0.000000 0.051250
0.070000 0.000000 0.051250
0.140000 0.000000 0.051250
0.210000 0.000000 0.051250
0.280000 0.000000 0.051250
0.350000 0.000000 0.051250
0.420000 0.000000 0.051250
0.490000 0.000000 0.051250
0.560000 0.000000 0.051250
0.630000 0.000000 0.051250
0.700000 0.000000 0.051250
0.770000 0.000000 0.051250
0.840000 0.000000 0.051250
0.910000 0.000000 0.051250
0.980000 0.000000 0.051250
1.050000 0.000000 0.051250
1.120000 0.000000 0.051250
0.000000 0.063750 0.051250
0.070000 0.063750 0.051250
0.140000 0.063750 0.051250
0.210000 0.063750 0.051250
0.280000 0.063750 0.051250
0.350000 0.063750 0.051250
0.420000 0.063750 0.051250
0.490000 0.063750 0.051250
0.560000 0.063750 0.051250
0.630000 0.063750 0.051250
0.700000 0.063750 0.051250
0.770000 0.063750 0.051250
0.840000 0.063750 0.051250
0.910000 0.063750 0.051250
0.980000 0.063750 0.051250
1.050000 0.063750 0.051250
1.120000 0.063750 0.051250
0.000000 0.127500 0.051250
0.070000 0.127500 0.051250
0.140000 0.127500 0.051250
0.210000 0.127500 0.051250
0.280000 0.127500 0.051250
0.350000 0.127500 0.051250
0.420000 0.127500 0.051250
0.490000 0.127500 0.051250
0.560000 0.127500 0.051250
0.630000 0.127500 0.051250
0.700000 0.127500 0.051250
0.770000 0.127500 0.051250
0.840000 0.127500 0.051250
0.910000 0.127500 0.051250
0.980000 0.127500 0.051250
1.050000 0.127500 0.051250
1.120000 0.127500 0.051250
0.000000 0.191250 0.051250
0.070000 0.191250 0.051250
0.140000 0.191250 0.051250
0.210000 0.191250 0.051250
0.280000 0.191250 0.051250
0.350000 0.191250 0.051250
0.420000 0.191250 0.051250
0.490000 0.191250 0.051250
0.560000 0.191250 0.051250
0.630000 0.191250 0.051250
0.700000 0.191250 0.051250
0.770000 0.191250 0.051250
0.840000 0.191250 0.051250
0.910000 0.191250 0.051250
0.980000 0.191250 0.051250
1.050000 0.191250 0.051250
1.120000 0.191250 0.051250
0.000000 0.255000 0.051250
0.070000 0.255000 0.051250
0.140000 0.255000 0.051250
0.210000 0.255000 0.051250
0.280000 0.255000 0.051250
0.350000 0.255000 0.051250
0.420000 0.255000 0.051250
0.490000 0.255000 0.051250
0.560000 0.255000 0.051250
0.630000 0.255000 0.051250
0.700000 0.255000 0.051250
0.770000 0.255000 0.051250
0.840000 0.255000 0.051250
0.910000 0.255000 0.051250
0.980000 0.255000 0.051250
1.050000 0.255000 0.051250
1.120000 0.255000 0.051250
0.000000 0.318750 0.051250
0.070000 0.318750 0.051250
0.140000 0.318750 0.051250
0.210000 0.318750 0.051250
0.280000 0.318750 0.051250
0.350000 0.318750 0.051250
0.420000 0.318750 0.051250
0.490000 0.318750 0.051250
0.560000 0.318750 0.051250
0.630000 0.318750 0.051250
0.700000 0.318750 0.051250
0.770000 0.318750 0.051250
0.840000 0.318750 0.051250
0.910000 0.318750 0.051250
0.980000 0.318750 0.051250
1.050000 0.318750 0.051250
1.120000 0.318750 0.051250
0.000000 0.382500 0.051250
0.070000 0.382500 0.051250
0.140000 0.382500 0.051250
0.210000 0.382500 0.051250
0.280000 0.382500 0.051250
0.350000 0.382500 0.051250
0.420000 0.382500 0.051250
0.490000 0.382500 0.051250
0.560000 0.382500 0.051250
0.630000 0.382500 0.051250
0.700000 0.382500 0.051250
0.770000 0.382500 0.051250
0.840000 0.382500 0.051250
0.910000 0.382500 0.051250
0.980000 0.382500 0.051250
1.050000 0.382500 0.051250
1.120000 0.382500 0.051250
0.000000 0.446250 0.051250
0.070000 0.446250 0.051250
0.140000 0.446250 0.051250
0.210000 0.446250 0.051250
0.280000 0.446250 0.051250
0.350000 0.446250 0.051250
0.420000 0.446250 0.051250
0.490000 0.446250 0.051250
0.560000 0.446250 0.051250
0.630000 0.446250 0.051250
0.700000 0.446250 0.051250
0.770000 0.446250 0.051250
0.840000 0.446250 0.051250
0.910000 0.446250 0.051250
0.980000 0.446250 0.051250
1.050000 0.446250 0.051250
1.120000 0.446250 0.051250
0.000000 0.510000 0.051250
0.070000 0.510000 0.051250
0.140000 0.510000 0.051250
0.210000 0.510000 0.051250
0.280000 0.510000 0.051250
0.350000 0.510000 0.051250
0.420000 0.510000 0.051250
0.490000 0.510000 0.051250
0.560000 0.510000 0.051250
0.630000 0.510000 0.051250
0.700000 0.510000 0.051250
0.770000 0.510000 0.051250
0.840000 0.510000 0.051250
0.910000 0.510000 0.051250
0.980000 0.510000 0.051250
1.050000 0.510000 0.051250
1.120000 0.510000 0.051250
0.000000 0.573750 0.051250
0.070000 0.573750 0.051250
0.140000 0.573750 0.051250
0.210000 0.573750 0.051250
0.280000 0.573750 0.051250
0.350000 0.573750 0.051250
0.420000 0.573750 0.051250
0.490000 0.573750 0.051250
0.560000 0.573750 0.051250
0.630000 0.573750 0.051250
0.700000 0.573750 0.051250
0.770000 0.573750 0.051250
0.840000 0.573750 0.051250
0.910000 0.573750 0.051250
0.980000 0.573750 0.051250
1.050000 0.573750 0.051250
1.120000 0.573750 0.051250
0.000000 0.637500 0.051250
0.070000 0.637500 0.051250
0.140000 0.637500 0.051250
0.210000 0.637500 0.051250
0.280000 0.637500 0.051250
0.350000 0.637500 0.051250
0.420000 0.637500 0.051250
0.490000 0.637500 0.051250
0.560000 0.637500 0.051250
0.630000 0.637500 0.051250
0.700000 0.637500 0.051250
0.770000 0.637500 0.051250
0.840000 0.637500 0.051250
0.910000 0.637500 0.051250
0.980000 0.637500 0.051250
1.050000 0.637500 0.051250
1.120000 0.637500 0.051250
0.000000 0.701250 0.051250
0.070000 0.701250 0.051250
0.140000 0.701250 0.051250
0.210000 0.701250 0.051250
0.280000 0.701250 0.051250
0.350000 0.701250 0.051250
0.420000 0.701250 0.051250
0.490000 0.701250 0.051250
0.560000 0.701250 0.051250
0.630000 0.701250 0.051250
0.700000 0.701250 0.051250
0.770000 0.701250 0.051250
0.840000 0.701250 0.051250
0.910000 0.701250 0.051250
0.980000 0.701250 0.051250
1.050000 0.701250 0.051250
1.120000 0.701250 0.051250
0.000000 0.765000 0.051250
0.070000 0.765000 0.051250
0.140000 0.765000 0.051250
0.210000 0.765000 0.051250
0.280000 0.765000 0.051250
0.350000 0.765000 0.051250
0.420000 0.765000 0.051250
0.490000 0.765000 0.051250
0.560000 0.765000 0.051250
0.630000 0.765000 0.051250
0.700000 0.765000 0.051250
0.770000 0.765000 0.051250
0.840000 0.765000 0.051250
0.910000 0.765000 0.051250
0.980000 0.765000 0.051250
1.050000 0.765000 0.051250
1.120000 0.765000 0.051250
0.000000 0.828750 0.051250
0.070000 0.828750 0.051250
0.140000 0.828750 0.051250
0.210000 0.828750 0.051250
0.280000 0.828750 0.051250
0.350000 0.828750 0.051250
0.420000 0.828750 0.051250
0.490000 0.828750 0.051250
0.560000 0.828750 0.051250
0.630000 0.828750 0.051250
0.700000 0.828750 0.051250
0.770000 0.828750 0.051250
0.840000 0.828750 0.051250
0.910000 0.828750 0.051250
0.980000 0.828750 0.051250
1.050000 0.828750 0.051250
1.120000 0.828750 0.051250
0.000000 0.892500 0.051250
0.070000 0.892500 0.051250
0.140000 0.892500 0.051250
0.210000 0.892500 0.051250
0.280000 0.892500 0.051250
0.350000 0.892500 0.051250
0.420000 0.892500 0.051250
0.490000 0.892500 0.051250
0.560000 0.892500 0.051250
0.630000 0.892500 0.051250
0.700000 0.892500 0.051250
0.770000 0.892500 0.051250
0.840000 0.892500 0.051250
0.910000 0.892500 0.051250
0.980000 0.892500 0.051250
1.050000 0.892500 0.051250
1.120000 0.892500 0.051250
0.000000 0.956250 0.051250
0.070000 0.956250 0.051250
0.140000 0.956250 0.051250
0.210000 0.956250 0.051250
0.280000 0.956250 0.051250
0.350000 0.956250 0.051250
0.420000 0.956250 0.051250
0.490000 0.956250 0.051250
0.560000 0.956250 0.051250
0.630000 0.956250 0.051250
0.700000 0.956250 0.051250
0.770000 0.956250 0.051250
0.840000 0.956250 0.051250
0.910000 0.956250 0.051250
0.980000 0.956250 0.051250
1.050000 0.956250 0.051250
1.120000 0.956250 0.051250
0.000000 1.020000 0.051250
0.070000 1.020000 0.051250
0.140000 1.020000 0.051250
0.210000 1.020000 0.051250
0.280000 1.020000 0.051250
0.350000 1.020000 0.051250
0.420000 1.020000 0.051250
0.490000 1.020000 0.051250
0.560000 1.020000 0.051250
0.630000 1.020000 0.051250
0.700000 1.020000 0.051250
0.770000 1.020000 0.051250
0.840000 1.020000 0.051250
0.910000 1.020000 0.051250
0.980000 1.020000 0.051250
1.050000 1.020000 0.051250
1.120000 1.020000 0.051250
0.000000 0.000000 0.102500
0.070000 0.000000 0.102500
0.140000 0.000000 0.102500
0.210000 0.000000 0.102500
0.280000 0.000000 0.102500
0.350000 0.000000 0.102500
0.420000 0.000000 0.102500
0.490000 0.000000 0.102500
0.560000 0.000000 0.102500
0.630000 0.000000 0.102500
0.700000 0.000000 0.102500
0.770000 0.000000 0.102500
0.840000 0.000000 0.102500
0.910000 0.000000 0.102500
0.980000 0.000000 0.102500
1.050000 0.000000 0.102500
1.120000 0.000000 0.102500
0.000000 0.063750 0.102500
0.070000 0.063750 0.102500
0.140000 0.063750 0.102500
0.210000 0.063750 0.102500
0.280000 0.063750 0.102500
0.350000 0.063750 0.102500
0.420000 0.063750 0.102500
0.490000 0.063750 0.102500
0.560000 0.063750 0.102500
0.630000 0.063750 0.102500
0.700000 0.063750 0.102500
0.770000 0.063750 0.102500
0.840000 0.063750 0.102500
0.910000 0.063750 0.102500
0.980000 0.063750 0.102500
1.050000 0.063750 0.102500
1.120000 0.063750 0.102500
0.000000 0.127500 0.102500
0.070000 0.127500 0.102500
0.140000 0.127500 0.102500
0.210000 0.127500 0.102500
0.280000 0.127500 0.102500
0.350000 0.127500 0.102500
0.420000 0.127500 0.102500
0.490000 0.127500 0.102500
0.560000 0.127500 0.102500
0.630000 0.127500 0.102500
0.700000 0.127500 0.102500
0.770000 0.127500 0.102500
0.840000 0.127500 0.102500
0.910000 0.127500 0.102500
0.980000 0.127500 0.102500
1.050000 0.127500 0.102500
1.120000 0.127500 0.102500
0.000000 0.191250 0.102500
0.070000 0.191250 0.102500
0.140000 0.191250 0.102500
0.210000 0.191250 0.102500
0.280000 0.191250 0.102500
0.350000 0.191250 0.102500
0.420000 0.191250 0.102500
0.490000 0.191250 0.102500
0.560000 0.191250 0.102500
0.630000 0.191250 0.102500
0.700000 0.191250 0.102500
0.770000 0.191250 0.102500
0.840000 0.191250 0.102500
0.910000 0.191250 0.102500
0.980000 0.191250 0.102500
1.050000 0.191250 0.102500
1.120000 0.191250 0.102500
0.000000 0.255000 0.102500
0.070000 0.255000 0.102500
0.140000 0.255000 0.102500
0.210000 0.255000 0.102500
0.280000 0.255000 0.102500
0.350000 0.255000 0.102500
0.420000 0.255000 0.102500
0.490000 0.255000 0.102500
0.560000 0.255000 0.102500
0.630000 0.255000 0.102500
0.700000 0.255000 0.102500
0.770000 0.255000 0.102500
0.840000 0.255000 0.102500
0.910000 0.255000 0.102500
0.980000 0.255000 0.102500
1.050000 0.255000 0.102500
1.120000 0.255000 0.102500
0.000000 0.318750 0.102500
0.070000 0.318750 0.102500
0.140000 0.318750 0.102500
0.210000 0.318750 0.102500
0.280000 0.318750 0.102500
0.350000 0.318750 0.102500
0.420000 0.318750 0.102500
0.490000 0.318750 0.102500
0.560000 0.318750 0.102500
0.630000 0.318750 0.102500
0.700000 0.318750 0.102500
0.770000 0.318750 0.102500
0.840000 0.318750 0.102500
0.910000 0.318750 0.102500
0.980000 0.318750 0.102500
1.050000 0.318750 0.102500
1.120000 0.318750 0.102500
0.000000 0.382500 0.102500
0.070000 0.382500 0.102500
0.140000 0.382500 0.102500
0.210000 0.382500 0.102500
0.280000 0.382500 0.102500
0.350000 0.382500 0.102500
0.420000 0.382500 0.102500
0.490000 0.382500 0.102500
0.560000 0.382500 0.102500
0.630000 0.382500 0.102500
0.700000 0.382500 0.102500
0.770000 0.382500 0.102500
0.840000 0.382500 0.102500
0.910000 0.382500 0.102500
0.980000 0.382500 0.102500
1.050000 0.382500 0.102500
1.120000 0.382500 0.102500
0.000000 0.446250 0.102500
0.070000 0.446250 0.102500
0.140000 0.446250 0.102500
0.210000 0.446250 0.102500
0.280000 0.446250 0.102500
0.350000 0.446250 0.102500
0.420000 0.446250 0.102500
0.490000 0.446250 0.102500
0.560000 0.446250 0.102500
0.630000 0.446250 0.102500
0.700000 0.446250 0.102500
0.770000 0.446250 0.102500
0.840000 0.446250 0.102500
0.910000 0.446250 0.102500
0.980000 0.446250 0.102500
1.050000 0.446250 0.102500
1.120000 0.446250 0.102500
0.000000 0.510000 0.102500
0.070000 0.510000 0.102500
0.140000 0.510000 0.102500
0.210000 0.510000 0.102500
0.280000 0.510000 0.102500
0.350000 0.510000 0.102500
0.420000 0.510000 0.102500
0.490000 0.510000 0.102500
0.560000 0.510000 0.102500
0.630000 0.510000 0.102500
0.700000 0.510000 0.102500
0.770000 0.510000 0.102500
0.840000 0.510000 0.102500
0.910000 0.510000 0.102500
0.980000 0.510000 0.102500
1.050000 0.510000 0.102500
1.120000 0.510000 0.102500
0.000000 0.573750 0.102500
0.070000 0.573750 0.102500
0.140000 0.573750 0.102500
0.210000 0.573750 0.102500
0.280000 0.573750 0.102500
0.350000 0.573750 0.102500
0.420000 0.573750 0.102500
0.490000 0.573750 0.102500
0.560000 0.573750 0.102500
0.630000 0.573750 0.102500
0.700000 0.573750 0.102500
0.770000 0.573750 0.102500
0.840000 0.573750 0.102500
0.910000 0.573750 0.102500
0.980000 0.573750 0.102500
1.050000 0.573750 0.102500
1.120000 0.573750 0.102500
0.000000 0.637500 0.102500
0.070000 0.637500 0.102500
0.140000 0.637500 0.102500
0.210000 0.637500 0.102500
0.280000 0.637500 0.102500
0.350000 0.637500 0.102500
0.420000 0.637500 0.102500
0.490000 0.637500 0.102500
0.560000 0.637500 0.102500
0.630000 0.637500 0.102500
0.700000 0.637500 0.102500
0.770000 0.637500 0.102500
0.840000 0.637500 0.102500
0.910000 0.637500 0.102500
0.980000 0.637500 0.102500
1.050000 0.637500 0.102500
1.120000 0.637500 0.102500
0.000000 0.701250 0.102500
0.070000 0.701250 0.102500
0.140000 0.701250 0.102500
0.210000 0.701250 0.102500
0.280000 0.701250 0.102500
0.350000 0.701250 0.102500
0.420000 0.701250 0.102500
0.490000 0.701250 0.102500
0.560000 0.701250 0.102500
0.630000 0.701250 0.102500
0.700000 0.701250 0.102500
0.770000 0.701250 0.102500
0.840000 0.701250 0.102500
0.910000 0.701250 0.102500
0.980000 0.701250 0.102500
1.050000 0.701250 0.102500
1.120000 0.701250 0.102500
0.000000 0.765000 0.102500
0.070000 0.765000 0.102500
0.140000 0.765000 0.102500
0.210000 0.765000 0.102500
0.280000 0.765000 0.102500
0.350000 0.765000 0.102500
0.420000 0.765000 0.102500
0.490000 0.765000 0.102500
0.560000 0.765000 0.102500
0.630000 0.765000 0.102500
0.700000 0.765000 0.102500
0.770000 0.765000 0.102500
0.840000 0.765000 0.102500
0.910000 0.765000 0.102500
0.980000 0.765000 0.102500
1.050000 0.765000 0.102500
1.120000 0.765000 0.102500
0.000000 0.828750 0.102500
0.070000 0.828750 0.102500
0.140000 0.828750 0.102500
0.210000 0.828750 0.102500
0.280000 0.828750 0.102500
0.350000 0.828750 0.102500
0.420000 0.828750 0.102500
0.490000 0.828750 0.102500
0.560000 0.828750 0.102500
0.630000 0.828750 0.102500
0.700000 0.828750 0.102500
0.770000 0.828750 0.102500
0.840000 0.828750 0.102500
0.910000 0.828750 0.102500
0.980000 0.828750 0.102500
1.050000 0.828750 0.102500
1.120000 0.828750 0.102500
0.000000 0.892500 0.102500
0.070000 0.892500 0.102500
0.140000 0.892500 0.102500
0.210000 0.892500 0.102500
0.280000 0.892500 0.102500
0.350000 0.892500 0.102500
0.420000 0.892500 0.102500
0.490000 0.892500 0.102500
0.560000 0.892500 0.102500
0.630000 0.892500 0.102500
0.700000 0.892500 0.102500
0.770000 0.892500 0.102500
0.840000 0.892500 0.102500
0.910000 0.892500 0.102500
0.980000 0.892500 0.102500
1.050000 0.892500 0.102500
1.120000 0.892500 0.102500
0.000000 0.956250 0.102500
0.070000 0.956250 0.102500
0.140000 0.956250 0.102500
0.210000 0.956250 0.102500
0.280000 0.956250 0.102500
0.350000 0.956250 0.102500
0.420000 0.956250 0.102500
0.490000 0.956250 0.102500
0.560000 0.956250 0.102500
0.630000 0.956250 0.102500
0.700000 0.956250 0.102500
0.770000 0.956250 0.102500
0.840000 0.956250 0.102500
0.910000 0.956250 0.102500
0.980000 0.956250 0.102500
1.050000 0.956250 0.102500
1.120000 0.956250 0.102500
0.000000 1.020000 0.102500
0.070000 1.020000 0.102500
0.140000 1.020000 0.102500
0.210000 1.020000 0.102500
0.280000 1.020000 0.102500
0.350000 1.020000 0.102500
0.420000 1.020000 0.102500
0.490000 1.020000 0.102500
0.560000 1.020000 0.102500
0.630000 1.020000 0.102500
0.700000 1.020000 0.102500
0.770000 1.020000 0.102500
0.840000 1.020000 0.102500
0.910000 1.020000 0.102500
0.980000 1.020000 0.102500
1.050000 1.020000 0.102500
1.120000 1.020000 0.102500
0.000000 0.000000 0.153750
0.070000 0.000000 0.153750
0.140000 0.000000 0.153750
0.210000 0.000000 0.153750
0.280000 0.000000 0.153750
0.350000 0.000000 0.153750
0.420000 0.000000 0.153750
0.490000 0.000000 0.153750
0.560000 0.000000 0.153750
0.630000 0.000000 0.153750
0.700000 0.000000 0.153750
0.770000 0.000000 0.153750
0.840000 0.000000 0.153750
0.910000 0.000000 0.153750
0.980000 0.000000 0.153750
1.050000 0.000000 0.153750
1.120000 0.000000 0.153750
0.000000 0.063750 0.153750
